(G-CODE GENERATED BY FLATCAM v8.994 - www.flatcam.org - Version Date: 2020/11/7)

(Name: PCB2.GKO_cutout_2_cnc)
(Type: G-code from Geometry)
(Units: MM)

(Created on Friday, 15 December 2023 at 14:28)

(This preprocessor is the default preprocessor used by FlatCAM.)
(It is made to work with MACH3 compatible motion controllers.)

(TOOL DIAMETER: 2.4 mm)
(Feedrate_XY: 120.0 mm/min)
(Feedrate_Z: 60.0 mm/min)
(Feedrate rapids 1500.0 mm/min)

(Z_Cut: -2.0 mm)
(Z_Move: 2.0 mm)
(Z Start: None mm)
(Z End: 15.0 mm)
(X,Y End: None mm)
(Steps per circle: 64)
(Preprocessor Geometry: default)

(X range:   -3.3511 ...   80.3031  mm)
(Y range:   -1.8501 ...   71.8041  mm)

(Spindle Speed: 0.0 RPM)
G21
G90
G94

G01 F120.00

M5
G00 Z15.0000
G00 X0.0000 Y0.0000
T1
M6    
(MSG, Change to Tool Dia = 2.4000)
M0
G00 Z15.0000

M03
G01 F120.00
G00 X-3.3511 Y31.7770
G01 F60.00
G01 Z-2.0000
G01 F120.00
G01 X-3.3511 Y4.9770
G01 X-3.3506 Y4.9353
G01 X-3.3489 Y4.8874
G01 X-3.3248 Y4.3973
G01 X-3.3186 Y4.3141
G01 X-3.3174 Y4.3016
G01 X-3.3072 Y4.2188
G01 X-3.2352 Y3.7335
G01 X-3.2209 Y3.6513
G01 X-3.2185 Y3.6390
G01 X-3.2002 Y3.5576
G01 X-3.0810 Y3.0816
G01 X-3.0588 Y3.0012
G01 X-3.0551 Y2.9893
G01 X-3.0290 Y2.9101
G01 X-2.8637 Y2.4481
G01 X-2.8336 Y2.3702
G01 X-2.8289 Y2.3587
G01 X-2.7950 Y2.2824
G01 X-2.5853 Y1.8388
G01 X-2.5477 Y1.7643
G01 X-2.5419 Y1.7533
G01 X-2.5007 Y1.6807
G01 X-2.2485 Y1.2599
G01 X-2.2038 Y1.1894
G01 X-2.1969 Y1.1790
G01 X-2.1489 Y1.1108
G01 X-1.8566 Y0.7167
G01 X-1.8052 Y0.6509
G01 X-1.7973 Y0.6412
G01 X-1.7428 Y0.5781
G01 X-1.4133 Y0.2145
G01 X-1.3558 Y0.1541
G01 X-1.3469 Y0.1452
G01 X-1.2865 Y0.0877
G01 X-0.9229 Y-0.2418
G01 X-0.8598 Y-0.2963
G01 X-0.8501 Y-0.3042
G01 X-0.7843 Y-0.3556
G01 X-0.3902 Y-0.6479
G01 X-0.3220 Y-0.6959
G01 X-0.3116 Y-0.7028
G01 X-0.2411 Y-0.7475
G01 X0.1797 Y-0.9997
G01 X0.2523 Y-1.0409
G01 X0.2633 Y-1.0467
G01 X0.3378 Y-1.0843
G01 X0.7814 Y-1.2940
G01 X0.8577 Y-1.3279
G01 X0.8692 Y-1.3326
G01 X0.9471 Y-1.3627
G01 X1.4091 Y-1.5280
G01 X1.4883 Y-1.5541
G01 X1.5002 Y-1.5578
G01 X1.5806 Y-1.5800
G01 X2.0566 Y-1.6992
G01 X2.1380 Y-1.7175
G01 X2.1503 Y-1.7199
G01 X2.2325 Y-1.7342
G01 X2.7178 Y-1.8062
G01 X2.8006 Y-1.8164
G01 X2.8131 Y-1.8176
G01 X2.8963 Y-1.8238
G01 X3.3864 Y-1.8479
G01 X3.4280 Y-1.8494
G01 X3.4760 Y-1.8501
G01 X73.4760 Y-1.8501
G01 X73.5177 Y-1.8496
G01 X73.5656 Y-1.8479
G01 X74.0557 Y-1.8238
G01 X74.1389 Y-1.8176
G01 X74.1514 Y-1.8164
G01 X74.2342 Y-1.8062
G01 X74.7195 Y-1.7342
G01 X74.8017 Y-1.7199
G01 X74.8140 Y-1.7175
G01 X74.8954 Y-1.6992
G01 X75.3714 Y-1.5800
G01 X75.4518 Y-1.5578
G01 X75.4637 Y-1.5541
G01 X75.5429 Y-1.5280
G01 X76.0049 Y-1.3627
G01 X76.0828 Y-1.3326
G01 X76.0943 Y-1.3279
G01 X76.1706 Y-1.2940
G01 X76.6142 Y-1.0843
G01 X76.6887 Y-1.0467
G01 X76.6997 Y-1.0409
G01 X76.7723 Y-0.9997
G01 X77.1931 Y-0.7475
G01 X77.2636 Y-0.7028
G01 X77.2740 Y-0.6959
G01 X77.3422 Y-0.6479
G01 X77.7363 Y-0.3556
G01 X77.8021 Y-0.3042
G01 X77.8118 Y-0.2963
G01 X77.8749 Y-0.2418
G01 X78.2385 Y0.0877
G01 X78.2989 Y0.1452
G01 X78.3078 Y0.1541
G01 X78.3653 Y0.2145
G01 X78.6948 Y0.5781
G01 X78.7493 Y0.6412
G01 X78.7572 Y0.6509
G01 X78.8086 Y0.7167
G01 X79.1009 Y1.1108
G01 X79.1489 Y1.1790
G01 X79.1558 Y1.1894
G01 X79.2005 Y1.2599
G01 X79.4527 Y1.6807
G01 X79.4939 Y1.7533
G01 X79.4997 Y1.7643
G01 X79.5373 Y1.8388
G01 X79.7470 Y2.2824
G01 X79.7809 Y2.3587
G01 X79.7856 Y2.3702
G01 X79.8157 Y2.4481
G01 X79.9810 Y2.9101
G01 X80.0071 Y2.9893
G01 X80.0108 Y3.0012
G01 X80.0330 Y3.0816
G01 X80.1522 Y3.5576
G01 X80.1705 Y3.6390
G01 X80.1729 Y3.6513
G01 X80.1872 Y3.7335
G01 X80.2592 Y4.2188
G01 X80.2694 Y4.3016
G01 X80.2706 Y4.3141
G01 X80.2768 Y4.3973
G01 X80.3009 Y4.8874
G01 X80.3026 Y4.9353
G01 X80.3031 Y4.9770
G01 X80.3031 Y31.7770
G00 Z2.0000
G00 X-3.3511 Y39.1770
G01 F60.00
G01 Z-2.0000
G01 F120.00
G01 X-3.3511 Y64.9770
G01 X-3.3489 Y65.0666
G01 X-3.3248 Y65.5567
G01 X-3.3186 Y65.6399
G01 X-3.3174 Y65.6524
G01 X-3.3072 Y65.7352
G01 X-3.2352 Y66.2205
G01 X-3.2209 Y66.3027
G01 X-3.2185 Y66.3150
G01 X-3.2002 Y66.3964
G01 X-3.0810 Y66.8724
G01 X-3.0588 Y66.9528
G01 X-3.0551 Y66.9647
G01 X-3.0290 Y67.0439
G01 X-2.8637 Y67.5059
G01 X-2.8336 Y67.5838
G01 X-2.8289 Y67.5953
G01 X-2.7950 Y67.6716
G01 X-2.5853 Y68.1152
G01 X-2.5477 Y68.1897
G01 X-2.5419 Y68.2007
G01 X-2.5007 Y68.2733
G01 X-2.2485 Y68.6941
G01 X-2.2038 Y68.7646
G01 X-2.1969 Y68.7750
G01 X-2.1489 Y68.8432
G01 X-1.8566 Y69.2373
G01 X-1.8052 Y69.3031
G01 X-1.7973 Y69.3128
G01 X-1.7428 Y69.3759
G01 X-1.4133 Y69.7395
G01 X-1.3558 Y69.7999
G01 X-1.3469 Y69.8088
G01 X-1.2865 Y69.8663
G01 X-0.9229 Y70.1958
G01 X-0.8598 Y70.2503
G01 X-0.8501 Y70.2582
G01 X-0.7843 Y70.3096
G01 X-0.3902 Y70.6019
G01 X-0.3220 Y70.6499
G01 X-0.3116 Y70.6568
G01 X-0.2411 Y70.7015
G01 X0.1797 Y70.9537
G01 X0.2523 Y70.9949
G01 X0.2633 Y71.0007
G01 X0.3378 Y71.0383
G01 X0.7814 Y71.2480
G01 X0.8577 Y71.2819
G01 X0.8692 Y71.2866
G01 X0.9471 Y71.3167
G01 X1.4091 Y71.4820
G01 X1.4883 Y71.5081
G01 X1.5002 Y71.5118
G01 X1.5806 Y71.5340
G01 X2.0566 Y71.6532
G01 X2.1380 Y71.6715
G01 X2.1503 Y71.6739
G01 X2.2325 Y71.6882
G01 X2.7178 Y71.7602
G01 X2.8006 Y71.7704
G01 X2.8131 Y71.7716
G01 X2.8963 Y71.7778
G01 X3.3864 Y71.8019
G01 X3.4343 Y71.8036
G01 X3.4760 Y71.8041
G01 X73.4760 Y71.8041
G01 X73.5177 Y71.8036
G01 X73.5656 Y71.8019
G01 X74.0557 Y71.7778
G01 X74.1389 Y71.7716
G01 X74.1514 Y71.7704
G01 X74.2342 Y71.7602
G01 X74.7195 Y71.6882
G01 X74.8017 Y71.6739
G01 X74.8140 Y71.6715
G01 X74.8954 Y71.6532
G01 X75.3714 Y71.5340
G01 X75.4518 Y71.5118
G01 X75.4637 Y71.5081
G01 X75.5429 Y71.4820
G01 X76.0049 Y71.3167
G01 X76.0828 Y71.2866
G01 X76.0943 Y71.2819
G01 X76.1706 Y71.2480
G01 X76.6142 Y71.0383
G01 X76.6887 Y71.0007
G01 X76.6997 Y70.9949
G01 X76.7723 Y70.9537
G01 X77.1931 Y70.7015
G01 X77.2636 Y70.6568
G01 X77.2740 Y70.6499
G01 X77.3422 Y70.6019
G01 X77.7363 Y70.3096
G01 X77.8021 Y70.2582
G01 X77.8118 Y70.2503
G01 X77.8749 Y70.1958
G01 X78.2385 Y69.8663
G01 X78.2989 Y69.8088
G01 X78.3078 Y69.7999
G01 X78.3653 Y69.7395
G01 X78.6948 Y69.3759
G01 X78.7493 Y69.3128
G01 X78.7572 Y69.3031
G01 X78.8086 Y69.2373
G01 X79.1009 Y68.8432
G01 X79.1489 Y68.7750
G01 X79.1558 Y68.7646
G01 X79.2005 Y68.6941
G01 X79.4527 Y68.2733
G01 X79.4939 Y68.2007
G01 X79.4997 Y68.1897
G01 X79.5373 Y68.1152
G01 X79.7470 Y67.6716
G01 X79.7809 Y67.5953
G01 X79.7856 Y67.5838
G01 X79.8157 Y67.5059
G01 X79.9810 Y67.0439
G01 X80.0071 Y66.9647
G01 X80.0108 Y66.9528
G01 X80.0330 Y66.8724
G01 X80.1522 Y66.3964
G01 X80.1705 Y66.3150
G01 X80.1729 Y66.3027
G01 X80.1872 Y66.2205
G01 X80.2592 Y65.7352
G01 X80.2694 Y65.6524
G01 X80.2706 Y65.6399
G01 X80.2768 Y65.5567
G01 X80.3009 Y65.0666
G01 X80.3024 Y65.0250
G01 X80.3031 Y64.9770
G01 X80.3031 Y39.1770
G00 Z2.0000
M05
G00 Z2.0000
G00 Z15.00


