(G-CODE GENERATED BY FLATCAM v8.994 - www.flatcam.org - Version Date: 2020/11/7)

(Name: PCB2.TXT_cnc)
(Type: G-code from Geometry)
(Units: MM)

(Created on Thursday, 14 December 2023 at 15:56)

(This preprocessor is the default preprocessor used by FlatCAM.)
(It is made to work with MACH3 compatible motion controllers.)


(TOOLS DIAMETER: )
(Tool: 1 -> Dia: 0.8)
(Tool: 2 -> Dia: 1.0)
(Tool: 3 -> Dia: 1.2)
(Tool: 4 -> Dia: 3.0)

(FEEDRATE Z: )
(Tool: 1 -> Feedrate: 99.80000000000001)
(Tool: 2 -> Feedrate: 99.80000000000001)
(Tool: 3 -> Feedrate: 99.80000000000001)
(Tool: 4 -> Feedrate: 99.80000000000001)

(FEEDRATE RAPIDS: )
(Tool: 1 -> Feedrate Rapids: 1500)
(Tool: 2 -> Feedrate Rapids: 1500)
(Tool: 3 -> Feedrate Rapids: 1500)
(Tool: 4 -> Feedrate Rapids: 1500)

(Z_CUT: )
(Tool: 1 -> Z_Cut: -2.0)
(Tool: 2 -> Z_Cut: -2.0)
(Tool: 3 -> Z_Cut: -2.0)
(Tool: 4 -> Z_Cut: -2.0)

(Tools Offset: )
(Tool: 1 -> Offset Z: 0.0)
(Tool: 2 -> Offset Z: 0.0)
(Tool: 3 -> Offset Z: 0.0)
(Tool: 4 -> Offset Z: 0.0)

(Z_MOVE: )
(Tool: 1 -> Z_Move: 2.0)
(Tool: 2 -> Z_Move: 2.0)
(Tool: 3 -> Z_Move: 2.0)
(Tool: 4 -> Z_Move: 2.0)

(Z Toolchange: 15 mm)
(X,Y Toolchange: 0.0000, 0.0000 mm)
(Z Start: None mm)
(Z End: 0.5 mm)
(X,Y End: None mm)
(Steps per circle: 64)
(Preprocessor Excellon: default)

(X range:    1.8020 ...   75.0330  mm)
(Y range:    1.9290 ...   68.0480  mm)

(Spindle Speed: 0 RPM)
G21
G90
G94

G01 F99.80

M5
G00 Z15.0000
T1
G00 X0.0000 Y0.0000                
M6
(MSG, Change to Tool Dia = 0.8000 ||| Total drills for tool T1 = 101)
M0
G00 Z15.0000

G01 F99.80
M03
G00 X53.5940 Y3.7230
G01 Z-2.0000
G01 Z0
G00 Z2.0000
G00 X53.5940 Y8.7230
G01 Z-2.0000
G01 Z0
G00 Z2.0000
G00 X47.2440 Y4.1910
G01 Z-2.0000
G01 Z0
G00 Z2.0000
G00 X40.5130 Y4.1910
G01 Z-2.0000
G01 Z0
G00 Z2.0000
G00 X35.4330 Y4.1910
G01 Z-2.0000
G01 Z0
G00 Z2.0000
G00 X29.7180 Y4.4450
G01 Z-2.0000
G01 Z0
G00 Z2.0000
G00 X21.8760 Y4.4100
G01 Z-2.0000
G01 Z0
G00 Z2.0000
G00 X21.8670 Y6.8060
G01 Z-2.0000
G01 Z0
G00 Z2.0000
G00 X11.0720 Y6.6790
G01 Z-2.0000
G01 Z0
G00 Z2.0000
G00 X11.0810 Y4.2830
G01 Z-2.0000
G01 Z0
G00 Z2.0000
G00 X3.4290 Y3.4290
G01 Z-2.0000
G01 Z0
G00 Z2.0000
G00 X3.5560 Y9.0170
G01 Z-2.0000
G01 Z0
G00 Z2.0000
G00 X4.0640 Y17.9070
G01 Z-2.0000
G01 Z0
G00 Z2.0000
G00 X6.6040 Y17.9070
G01 Z-2.0000
G01 Z0
G00 Z2.0000
G00 X9.1440 Y17.9070
G01 Z-2.0000
G01 Z0
G00 Z2.0000
G00 X11.6840 Y17.9070
G01 Z-2.0000
G01 Z0
G00 Z2.0000
G00 X20.9550 Y17.9070
G01 Z-2.0000
G01 Z0
G00 Z2.0000
G00 X23.4950 Y17.9070
G01 Z-2.0000
G01 Z0
G00 Z2.0000
G00 X26.0350 Y17.9070
G01 Z-2.0000
G01 Z0
G00 Z2.0000
G00 X28.5750 Y17.9070
G01 Z-2.0000
G01 Z0
G00 Z2.0000
G00 X27.9400 Y29.9720
G01 Z-2.0000
G01 Z0
G00 Z2.0000
G00 X26.1620 Y35.5600
G01 Z-2.0000
G01 Z0
G00 Z2.0000
G00 X25.4000 Y29.9720
G01 Z-2.0000
G01 Z0
G00 Z2.0000
G00 X22.8600 Y29.9720
G01 Z-2.0000
G01 Z0
G00 Z2.0000
G00 X20.3200 Y29.9720
G01 Z-2.0000
G01 Z0
G00 Z2.0000
G00 X11.6349 Y29.9720
G01 Z-2.0000
G01 Z0
G00 Z2.0000
G00 X9.0949 Y29.9720
G01 Z-2.0000
G01 Z0
G00 Z2.0000
G00 X6.5549 Y29.9720
G01 Z-2.0000
G01 Z0
G00 Z2.0000
G00 X4.0149 Y29.9720
G01 Z-2.0000
G01 Z0
G00 Z2.0000
G00 X7.6200 Y34.4170
G01 Z-2.0000
G01 Z0
G00 Z2.0000
G00 X9.0170 Y36.1950
G01 Z-2.0000
G01 Z0
G00 Z2.0000
G00 X10.6680 Y37.8460
G01 Z-2.0000
G01 Z0
G00 Z2.0000
G00 X11.0490 Y40.3860
G01 Z-2.0000
G01 Z0
G00 Z2.0000
G00 X13.0810 Y50.0380
G01 Z-2.0000
G01 Z0
G00 Z2.0000
G00 X15.6210 Y50.0380
G01 Z-2.0000
G01 Z0
G00 Z2.0000
G00 X18.1610 Y50.0380
G01 Z-2.0000
G01 Z0
G00 Z2.0000
G00 X20.7010 Y50.0380
G01 Z-2.0000
G01 Z0
G00 Z2.0000
G00 X3.3020 Y66.5480
G01 Z-2.0000
G01 Z0
G00 Z2.0000
G00 X13.0810 Y65.2780
G01 Z-2.0000
G01 Z0
G00 Z2.0000
G00 X15.6210 Y65.2780
G01 Z-2.0000
G01 Z0
G00 Z2.0000
G00 X18.1610 Y65.2780
G01 Z-2.0000
G01 Z0
G00 Z2.0000
G00 X20.7010 Y65.2780
G01 Z-2.0000
G01 Z0
G00 Z2.0000
G00 X23.2410 Y65.2780
G01 Z-2.0000
G01 Z0
G00 Z2.0000
G00 X25.7810 Y65.2780
G01 Z-2.0000
G01 Z0
G00 Z2.0000
G00 X28.3210 Y65.2780
G01 Z-2.0000
G01 Z0
G00 Z2.0000
G00 X30.8610 Y65.2780
G01 Z-2.0000
G01 Z0
G00 Z2.0000
G00 X33.4010 Y65.2780
G01 Z-2.0000
G01 Z0
G00 Z2.0000
G00 X35.9410 Y65.2780
G01 Z-2.0000
G01 Z0
G00 Z2.0000
G00 X38.4810 Y65.2780
G01 Z-2.0000
G01 Z0
G00 Z2.0000
G00 X41.0210 Y65.2780
G01 Z-2.0000
G01 Z0
G00 Z2.0000
G00 X43.5610 Y65.2780
G01 Z-2.0000
G01 Z0
G00 Z2.0000
G00 X46.1010 Y65.2780
G01 Z-2.0000
G01 Z0
G00 Z2.0000
G00 X48.6410 Y65.2780
G01 Z-2.0000
G01 Z0
G00 Z2.0000
G00 X51.1810 Y65.2780
G01 Z-2.0000
G01 Z0
G00 Z2.0000
G00 X53.7210 Y65.2780
G01 Z-2.0000
G01 Z0
G00 Z2.0000
G00 X56.2610 Y65.2780
G01 Z-2.0000
G01 Z0
G00 Z2.0000
G00 X58.8010 Y65.2780
G01 Z-2.0000
G01 Z0
G00 Z2.0000
G00 X61.3410 Y65.2780
G01 Z-2.0000
G01 Z0
G00 Z2.0000
G00 X73.5330 Y66.5480
G01 Z-2.0000
G01 Z0
G00 Z2.0000
G00 X71.8820 Y43.3070
G01 Z-2.0000
G01 Z0
G00 Z2.0000
G00 X64.3890 Y43.1800
G01 Z-2.0000
G01 Z0
G00 Z2.0000
G00 X61.3410 Y50.0380
G01 Z-2.0000
G01 Z0
G00 Z2.0000
G00 X58.8010 Y50.0380
G01 Z-2.0000
G01 Z0
G00 Z2.0000
G00 X56.2610 Y50.0380
G01 Z-2.0000
G01 Z0
G00 Z2.0000
G00 X53.7210 Y50.0380
G01 Z-2.0000
G01 Z0
G00 Z2.0000
G00 X51.1810 Y50.0380
G01 Z-2.0000
G01 Z0
G00 Z2.0000
G00 X48.6410 Y50.0380
G01 Z-2.0000
G01 Z0
G00 Z2.0000
G00 X46.1010 Y50.0380
G01 Z-2.0000
G01 Z0
G00 Z2.0000
G00 X43.5610 Y50.0380
G01 Z-2.0000
G01 Z0
G00 Z2.0000
G00 X35.4330 Y60.8330
G01 Z-2.0000
G01 Z0
G00 Z2.0000
G00 X32.1820 Y55.8800
G01 Z-2.0000
G01 Z0
G00 Z2.0000
G00 X27.1780 Y55.8800
G01 Z-2.0000
G01 Z0
G00 Z2.0000
G00 X23.2410 Y50.0380
G01 Z-2.0000
G01 Z0
G00 Z2.0000
G00 X25.7810 Y50.0380
G01 Z-2.0000
G01 Z0
G00 Z2.0000
G00 X28.3210 Y50.0380
G01 Z-2.0000
G01 Z0
G00 Z2.0000
G00 X30.8610 Y50.0380
G01 Z-2.0000
G01 Z0
G00 Z2.0000
G00 X33.4010 Y50.0380
G01 Z-2.0000
G01 Z0
G00 Z2.0000
G00 X35.9410 Y50.0380
G01 Z-2.0000
G01 Z0
G00 Z2.0000
G00 X38.4810 Y50.0380
G01 Z-2.0000
G01 Z0
G00 Z2.0000
G00 X41.0210 Y50.0380
G01 Z-2.0000
G01 Z0
G00 Z2.0000
G00 X44.9580 Y37.7190
G01 Z-2.0000
G01 Z0
G00 Z2.0000
G00 X49.6570 Y30.2260
G01 Z-2.0000
G01 Z0
G00 Z2.0000
G00 X52.1970 Y30.2260
G01 Z-2.0000
G01 Z0
G00 Z2.0000
G00 X54.7370 Y30.2260
G01 Z-2.0000
G01 Z0
G00 Z2.0000
G00 X57.2770 Y30.2260
G01 Z-2.0000
G01 Z0
G00 Z2.0000
G00 X64.7700 Y30.2260
G01 Z-2.0000
G01 Z0
G00 Z2.0000
G00 X67.3100 Y30.2260
G01 Z-2.0000
G01 Z0
G00 Z2.0000
G00 X69.8500 Y30.2260
G01 Z-2.0000
G01 Z0
G00 Z2.0000
G00 X72.3900 Y30.2260
G01 Z-2.0000
G01 Z0
G00 Z2.0000
G00 X58.2930 Y23.8760
G01 Z-2.0000
G01 Z0
G00 Z2.0000
G00 X49.7349 Y18.4150
G01 Z-2.0000
G01 Z0
G00 Z2.0000
G00 X52.2749 Y18.4150
G01 Z-2.0000
G01 Z0
G00 Z2.0000
G00 X54.8149 Y18.4150
G01 Z-2.0000
G01 Z0
G00 Z2.0000
G00 X57.3549 Y18.4150
G01 Z-2.0000
G01 Z0
G00 Z2.0000
G00 X64.7700 Y18.4150
G01 Z-2.0000
G01 Z0
G00 Z2.0000
G00 X67.3100 Y18.4150
G01 Z-2.0000
G01 Z0
G00 Z2.0000
G00 X69.8500 Y18.4150
G01 Z-2.0000
G01 Z0
G00 Z2.0000
G00 X73.7870 Y20.8280
G01 Z-2.0000
G01 Z0
G00 Z2.0000
G00 X72.3900 Y18.4150
G01 Z-2.0000
G01 Z0
G00 Z2.0000
G00 X73.6600 Y9.6520
G01 Z-2.0000
G01 Z0
G00 Z2.0000
G00 X73.4060 Y3.4290
G01 Z-2.0000
G01 Z0
G00 Z2.0000
M05
G00 Z0.50


