(G-CODE GENERATED BY FLATCAM v8.994 - www.flatcam.org - Version Date: 2020/11/7)

(Name: PCB2.GTL_iso_combined_cnc)
(Type: G-code from Geometry)
(Units: MM)

(Created on Thursday, 14 December 2023 at 15:55)

(This preprocessor is the default preprocessor used by FlatCAM.)
(It is made to work with MACH3 compatible motion controllers.)

(TOOL DIAMETER: 0.1 mm)
(Feedrate_XY: 80.0 mm/min)
(Feedrate_Z: 80.0 mm/min)
(Feedrate rapids 1500.0 mm/min)

(Z_Cut: -0.035 mm)
(Z_Move: 2.0 mm)
(Z Start: None mm)
(Z End: 15.0 mm)
(X,Y End: None mm)
(Steps per circle: 64)
(Preprocessor Geometry: default)

(X range:   -1.1890 ...   78.1410  mm)
(Y range:    0.3120 ...   69.6652  mm)

(Spindle Speed: 10000.0 RPM)
G21
G90
G94

G01 F80.00

M5
G00 Z15.0000
G00 X0.0000 Y0.0000
T1
M6    
(MSG, Change to Tool Dia = 0.1000)
M0
G00 Z15.0000

M03 S10000.0
G01 F80.00
G00 X4.9789 Y3.4315
G01 F80.00
G01 Z-0.0350
G01 F80.00
G01 X4.9715 Y3.5809
G01 X4.9492 Y3.7314
G01 X4.9123 Y3.8789
G01 X4.8610 Y4.0222
G01 X4.7960 Y4.1597
G01 X4.7178 Y4.2901
G01 X4.6272 Y4.4123
G01 X4.5250 Y4.5250
G01 X4.4123 Y4.6272
G01 X4.2901 Y4.7178
G01 X4.1597 Y4.7960
G01 X4.0222 Y4.8610
G01 X3.8789 Y4.9123
G01 X3.7314 Y4.9492
G01 X3.5809 Y4.9715
G01 X3.4290 Y4.9790
G01 X3.2771 Y4.9715
G01 X3.1266 Y4.9492
G01 X2.9791 Y4.9123
G01 X2.8358 Y4.8610
G01 X2.6983 Y4.7960
G01 X2.5679 Y4.7178
G01 X2.4457 Y4.6272
G01 X2.3330 Y4.5250
G01 X2.2308 Y4.4123
G01 X2.1402 Y4.2901
G01 X2.0620 Y4.1597
G01 X1.9970 Y4.0222
G01 X1.9457 Y3.8789
G01 X1.9088 Y3.7314
G01 X1.8865 Y3.5809
G01 X1.8790 Y3.4290
G01 X1.8865 Y3.2771
G01 X1.9088 Y3.1266
G01 X1.9457 Y2.9791
G01 X1.9970 Y2.8358
G01 X2.0620 Y2.6983
G01 X2.1402 Y2.5679
G01 X2.2308 Y2.4457
G01 X2.3330 Y2.3330
G01 X2.4457 Y2.2308
G01 X2.5679 Y2.1402
G01 X2.6983 Y2.0620
G01 X2.8358 Y1.9970
G01 X2.9791 Y1.9457
G01 X3.1266 Y1.9088
G01 X3.2771 Y1.8865
G01 X3.4290 Y1.8790
G01 X3.5809 Y1.8865
G01 X3.7314 Y1.9088
G01 X3.8789 Y1.9457
G01 X4.0222 Y1.9970
G01 X4.1597 Y2.0620
G01 X4.2901 Y2.1402
G01 X4.4123 Y2.2308
G01 X4.5250 Y2.3330
G01 X4.6272 Y2.4457
G01 X4.7178 Y2.5679
G01 X4.7960 Y2.6983
G01 X4.8610 Y2.8358
G01 X4.9123 Y2.9791
G01 X4.9492 Y3.1266
G01 X4.9715 Y3.2771
G01 X4.9789 Y3.4315
G00 Z2.0000
G00 X3.5968 Y5.1330
G01 F80.00
G01 Z-0.0350
G01 F80.00
G01 X3.2611 Y5.1330
G01 X2.9320 Y5.0675
G01 X2.6219 Y4.9391
G01 X2.3428 Y4.7526
G01 X2.1054 Y4.5152
G01 X1.9189 Y4.2361
G01 X1.7905 Y3.9260
G01 X1.7250 Y3.5968
G01 X1.7250 Y3.2611
G01 X1.7905 Y2.9320
G01 X1.9189 Y2.6219
G01 X2.1054 Y2.3428
G01 X2.3428 Y2.1054
G01 X2.6219 Y1.9189
G01 X2.9320 Y1.7905
G01 X3.2611 Y1.7250
G01 X3.5968 Y1.7250
G01 X3.9260 Y1.7905
G01 X4.2361 Y1.9189
G01 X4.5152 Y2.1054
G01 X4.7526 Y2.3428
G01 X4.9391 Y2.6219
G01 X5.0675 Y2.9320
G01 X5.1330 Y3.2611
G01 X5.1330 Y3.5968
G01 X5.0675 Y3.9260
G01 X4.9391 Y4.2361
G01 X4.7526 Y4.5152
G01 X4.5152 Y4.7526
G01 X4.2361 Y4.9391
G01 X3.9260 Y5.0675
G01 X3.5968 Y5.1330
G00 Z2.0000
G00 X9.5422 Y6.5020
G01 F80.00
G01 Z-0.0350
G01 F80.00
G01 X9.3829 Y6.5020
G01 X9.3928 Y6.4269
G01 X9.4902 Y6.1918
G01 X9.6451 Y5.9901
G01 X9.8468 Y5.8352
G01 X10.0819 Y5.7378
G01 X10.3373 Y5.7042
G01 X10.8950 Y5.7042
G01 X10.8950 Y5.8670
G01 X10.3340 Y5.8670
G01 X10.2544 Y5.8709
G01 X10.1756 Y5.8826
G01 X10.0983 Y5.9020
G01 X10.0233 Y5.9288
G01 X9.9491 Y5.9641
G01 X9.8829 Y6.0038
G01 X9.8189 Y6.0513
G01 X9.7598 Y6.1048
G01 X9.7048 Y6.1658
G01 X9.6588 Y6.2279
G01 X9.6168 Y6.2984
G01 X9.5829 Y6.3706
G01 X9.5570 Y6.4433
G01 X9.5422 Y6.5020
G00 Z2.0000
G00 X9.5422 Y6.8560
G01 F80.00
G01 Z-0.0350
G01 F80.00
G01 X9.5570 Y6.9147
G01 X9.5829 Y6.9874
G01 X9.6168 Y7.0596
G01 X9.6588 Y7.1301
G01 X9.7048 Y7.1922
G01 X9.7598 Y7.2532
G01 X9.8189 Y7.3067
G01 X9.8829 Y7.3542
G01 X9.9491 Y7.3939
G01 X10.0233 Y7.4292
G01 X10.0983 Y7.4560
G01 X10.1756 Y7.4754
G01 X10.2544 Y7.4871
G01 X10.3340 Y7.4910
G01 X10.8950 Y7.4910
G01 X10.8950 Y7.6538
G01 X10.3373 Y7.6538
G01 X10.0819 Y7.6201
G01 X9.8468 Y7.5228
G01 X9.6451 Y7.3679
G01 X9.4902 Y7.1662
G01 X9.3928 Y6.9311
G01 X9.3829 Y6.8560
G01 X9.5422 Y6.8560
G00 Z2.0000
G00 X11.8067 Y7.6538
G01 F80.00
G01 Z-0.0350
G01 F80.00
G01 X11.2490 Y7.6538
G01 X11.2490 Y7.4910
G01 X11.8100 Y7.4910
G01 X11.8884 Y7.4872
G01 X11.9708 Y7.4749
G01 X12.0457 Y7.4560
G01 X12.1207 Y7.4292
G01 X12.1928 Y7.3951
G01 X12.2631 Y7.3527
G01 X12.3251 Y7.3067
G01 X12.3824 Y7.2549
G01 X12.4377 Y7.1941
G01 X12.4852 Y7.1301
G01 X12.5272 Y7.0596
G01 X12.5611 Y6.9874
G01 X12.5870 Y6.9147
G01 X12.6018 Y6.8560
G01 X12.7611 Y6.8560
G01 X12.7512 Y6.9311
G01 X12.6538 Y7.1662
G01 X12.4989 Y7.3679
G01 X12.2972 Y7.5228
G01 X12.0621 Y7.6201
G01 X11.8067 Y7.6538
G00 Z2.0000
G00 X12.6018 Y6.5020
G01 F80.00
G01 Z-0.0350
G01 F80.00
G01 X12.5870 Y6.4433
G01 X12.5611 Y6.3706
G01 X12.5272 Y6.2984
G01 X12.4852 Y6.2279
G01 X12.4392 Y6.1658
G01 X12.3842 Y6.1048
G01 X12.3251 Y6.0513
G01 X12.2611 Y6.0038
G01 X12.1949 Y5.9641
G01 X12.1207 Y5.9288
G01 X12.0457 Y5.9020
G01 X11.9684 Y5.8826
G01 X11.8896 Y5.8709
G01 X11.8100 Y5.8670
G01 X11.2490 Y5.8670
G01 X11.2490 Y5.7042
G01 X11.8067 Y5.7042
G01 X12.0621 Y5.7378
G01 X12.2972 Y5.8352
G01 X12.4989 Y5.9901
G01 X12.6538 Y6.1918
G01 X12.7512 Y6.4269
G01 X12.7611 Y6.5020
G01 X12.6018 Y6.5020
G00 Z2.0000
G00 X11.8157 Y5.2578
G01 F80.00
G01 Z-0.0350
G01 F80.00
G01 X10.3463 Y5.2578
G01 X10.0909 Y5.2242
G01 X9.8558 Y5.1268
G01 X9.6541 Y4.9719
G01 X9.4992 Y4.7702
G01 X9.4019 Y4.5351
G01 X9.3686 Y4.2830
G01 X9.4019 Y4.0309
G01 X9.4992 Y3.7958
G01 X9.6541 Y3.5941
G01 X9.8558 Y3.4392
G01 X10.0909 Y3.3418
G01 X10.3463 Y3.3082
G01 X11.8157 Y3.3082
G01 X12.0711 Y3.3418
G01 X12.3062 Y3.4392
G01 X12.5079 Y3.5941
G01 X12.6205 Y3.7404
G01 X12.6249 Y3.7448
G01 X12.6288 Y3.7478
G01 X12.6374 Y3.7527
G01 X12.6468 Y3.7559
G01 X12.6566 Y3.7571
G01 X13.9590 Y3.7571
G01 X13.9651 Y3.7567
G01 X13.9700 Y3.7559
G01 X13.9770 Y3.7537
G01 X13.9836 Y3.7506
G01 X13.9898 Y3.7465
G01 X13.9960 Y3.7407
G01 X14.0006 Y3.7349
G01 X14.0042 Y3.7285
G01 X14.0072 Y3.7204
G01 X14.0086 Y3.7132
G01 X14.0090 Y3.7071
G01 X14.0090 Y3.4570
G01 X16.2170 Y3.4570
G01 X16.2170 Y5.0650
G01 X14.0090 Y5.0650
G01 X14.0090 Y4.8369
G01 X14.0085 Y4.8296
G01 X14.0068 Y4.8224
G01 X14.0042 Y4.8155
G01 X13.9999 Y4.8081
G01 X13.9952 Y4.8024
G01 X13.9888 Y4.7967
G01 X13.9826 Y4.7928
G01 X13.9758 Y4.7898
G01 X13.9688 Y4.7879
G01 X13.9590 Y4.7869
G01 X12.6722 Y4.7870
G01 X12.6624 Y4.7884
G01 X12.6532 Y4.7918
G01 X12.6447 Y4.7969
G01 X12.6374 Y4.8036
G01 X12.5079 Y4.9719
G01 X12.3062 Y5.1268
G01 X12.0711 Y5.2242
G01 X11.8157 Y5.2578
G00 Z2.0000
G00 X10.3430 Y3.4710
G01 F80.00
G01 Z-0.0350
G01 F80.00
G01 X11.8190 Y3.4710
G01 X11.8986 Y3.4749
G01 X11.9774 Y3.4866
G01 X12.0547 Y3.5060
G01 X12.1320 Y3.5338
G01 X12.2018 Y3.5669
G01 X12.2680 Y3.6065
G01 X12.3332 Y3.6545
G01 X12.3932 Y3.7088
G01 X12.4475 Y3.7688
G01 X12.4948 Y3.8329
G01 X12.5345 Y3.8992
G01 X12.5454 Y3.9219
G01 X14.1630 Y3.9218
G01 X14.1630 Y3.6610
G01 X14.1635 Y3.6537
G01 X14.1655 Y3.6453
G01 X14.1689 Y3.6374
G01 X14.1728 Y3.6312
G01 X14.1785 Y3.6248
G01 X14.1852 Y3.6194
G01 X14.1916 Y3.6158
G01 X14.1997 Y3.6128
G01 X14.2081 Y3.6112
G01 X16.0130 Y3.6110
G01 X16.0191 Y3.6114
G01 X16.0251 Y3.6125
G01 X16.0321 Y3.6148
G01 X16.0397 Y3.6188
G01 X16.0466 Y3.6240
G01 X16.0517 Y3.6293
G01 X16.0559 Y3.6353
G01 X16.0596 Y3.6430
G01 X16.0620 Y3.6512
G01 X16.0630 Y3.6598
G01 X16.0630 Y4.8610
G01 X16.0626 Y4.8671
G01 X16.0615 Y4.8731
G01 X16.0587 Y4.8813
G01 X16.0552 Y4.8877
G01 X16.0509 Y4.8937
G01 X16.0447 Y4.8997
G01 X16.0376 Y4.9045
G01 X16.0298 Y4.9081
G01 X16.0228 Y4.9100
G01 X16.0142 Y4.9110
G01 X14.2093 Y4.9109
G01 X14.2009 Y4.9095
G01 X14.1927 Y4.9067
G01 X14.1852 Y4.9026
G01 X14.1794 Y4.8980
G01 X14.1736 Y4.8918
G01 X14.1689 Y4.8846
G01 X14.1655 Y4.8767
G01 X14.1635 Y4.8683
G01 X14.1630 Y4.8610
G01 X14.1630 Y4.6221
G01 X12.5558 Y4.6222
G01 X12.5351 Y4.6658
G01 X12.4948 Y4.7331
G01 X12.4475 Y4.7972
G01 X12.3932 Y4.8572
G01 X12.3332 Y4.9115
G01 X12.2680 Y4.9595
G01 X12.2018 Y4.9991
G01 X12.1320 Y5.0322
G01 X12.0547 Y5.0600
G01 X11.9774 Y5.0794
G01 X11.8986 Y5.0911
G01 X11.8190 Y5.0950
G01 X10.3430 Y5.0950
G01 X10.2634 Y5.0911
G01 X10.1822 Y5.0789
G01 X10.1073 Y5.0600
G01 X10.0323 Y5.0332
G01 X9.9602 Y4.9991
G01 X9.8919 Y4.9582
G01 X9.8279 Y4.9107
G01 X9.7688 Y4.8572
G01 X9.7153 Y4.7981
G01 X9.6693 Y4.7361
G01 X9.6269 Y4.6658
G01 X9.5938 Y4.5960
G01 X9.5653 Y4.5163
G01 X9.5466 Y4.4414
G01 X9.5349 Y4.3626
G01 X9.5310 Y4.2830
G01 X9.5349 Y4.2034
G01 X9.5466 Y4.1246
G01 X9.5660 Y4.0473
G01 X9.5928 Y3.9723
G01 X9.6269 Y3.9002
G01 X9.6678 Y3.8319
G01 X9.7153 Y3.7679
G01 X9.7688 Y3.7088
G01 X9.8260 Y3.6569
G01 X9.8940 Y3.6065
G01 X9.9602 Y3.5669
G01 X10.0346 Y3.5319
G01 X10.1073 Y3.5060
G01 X10.1846 Y3.4866
G01 X10.2634 Y3.4749
G01 X10.3430 Y3.4710
G00 Z2.0000
G00 X14.2130 Y6.0110
G01 F80.00
G01 Z-0.0350
G01 F80.00
G01 X16.0130 Y6.0110
G01 X16.0203 Y6.0115
G01 X16.0287 Y6.0135
G01 X16.0366 Y6.0169
G01 X16.0438 Y6.0216
G01 X16.0484 Y6.0256
G01 X16.0517 Y6.0293
G01 X16.0552 Y6.0343
G01 X16.0577 Y6.0385
G01 X16.0596 Y6.0430
G01 X16.0615 Y6.0489
G01 X16.0626 Y6.0549
G01 X16.0630 Y6.0598
G01 X16.0630 Y7.1158
G01 X17.6140 Y8.6669
G01 X22.3827 Y8.6669
G01 X22.4195 Y8.6688
G01 X22.4510 Y8.6736
G01 X22.4843 Y8.6819
G01 X22.5167 Y8.6935
G01 X22.5456 Y8.7071
G01 X22.5772 Y8.7259
G01 X22.6048 Y8.7463
G01 X22.6303 Y8.7694
G01 X30.3766 Y16.5157
G01 X30.3997 Y16.5412
G01 X30.4187 Y16.5668
G01 X30.4384 Y16.5993
G01 X30.4534 Y16.6316
G01 X30.4641 Y16.6617
G01 X30.4719 Y16.6926
G01 X30.4775 Y16.7290
G01 X30.4791 Y16.7633
G01 X30.4792 Y41.0330
G01 X31.9275 Y42.4814
G01 X32.2810 Y42.4813
G01 X32.2810 Y41.5615
G01 X32.2815 Y41.5513
G01 X32.2835 Y41.5376
G01 X32.2860 Y41.5277
G01 X32.2890 Y41.5192
G01 X32.2948 Y41.5066
G01 X32.3020 Y41.4948
G01 X32.3074 Y41.4876
G01 X32.3134 Y41.4809
G01 X32.3236 Y41.4714
G01 X32.3348 Y41.4633
G01 X32.3426 Y41.4588
G01 X32.3518 Y41.4544
G01 X32.3637 Y41.4500
G01 X32.3748 Y41.4472
G01 X32.3861 Y41.4456
G01 X32.3975 Y41.4450
G01 X34.1657 Y41.4450
G01 X34.1759 Y41.4456
G01 X34.1872 Y41.4472
G01 X34.1983 Y41.4500
G01 X34.2091 Y41.4539
G01 X34.2194 Y41.4588
G01 X34.2292 Y41.4646
G01 X34.2384 Y41.4714
G01 X34.2477 Y41.4800
G01 X34.2546 Y41.4876
G01 X34.2614 Y41.4968
G01 X34.2672 Y41.5066
G01 X34.2721 Y41.5169
G01 X34.2760 Y41.5277
G01 X34.2788 Y41.5388
G01 X34.2804 Y41.5501
G01 X34.2810 Y41.5615
G01 X34.2810 Y44.7985
G01 X34.2801 Y44.8124
G01 X34.2788 Y44.8212
G01 X34.2760 Y44.8323
G01 X34.2711 Y44.8453
G01 X34.2672 Y44.8534
G01 X34.2627 Y44.8612
G01 X34.2546 Y44.8724
G01 X34.2451 Y44.8826
G01 X34.2384 Y44.8886
G01 X34.2302 Y44.8947
G01 X34.2183 Y44.9018
G01 X34.2068 Y44.9070
G01 X34.1983 Y44.9100
G01 X34.1896 Y44.9122
G01 X34.1759 Y44.9144
G01 X34.1645 Y44.9150
G01 X32.3975 Y44.9150
G01 X32.3861 Y44.9144
G01 X32.3772 Y44.9132
G01 X32.3614 Y44.9092
G01 X32.3529 Y44.9061
G01 X32.3426 Y44.9012
G01 X32.3328 Y44.8954
G01 X32.3236 Y44.8886
G01 X32.3151 Y44.8809
G01 X32.3074 Y44.8724
G01 X32.3006 Y44.8632
G01 X32.2937 Y44.8512
G01 X32.2890 Y44.8408
G01 X32.2860 Y44.8323
G01 X32.2838 Y44.8236
G01 X32.2817 Y44.8111
G01 X32.2810 Y44.7997
G01 X32.2810 Y43.1816
G01 X31.7825 Y43.1816
G01 X31.7482 Y43.1800
G01 X31.7142 Y43.1749
G01 X31.6832 Y43.1672
G01 X31.6485 Y43.1550
G01 X31.6153 Y43.1391
G01 X31.5880 Y43.1226
G01 X31.5613 Y43.1029
G01 X31.5349 Y43.0791
G01 X29.8805 Y41.4247
G01 X29.8583 Y41.4001
G01 X29.8393 Y41.3745
G01 X29.8202 Y41.3431
G01 X29.8055 Y41.3120
G01 X29.7947 Y41.2820
G01 X29.7852 Y41.2439
G01 X29.7805 Y41.2123
G01 X29.7789 Y41.1780
G01 X29.7788 Y16.9083
G01 X22.2377 Y9.3671
G01 X17.4690 Y9.3671
G01 X17.4347 Y9.3655
G01 X17.4007 Y9.3604
G01 X17.3674 Y9.3521
G01 X17.3350 Y9.3405
G01 X17.3039 Y9.3258
G01 X17.2745 Y9.3081
G01 X17.2469 Y9.2877
G01 X17.2214 Y9.2646
G01 X15.2678 Y7.3110
G01 X14.2118 Y7.3110
G01 X14.2020 Y7.3098
G01 X14.1927 Y7.3067
G01 X14.1842 Y7.3019
G01 X14.1768 Y7.2955
G01 X14.1708 Y7.2877
G01 X14.1664 Y7.2790
G01 X14.1637 Y7.2695
G01 X14.1630 Y7.2610
G01 X14.1630 Y6.0598
G01 X14.1642 Y6.0500
G01 X14.1673 Y6.0407
G01 X14.1721 Y6.0322
G01 X14.1776 Y6.0256
G01 X14.1852 Y6.0194
G01 X14.1939 Y6.0148
G01 X14.2032 Y6.0120
G01 X14.2130 Y6.0110
G00 Z2.0000
G00 X20.3372 Y6.6290
G01 F80.00
G01 Z-0.0350
G01 F80.00
G01 X20.1780 Y6.6290
G01 X20.1879 Y6.5538
G01 X20.2852 Y6.3188
G01 X20.4401 Y6.1171
G01 X20.6418 Y5.9622
G01 X20.8769 Y5.8649
G01 X21.1323 Y5.8312
G01 X21.6900 Y5.8312
G01 X21.6900 Y5.9940
G01 X21.1290 Y5.9940
G01 X21.0494 Y5.9979
G01 X20.9706 Y6.0096
G01 X20.8933 Y6.0290
G01 X20.8183 Y6.0558
G01 X20.7441 Y6.0911
G01 X20.6779 Y6.1308
G01 X20.6139 Y6.1783
G01 X20.5548 Y6.2318
G01 X20.4998 Y6.2928
G01 X20.4538 Y6.3549
G01 X20.4118 Y6.4254
G01 X20.3779 Y6.4976
G01 X20.3520 Y6.5703
G01 X20.3372 Y6.6290
G00 Z2.0000
G00 X20.3372 Y6.9830
G01 F80.00
G01 Z-0.0350
G01 F80.00
G01 X20.3520 Y7.0417
G01 X20.3779 Y7.1144
G01 X20.4118 Y7.1866
G01 X20.4538 Y7.2571
G01 X20.4998 Y7.3192
G01 X20.5548 Y7.3802
G01 X20.6139 Y7.4337
G01 X20.6779 Y7.4812
G01 X20.7441 Y7.5209
G01 X20.8183 Y7.5562
G01 X20.8933 Y7.5830
G01 X20.9706 Y7.6024
G01 X21.0494 Y7.6141
G01 X21.1290 Y7.6180
G01 X21.6900 Y7.6180
G01 X21.6900 Y7.7808
G01 X21.1323 Y7.7808
G01 X20.8769 Y7.7471
G01 X20.6418 Y7.6498
G01 X20.4401 Y7.4949
G01 X20.2852 Y7.2932
G01 X20.1879 Y7.0582
G01 X20.1780 Y6.9830
G01 X20.3372 Y6.9830
G00 Z2.0000
G00 X22.6017 Y7.7808
G01 F80.00
G01 Z-0.0350
G01 F80.00
G01 X22.0440 Y7.7808
G01 X22.0440 Y7.6180
G01 X22.6050 Y7.6180
G01 X22.6834 Y7.6142
G01 X22.7658 Y7.6019
G01 X22.8407 Y7.5830
G01 X22.9157 Y7.5562
G01 X22.9878 Y7.5221
G01 X23.0581 Y7.4797
G01 X23.1201 Y7.4337
G01 X23.1774 Y7.3819
G01 X23.2327 Y7.3211
G01 X23.2802 Y7.2571
G01 X23.3222 Y7.1866
G01 X23.3561 Y7.1144
G01 X23.3820 Y7.0417
G01 X23.3968 Y6.9830
G01 X23.5561 Y6.9830
G01 X23.5462 Y7.0581
G01 X23.4488 Y7.2932
G01 X23.2939 Y7.4949
G01 X23.0922 Y7.6498
G01 X22.8571 Y7.7471
G01 X22.6017 Y7.7808
G00 Z2.0000
G00 X23.3968 Y6.6290
G01 F80.00
G01 Z-0.0350
G01 F80.00
G01 X23.3820 Y6.5703
G01 X23.3561 Y6.4976
G01 X23.3222 Y6.4254
G01 X23.2802 Y6.3549
G01 X23.2342 Y6.2928
G01 X23.1792 Y6.2318
G01 X23.1201 Y6.1783
G01 X23.0561 Y6.1308
G01 X22.9899 Y6.0911
G01 X22.9157 Y6.0558
G01 X22.8407 Y6.0290
G01 X22.7634 Y6.0096
G01 X22.6846 Y5.9979
G01 X22.6050 Y5.9940
G01 X22.0440 Y5.9940
G01 X22.0440 Y5.8312
G01 X22.6017 Y5.8312
G01 X22.8571 Y5.8649
G01 X23.0922 Y5.9622
G01 X23.2939 Y6.1171
G01 X23.4488 Y6.3188
G01 X23.5462 Y6.5539
G01 X23.5561 Y6.6290
G01 X23.3968 Y6.6290
G00 Z2.0000
G00 X24.2460 Y6.0680
G01 F80.00
G01 Z-0.0350
G01 F80.00
G01 X26.0460 Y6.0680
G01 X26.0545 Y6.0687
G01 X26.0628 Y6.0709
G01 X26.0717 Y6.0751
G01 X26.0787 Y6.0801
G01 X26.0854 Y6.0872
G01 X26.0889 Y6.0923
G01 X26.0912 Y6.0966
G01 X26.0935 Y6.1023
G01 X26.0948 Y6.1070
G01 X26.0960 Y6.1168
G01 X26.0960 Y6.8728
G01 X31.1086 Y11.8854
G01 X31.1332 Y11.9128
G01 X31.1521 Y11.9385
G01 X31.1686 Y11.9658
G01 X31.1845 Y11.9990
G01 X31.1964 Y12.0325
G01 X31.2044 Y12.0647
G01 X31.2092 Y12.0962
G01 X31.2111 Y12.1330
G01 X31.2112 Y16.1426
G01 X31.2315 Y16.1629
G01 X31.2529 Y16.1865
G01 X31.2734 Y16.2141
G01 X31.2918 Y16.2445
G01 X31.3060 Y16.2745
G01 X31.3181 Y16.3080
G01 X31.3264 Y16.3413
G01 X31.3315 Y16.3753
G01 X31.3331 Y16.4096
G01 X31.3332 Y36.6730
G01 X32.1540 Y37.4938
G01 X32.1540 Y37.3705
G01 X32.1544 Y37.3615
G01 X32.1568 Y37.3454
G01 X32.1594 Y37.3355
G01 X32.1634 Y37.3248
G01 X32.1678 Y37.3156
G01 X32.1723 Y37.3078
G01 X32.1804 Y37.2966
G01 X32.1899 Y37.2864
G01 X32.1966 Y37.2804
G01 X32.2038 Y37.2750
G01 X32.2156 Y37.2678
G01 X32.2282 Y37.2620
G01 X32.2367 Y37.2590
G01 X32.2454 Y37.2568
G01 X32.2591 Y37.2546
G01 X32.2705 Y37.2540
G01 X34.0387 Y37.2540
G01 X34.0514 Y37.2549
G01 X34.0602 Y37.2562
G01 X34.0690 Y37.2584
G01 X34.0821 Y37.2629
G01 X34.0924 Y37.2678
G01 X34.1022 Y37.2736
G01 X34.1133 Y37.2820
G01 X34.1199 Y37.2881
G01 X34.1260 Y37.2947
G01 X34.1344 Y37.3058
G01 X34.1402 Y37.3156
G01 X34.1441 Y37.3237
G01 X34.1490 Y37.3367
G01 X34.1518 Y37.3478
G01 X34.1531 Y37.3566
G01 X34.1540 Y37.3705
G01 X34.1540 Y40.6087
G01 X34.1534 Y40.6189
G01 X34.1520 Y40.6290
G01 X34.1482 Y40.6436
G01 X34.1451 Y40.6521
G01 X34.1402 Y40.6624
G01 X34.1344 Y40.6722
G01 X34.1291 Y40.6795
G01 X34.1181 Y40.6916
G01 X34.1114 Y40.6976
G01 X34.1022 Y40.7044
G01 X34.0924 Y40.7102
G01 X34.0843 Y40.7141
G01 X34.0701 Y40.7193
G01 X34.0602 Y40.7218
G01 X34.0514 Y40.7231
G01 X34.0375 Y40.7240
G01 X32.2693 Y40.7240
G01 X32.2591 Y40.7234
G01 X32.2466 Y40.7215
G01 X32.2355 Y40.7186
G01 X32.2237 Y40.7141
G01 X32.2145 Y40.7097
G01 X32.2038 Y40.7030
G01 X32.1947 Y40.6960
G01 X32.1881 Y40.6899
G01 X32.1820 Y40.6833
G01 X32.1723 Y40.6702
G01 X32.1672 Y40.6613
G01 X32.1624 Y40.6509
G01 X32.1590 Y40.6413
G01 X32.1562 Y40.6302
G01 X32.1546 Y40.6189
G01 X32.1540 Y40.6087
G01 X32.1540 Y38.4842
G01 X30.7345 Y37.0647
G01 X30.7123 Y37.0401
G01 X30.6933 Y37.0145
G01 X30.6731 Y36.9809
G01 X30.6595 Y36.9520
G01 X30.6479 Y36.9196
G01 X30.6396 Y36.8863
G01 X30.6347 Y36.8535
G01 X30.6329 Y36.8180
G01 X30.6328 Y16.5546
G01 X30.6125 Y16.5343
G01 X30.5911 Y16.5107
G01 X30.5706 Y16.4831
G01 X30.5522 Y16.4527
G01 X30.5385 Y16.4238
G01 X30.5259 Y16.3892
G01 X30.5176 Y16.3559
G01 X30.5125 Y16.3219
G01 X30.5109 Y16.2888
G01 X30.5108 Y12.2780
G01 X25.6008 Y7.3680
G01 X24.2460 Y7.3680
G01 X24.2362 Y7.3670
G01 X24.2269 Y7.3642
G01 X24.2182 Y7.3596
G01 X24.2106 Y7.3534
G01 X24.2044 Y7.3458
G01 X24.1998 Y7.3371
G01 X24.1970 Y7.3278
G01 X24.1960 Y7.3180
G01 X24.1960 Y6.1168
G01 X24.1972 Y6.1070
G01 X24.2003 Y6.0977
G01 X24.2051 Y6.0892
G01 X24.2115 Y6.0818
G01 X24.2182 Y6.0764
G01 X24.2269 Y6.0718
G01 X24.2362 Y6.0690
G01 X24.2460 Y6.0680
G00 Z2.0000
G00 X22.6107 Y5.3848
G01 F80.00
G01 Z-0.0350
G01 F80.00
G01 X21.1413 Y5.3848
G01 X20.8859 Y5.3511
G01 X20.6508 Y5.2538
G01 X20.4491 Y5.0989
G01 X20.2942 Y4.8972
G01 X20.1968 Y4.6621
G01 X20.1636 Y4.4100
G01 X20.1968 Y4.1579
G01 X20.2942 Y3.9228
G01 X20.4491 Y3.7211
G01 X20.6508 Y3.5662
G01 X20.8859 Y3.4689
G01 X21.1413 Y3.4352
G01 X22.6107 Y3.4352
G01 X22.8661 Y3.4689
G01 X23.1012 Y3.5662
G01 X23.3029 Y3.7211
G01 X23.3894 Y3.8333
G01 X23.3969 Y3.8398
G01 X23.4055 Y3.8447
G01 X23.4149 Y3.8479
G01 X23.4247 Y3.8491
G01 X23.9920 Y3.8491
G01 X23.9981 Y3.8487
G01 X24.0041 Y3.8476
G01 X24.0100 Y3.8457
G01 X24.0156 Y3.8432
G01 X24.0218 Y3.8393
G01 X24.0265 Y3.8353
G01 X24.0307 Y3.8308
G01 X24.0342 Y3.8258
G01 X24.0372 Y3.8205
G01 X24.0395 Y3.8148
G01 X24.0410 Y3.8089
G01 X24.0419 Y3.8028
G01 X24.0420 Y3.5140
G01 X26.2500 Y3.5140
G01 X26.2500 Y5.1220
G01 X24.0420 Y5.1220
G01 X24.0420 Y4.9289
G01 X24.0416 Y4.9228
G01 X24.0405 Y4.9168
G01 X24.0386 Y4.9109
G01 X24.0355 Y4.9043
G01 X24.0322 Y4.8991
G01 X24.0274 Y4.8935
G01 X24.0228 Y4.8895
G01 X24.0177 Y4.8860
G01 X24.0123 Y4.8832
G01 X24.0030 Y4.8801
G01 X23.9981 Y4.8793
G01 X23.9920 Y4.8789
G01 X23.4928 Y4.8790
G01 X23.4830 Y4.8807
G01 X23.4738 Y4.8843
G01 X23.4655 Y4.8897
G01 X23.4584 Y4.8965
G01 X23.3029 Y5.0989
G01 X23.1012 Y5.2538
G01 X22.8661 Y5.3511
G01 X22.6107 Y5.3848
G00 Z2.0000
G00 X21.1380 Y3.5980
G01 F80.00
G01 Z-0.0350
G01 F80.00
G01 X22.6140 Y3.5980
G01 X22.6936 Y3.6019
G01 X22.7724 Y3.6136
G01 X22.8497 Y3.6330
G01 X22.9247 Y3.6598
G01 X22.9968 Y3.6939
G01 X23.0671 Y3.7363
G01 X23.1291 Y3.7823
G01 X23.1899 Y3.8376
G01 X23.2432 Y3.8968
G01 X23.2892 Y3.9589
G01 X23.3222 Y4.0139
G01 X24.1960 Y4.0138
G01 X24.1960 Y3.7180
G01 X24.1964 Y3.7119
G01 X24.1982 Y3.7035
G01 X24.2013 Y3.6955
G01 X24.2058 Y3.6882
G01 X24.2106 Y3.6826
G01 X24.2172 Y3.6771
G01 X24.2246 Y3.6728
G01 X24.2315 Y3.6702
G01 X24.2399 Y3.6684
G01 X24.2460 Y3.6680
G01 X26.0460 Y3.6680
G01 X26.0533 Y3.6685
G01 X26.0593 Y3.6698
G01 X26.0674 Y3.6728
G01 X26.0738 Y3.6764
G01 X26.0796 Y3.6810
G01 X26.0854 Y3.6872
G01 X26.0895 Y3.6934
G01 X26.0931 Y3.7012
G01 X26.0950 Y3.7082
G01 X26.0960 Y3.7168
G01 X26.0960 Y4.9180
G01 X26.0956 Y4.9241
G01 X26.0942 Y4.9313
G01 X26.0912 Y4.9394
G01 X26.0876 Y4.9458
G01 X26.0822 Y4.9525
G01 X26.0768 Y4.9574
G01 X26.0706 Y4.9615
G01 X26.0628 Y4.9651
G01 X26.0558 Y4.9670
G01 X26.0472 Y4.9680
G01 X24.2423 Y4.9679
G01 X24.2339 Y4.9665
G01 X24.2257 Y4.9637
G01 X24.2193 Y4.9602
G01 X24.2124 Y4.9550
G01 X24.2066 Y4.9488
G01 X24.2019 Y4.9416
G01 X24.1985 Y4.9337
G01 X24.1967 Y4.9265
G01 X24.1960 Y4.9180
G01 X24.1960 Y4.7141
G01 X23.3666 Y4.7142
G01 X23.3632 Y4.7230
G01 X23.3301 Y4.7928
G01 X23.2877 Y4.8631
G01 X23.2417 Y4.9251
G01 X23.1899 Y4.9824
G01 X23.1291 Y5.0377
G01 X23.0630 Y5.0865
G01 X22.9968 Y5.1261
G01 X22.9270 Y5.1592
G01 X22.8497 Y5.1870
G01 X22.7724 Y5.2064
G01 X22.6936 Y5.2181
G01 X22.6140 Y5.2220
G01 X21.1380 Y5.2220
G01 X21.0560 Y5.2178
G01 X20.9796 Y5.2064
G01 X20.9035 Y5.1874
G01 X20.8273 Y5.1602
G01 X20.7574 Y5.1272
G01 X20.6849 Y5.0837
G01 X20.6229 Y5.0377
G01 X20.5638 Y4.9842
G01 X20.5103 Y4.9251
G01 X20.4628 Y4.8611
G01 X20.4219 Y4.7928
G01 X20.3878 Y4.7207
G01 X20.3610 Y4.6457
G01 X20.3421 Y4.5708
G01 X20.3299 Y4.4896
G01 X20.3261 Y4.4125
G01 X20.3302 Y4.3280
G01 X20.3416 Y4.2516
G01 X20.3610 Y4.1743
G01 X20.3878 Y4.0993
G01 X20.4219 Y4.0272
G01 X20.4628 Y3.9589
G01 X20.5103 Y3.8949
G01 X20.5638 Y3.8358
G01 X20.6210 Y3.7839
G01 X20.6890 Y3.7335
G01 X20.7552 Y3.6939
G01 X20.8296 Y3.6589
G01 X20.9023 Y3.6330
G01 X20.9796 Y3.6136
G01 X21.0584 Y3.6019
G01 X21.1380 Y3.5980
G00 Z2.0000
G00 X33.8980 Y4.0140
G01 F80.00
G01 Z-0.0350
G01 F80.00
G01 X33.7410 Y4.0140
G01 X33.7625 Y3.8506
G01 X33.8940 Y3.5334
G01 X34.1030 Y3.2610
G01 X34.3754 Y3.0520
G01 X34.6926 Y2.9206
G01 X35.0363 Y2.8753
G01 X35.2560 Y2.8753
G01 X35.2560 Y3.0410
G01 X35.0318 Y3.0410
G01 X34.9203 Y3.0465
G01 X34.8086 Y3.0631
G01 X34.7004 Y3.0902
G01 X34.5929 Y3.1285
G01 X34.4909 Y3.1768
G01 X34.3941 Y3.2348
G01 X34.3034 Y3.3020
G01 X34.2198 Y3.3778
G01 X34.1440 Y3.4614
G01 X34.0768 Y3.5521
G01 X34.0194 Y3.6478
G01 X33.9705 Y3.7509
G01 X33.9329 Y3.8560
G01 X33.9054 Y3.9654
G01 X33.8980 Y4.0140
G00 Z2.0000
G00 X35.2560 Y5.5067
G01 F80.00
G01 Z-0.0350
G01 F80.00
G01 X35.0363 Y5.5067
G01 X34.6926 Y5.4614
G01 X34.3754 Y5.3300
G01 X34.1030 Y5.1210
G01 X33.8940 Y4.8486
G01 X33.7625 Y4.5314
G01 X33.7410 Y4.3680
G01 X33.8980 Y4.3680
G01 X33.9054 Y4.4166
G01 X33.9329 Y4.5260
G01 X33.9705 Y4.6311
G01 X34.0194 Y4.7342
G01 X34.0768 Y4.8299
G01 X34.1440 Y4.9206
G01 X34.2198 Y5.0042
G01 X34.3054 Y5.0815
G01 X34.3941 Y5.1472
G01 X34.4909 Y5.2052
G01 X34.5929 Y5.2535
G01 X34.7004 Y5.2918
G01 X34.8086 Y5.3189
G01 X34.9203 Y5.3355
G01 X35.0318 Y5.3410
G01 X35.2560 Y5.3410
G01 X35.2560 Y5.5067
G00 Z2.0000
G00 X34.8730 Y6.3200
G01 F80.00
G01 Z-0.0350
G01 F80.00
G01 X35.9448 Y6.3200
G01 X36.9567 Y5.3082
G01 X36.9969 Y5.2721
G01 X37.0383 Y5.2415
G01 X37.0825 Y5.2149
G01 X37.1334 Y5.1906
G01 X37.1843 Y5.1724
G01 X37.2391 Y5.1589
G01 X37.2901 Y5.1514
G01 X37.3428 Y5.1488
G01 X38.6711 Y5.1487
G01 X38.7013 Y5.1307
G01 X38.7501 Y5.1076
G01 X38.8010 Y5.0894
G01 X38.8422 Y5.0791
G01 X39.1322 Y4.7890
G01 X39.0982 Y4.7320
G01 X39.0510 Y4.6322
G01 X39.0129 Y4.5260
G01 X38.9851 Y4.4154
G01 X38.9684 Y4.3025
G01 X38.9631 Y4.1885
G01 X38.9685 Y4.0783
G01 X38.9847 Y3.9691
G01 X39.0125 Y3.8572
G01 X39.0515 Y3.7487
G01 X39.1000 Y3.6468
G01 X39.1568 Y3.5521
G01 X39.2225 Y3.4634
G01 X39.2998 Y3.3778
G01 X39.3816 Y3.3036
G01 X39.4741 Y3.2348
G01 X39.5709 Y3.1768
G01 X39.6729 Y3.1285
G01 X39.7768 Y3.0913
G01 X39.8911 Y3.0627
G01 X40.0003 Y3.0465
G01 X40.1130 Y3.0410
G01 X40.9155 Y3.0411
G01 X41.0257 Y3.0465
G01 X41.1349 Y3.0627
G01 X41.2480 Y3.0909
G01 X41.3553 Y3.1295
G01 X41.4551 Y3.1768
G01 X41.5498 Y3.2335
G01 X41.6426 Y3.3020
G01 X41.7262 Y3.3778
G01 X41.8020 Y3.4614
G01 X41.8705 Y3.5542
G01 X41.9272 Y3.6489
G01 X41.9745 Y3.7487
G01 X42.0127 Y3.8548
G01 X42.0409 Y3.9666
G01 X42.0572 Y4.0758
G01 X42.0629 Y4.1935
G01 X42.0575 Y4.3037
G01 X42.0409 Y4.4154
G01 X42.0135 Y4.5248
G01 X41.9755 Y4.6311
G01 X41.9272 Y4.7331
G01 X41.8705 Y4.8278
G01 X41.8004 Y4.9224
G01 X41.7262 Y5.0042
G01 X41.6426 Y5.0800
G01 X41.5519 Y5.1472
G01 X41.4551 Y5.2052
G01 X41.3531 Y5.2535
G01 X41.2468 Y5.2915
G01 X41.1374 Y5.3189
G01 X41.0257 Y5.3355
G01 X40.9130 Y5.3410
G01 X40.1355 Y5.3410
G01 X40.1241 Y5.3535
G01 X39.4725 Y6.0051
G01 X39.4325 Y6.0413
G01 X39.3870 Y6.0748
G01 X39.3428 Y6.1013
G01 X39.2962 Y6.1234
G01 X39.2431 Y6.1426
G01 X39.1931 Y6.1551
G01 X39.1828 Y6.1569
G01 X39.1371 Y6.1843
G01 X39.0905 Y6.2064
G01 X39.0363 Y6.2259
G01 X38.9850 Y6.2387
G01 X38.9341 Y6.2463
G01 X38.8789 Y6.2492
G01 X37.5719 Y6.2493
G01 X36.7230 Y7.0982
G01 X36.7230 Y8.8712
G01 X36.7223 Y8.8785
G01 X36.7205 Y8.8857
G01 X36.7171 Y8.8936
G01 X36.7132 Y8.8998
G01 X36.7084 Y8.9054
G01 X36.7028 Y8.9102
G01 X36.6966 Y8.9141
G01 X36.6898 Y8.9171
G01 X36.6815 Y8.9193
G01 X36.6730 Y8.9200
G01 X34.8730 Y8.9200
G01 X34.8669 Y8.9196
G01 X34.8609 Y8.9185
G01 X34.8550 Y8.9166
G01 X34.8494 Y8.9141
G01 X34.8442 Y8.9109
G01 X34.8394 Y8.9070
G01 X34.8351 Y8.9027
G01 X34.8321 Y8.8988
G01 X34.8283 Y8.8925
G01 X34.8255 Y8.8857
G01 X34.8235 Y8.8773
G01 X34.8230 Y8.8700
G01 X34.8230 Y6.3688
G01 X34.8242 Y6.3590
G01 X34.8273 Y6.3497
G01 X34.8321 Y6.3412
G01 X34.8385 Y6.3338
G01 X34.8463 Y6.3278
G01 X34.8539 Y6.3238
G01 X34.8632 Y6.3210
G01 X34.8730 Y6.3200
G00 Z2.0000
G00 X37.1250 Y4.0140
G01 F80.00
G01 Z-0.0350
G01 F80.00
G01 X36.9680 Y4.0140
G01 X36.9606 Y3.9654
G01 X36.9331 Y3.8560
G01 X36.8955 Y3.7509
G01 X36.8466 Y3.6478
G01 X36.7892 Y3.5521
G01 X36.7220 Y3.4614
G01 X36.6462 Y3.3778
G01 X36.5606 Y3.3005
G01 X36.4719 Y3.2348
G01 X36.3751 Y3.1768
G01 X36.2731 Y3.1285
G01 X36.1656 Y3.0902
G01 X36.0574 Y3.0631
G01 X35.9457 Y3.0465
G01 X35.8342 Y3.0410
G01 X35.6100 Y3.0410
G01 X35.6100 Y2.8753
G01 X35.8297 Y2.8753
G01 X36.1734 Y2.9206
G01 X36.4906 Y3.0520
G01 X36.7630 Y3.2610
G01 X36.9720 Y3.5334
G01 X37.1034 Y3.8506
G01 X37.1250 Y4.0140
G00 Z2.0000
G00 X35.7750 Y11.9580
G01 F80.00
G01 Z-0.0350
G01 F80.00
G01 X35.6210 Y11.9580
G01 X35.6209 Y11.5325
G01 X35.6203 Y11.5265
G01 X35.6188 Y11.5205
G01 X35.6167 Y11.5147
G01 X35.6145 Y11.5104
G01 X35.6112 Y11.5052
G01 X35.6080 Y11.5014
G01 X35.6037 Y11.4971
G01 X35.5988 Y11.4934
G01 X35.5924 Y11.4898
G01 X35.5855 Y11.4872
G01 X35.5783 Y11.4855
G01 X35.5710 Y11.4850
G01 X34.8480 Y11.4850
G01 X34.8480 Y11.3310
G01 X35.7750 Y11.3310
G01 X35.7750 Y11.9580
G00 Z2.0000
G00 X35.7750 Y12.9390
G01 F80.00
G01 Z-0.0350
G01 F80.00
G01 X34.8480 Y12.9390
G01 X34.8480 Y12.7850
G01 X35.5710 Y12.7850
G01 X35.5771 Y12.7846
G01 X35.5831 Y12.7835
G01 X35.5878 Y12.7821
G01 X35.5935 Y12.7797
G01 X35.5988 Y12.7766
G01 X35.6046 Y12.7720
G01 X35.6089 Y12.7677
G01 X35.6132 Y12.7617
G01 X35.6162 Y12.7564
G01 X35.6188 Y12.7495
G01 X35.6203 Y12.7435
G01 X35.6209 Y12.7375
G01 X35.6210 Y12.3120
G01 X35.7750 Y12.3120
G01 X35.7750 Y12.9390
G00 Z2.0000
G00 X34.4940 Y12.9390
G01 F80.00
G01 Z-0.0350
G01 F80.00
G01 X33.5670 Y12.9390
G01 X33.5670 Y12.3120
G01 X33.7210 Y12.3120
G01 X33.7211 Y12.7375
G01 X33.7217 Y12.7435
G01 X33.7232 Y12.7495
G01 X33.7253 Y12.7553
G01 X33.7275 Y12.7596
G01 X33.7308 Y12.7648
G01 X33.7340 Y12.7686
G01 X33.7383 Y12.7729
G01 X33.7432 Y12.7766
G01 X33.7496 Y12.7802
G01 X33.7565 Y12.7828
G01 X33.7637 Y12.7845
G01 X33.7710 Y12.7850
G01 X34.4940 Y12.7850
G01 X34.4940 Y12.9390
G00 Z2.0000
G00 X33.7710 Y13.8850
G01 F80.00
G01 Z-0.0350
G01 F80.00
G01 X35.6531 Y13.8847
G01 X37.5310 Y12.0068
G01 X37.5311 Y11.5325
G01 X37.5317 Y11.5265
G01 X37.5335 Y11.5193
G01 X37.5363 Y11.5125
G01 X37.5401 Y11.5062
G01 X37.5448 Y11.5005
G01 X37.5493 Y11.4963
G01 X37.5553 Y11.4921
G01 X37.5619 Y11.4888
G01 X37.5712 Y11.4860
G01 X37.5810 Y11.4850
G01 X39.3822 Y11.4850
G01 X39.3895 Y11.4857
G01 X39.3967 Y11.4875
G01 X39.4035 Y11.4903
G01 X39.4098 Y11.4941
G01 X39.4155 Y11.4988
G01 X39.4204 Y11.5042
G01 X39.4239 Y11.5093
G01 X39.4272 Y11.5159
G01 X39.4300 Y11.5252
G01 X39.4310 Y11.5350
G01 X39.4310 Y12.7350
G01 X39.4300 Y12.7448
G01 X39.4272 Y12.7541
G01 X39.4226 Y12.7628
G01 X39.4164 Y12.7704
G01 X39.4088 Y12.7766
G01 X39.4001 Y12.7812
G01 X39.3920 Y12.7838
G01 X39.3822 Y12.7850
G01 X38.3092 Y12.7850
G01 X36.2683 Y14.8258
G01 X36.2301 Y14.8603
G01 X36.1867 Y14.8925
G01 X36.1404 Y14.9203
G01 X36.0916 Y14.9434
G01 X36.0407 Y14.9616
G01 X35.9883 Y14.9747
G01 X35.9349 Y14.9826
G01 X35.8860 Y14.9851
G01 X35.8918 Y14.9934
G01 X35.9194 Y15.0398
G01 X35.9414 Y15.0864
G01 X35.9596 Y15.1373
G01 X35.9731 Y15.1921
G01 X35.9806 Y15.2431
G01 X35.9832 Y15.2958
G01 X35.9833 Y18.0760
G01 X35.9807 Y18.1287
G01 X35.9780 Y18.1479
G01 X35.9780 Y19.8473
G01 X35.9769 Y19.8668
G01 X35.9747 Y19.8812
G01 X35.9706 Y19.8977
G01 X35.9648 Y19.9138
G01 X35.9586 Y19.9270
G01 X35.9474 Y19.9458
G01 X35.9386 Y19.9575
G01 X35.9272 Y19.9702
G01 X35.9145 Y19.9816
G01 X35.9028 Y19.9904
G01 X35.8840 Y20.0016
G01 X35.8708 Y20.0078
G01 X35.8559 Y20.0132
G01 X35.8358 Y20.0181
G01 X35.8213 Y20.0202
G01 X35.8043 Y20.0210
G01 X35.0617 Y20.0210
G01 X35.0434 Y20.0201
G01 X35.0278 Y20.0177
G01 X35.0136 Y20.0142
G01 X34.9952 Y20.0078
G01 X34.9777 Y19.9993
G01 X34.9652 Y19.9918
G01 X34.9515 Y19.9816
G01 X34.9371 Y19.9684
G01 X34.9274 Y19.9575
G01 X34.9172 Y19.9438
G01 X34.9074 Y19.9270
G01 X34.9012 Y19.9138
G01 X34.8958 Y19.8989
G01 X34.8909 Y19.8788
G01 X34.8888 Y19.8643
G01 X34.8880 Y19.8473
G01 X34.8880 Y18.1479
G01 X34.8853 Y18.1287
G01 X34.8827 Y18.0760
G01 X34.8827 Y15.5249
G01 X34.6819 Y15.3241
G01 X34.6473 Y15.2859
G01 X34.6135 Y15.2407
G01 X34.5863 Y15.1955
G01 X34.5812 Y15.1850
G01 X33.7698 Y15.1850
G01 X33.7637 Y15.1845
G01 X33.7577 Y15.1832
G01 X33.7519 Y15.1812
G01 X33.7464 Y15.1785
G01 X33.7412 Y15.1752
G01 X33.7374 Y15.1720
G01 X33.7331 Y15.1677
G01 X33.7294 Y15.1628
G01 X33.7258 Y15.1564
G01 X33.7232 Y15.1495
G01 X33.7215 Y15.1423
G01 X33.7210 Y15.1350
G01 X33.7210 Y13.9338
G01 X33.7222 Y13.9240
G01 X33.7253 Y13.9147
G01 X33.7301 Y13.9062
G01 X33.7365 Y13.8988
G01 X33.7443 Y13.8928
G01 X33.7519 Y13.8888
G01 X33.7612 Y13.8860
G01 X33.7710 Y13.8850
G00 Z2.0000
G00 X33.7210 Y11.9580
G01 F80.00
G01 Z-0.0350
G01 F80.00
G01 X33.5670 Y11.9580
G01 X33.5670 Y11.3310
G01 X34.4940 Y11.3310
G01 X34.4940 Y11.4850
G01 X33.7698 Y11.4850
G01 X33.7625 Y11.4857
G01 X33.7542 Y11.4879
G01 X33.7464 Y11.4915
G01 X33.7393 Y11.4963
G01 X33.7356 Y11.4996
G01 X33.7316 Y11.5042
G01 X33.7263 Y11.5125
G01 X33.7244 Y11.5170
G01 X33.7225 Y11.5229
G01 X33.7211 Y11.5325
G01 X33.7210 Y11.9580
G00 Z2.0000
G00 X37.4228 Y16.6345
G01 F80.00
G01 Z-0.0350
G01 F80.00
G01 X37.4253 Y16.5843
G01 X37.4280 Y16.5651
G01 X37.4280 Y16.3047
G01 X37.4287 Y16.2889
G01 X37.4318 Y16.2684
G01 X37.4354 Y16.2543
G01 X37.4403 Y16.2405
G01 X37.4485 Y16.2228
G01 X37.4579 Y16.2072
G01 X37.4674 Y16.1945
G01 X37.4788 Y16.1818
G01 X37.4915 Y16.1704
G01 X37.5032 Y16.1616
G01 X37.5220 Y16.1504
G01 X37.5352 Y16.1442
G01 X37.5513 Y16.1384
G01 X37.5678 Y16.1343
G01 X37.5871 Y16.1316
G01 X37.6017 Y16.1310
G01 X37.7008 Y16.1310
G01 X37.9307 Y15.9011
G01 X37.9307 Y15.1850
G01 X37.5761 Y15.1848
G01 X37.5689 Y15.1835
G01 X37.5607 Y15.1807
G01 X37.5543 Y15.1772
G01 X37.5474 Y15.1720
G01 X37.5423 Y15.1667
G01 X37.5375 Y15.1596
G01 X37.5344 Y15.1530
G01 X37.5320 Y15.1448
G01 X37.5310 Y15.1350
G01 X37.5310 Y13.9350
G01 X37.5317 Y13.9265
G01 X37.5335 Y13.9193
G01 X37.5363 Y13.9125
G01 X37.5408 Y13.9052
G01 X37.5448 Y13.9005
G01 X37.5493 Y13.8963
G01 X37.5532 Y13.8934
G01 X37.5585 Y13.8903
G01 X37.5642 Y13.8879
G01 X37.5689 Y13.8865
G01 X37.5749 Y13.8854
G01 X37.5810 Y13.8850
G01 X39.3810 Y13.8850
G01 X39.3895 Y13.8857
G01 X39.3967 Y13.8875
G01 X39.4035 Y13.8903
G01 X39.4108 Y13.8948
G01 X39.4146 Y13.8980
G01 X39.4189 Y13.9023
G01 X39.4226 Y13.9072
G01 X39.4257 Y13.9125
G01 X39.4276 Y13.9170
G01 X39.4295 Y13.9229
G01 X39.4305 Y13.9277
G01 X39.4310 Y13.9338
G01 X39.4310 Y15.1350
G01 X39.4305 Y15.1423
G01 X39.4288 Y15.1495
G01 X39.4262 Y15.1564
G01 X39.4226 Y15.1628
G01 X39.4180 Y15.1686
G01 X39.4127 Y15.1737
G01 X39.4067 Y15.1779
G01 X39.4001 Y15.1812
G01 X39.3931 Y15.1835
G01 X39.3859 Y15.1848
G01 X39.0313 Y15.1850
G01 X39.0312 Y16.1302
G01 X39.0286 Y16.1829
G01 X39.0211 Y16.2339
G01 X39.0076 Y16.2887
G01 X38.9894 Y16.3396
G01 X38.9663 Y16.3884
G01 X38.9385 Y16.4347
G01 X38.9063 Y16.4781
G01 X38.8701 Y16.5181
G01 X38.5233 Y16.8649
G01 X38.5233 Y18.0760
G01 X38.5207 Y18.1287
G01 X38.5180 Y18.1479
G01 X38.5180 Y19.8498
G01 X38.5172 Y19.8643
G01 X38.5147 Y19.8812
G01 X38.5106 Y19.8977
G01 X38.5057 Y19.9115
G01 X38.4969 Y19.9303
G01 X38.4888 Y19.9438
G01 X38.4801 Y19.9556
G01 X38.4654 Y19.9719
G01 X38.4545 Y19.9816
G01 X38.4408 Y19.9918
G01 X38.4262 Y20.0005
G01 X38.4130 Y20.0068
G01 X38.3936 Y20.0139
G01 X38.3782 Y20.0177
G01 X38.3638 Y20.0199
G01 X38.3443 Y20.0210
G01 X37.6017 Y20.0210
G01 X37.5834 Y20.0201
G01 X37.5678 Y20.0177
G01 X37.5536 Y20.0142
G01 X37.5352 Y20.0078
G01 X37.5177 Y19.9993
G01 X37.5052 Y19.9918
G01 X37.4915 Y19.9816
G01 X37.4771 Y19.9684
G01 X37.4674 Y19.9575
G01 X37.4572 Y19.9438
G01 X37.4485 Y19.9292
G01 X37.4422 Y19.9160
G01 X37.4351 Y19.8966
G01 X37.4313 Y19.8812
G01 X37.4291 Y19.8668
G01 X37.4280 Y19.8473
G01 X37.4280 Y18.1479
G01 X37.4253 Y18.1287
G01 X37.4227 Y18.0760
G01 X37.4228 Y16.6345
G00 Z2.0000
G00 X39.8066 Y16.3096
G01 F80.00
G01 Z-0.0350
G01 F80.00
G01 X39.8075 Y16.3002
G01 X39.8075 Y15.4923
G01 X39.8321 Y15.3053
G01 X39.9031 Y15.1340
G01 X40.0179 Y14.9842
G01 X40.7212 Y14.2809
G01 X40.8709 Y14.1661
G01 X41.0423 Y14.0951
G01 X41.2293 Y14.0705
G01 X42.4282 Y14.0703
G01 X42.4354 Y14.0690
G01 X42.4424 Y14.0667
G01 X42.6153 Y13.9951
G01 X42.7990 Y13.9709
G01 X42.9827 Y13.9951
G01 X43.1542 Y14.0662
G01 X43.1604 Y14.0703
G01 X43.1659 Y14.0731
G01 X43.1742 Y14.0758
G01 X43.1841 Y14.0770
G01 X43.5955 Y14.0768
G01 X43.6016 Y14.0758
G01 X43.6063 Y14.0745
G01 X43.6152 Y14.0705
G01 X43.6734 Y14.0318
G01 X43.7579 Y14.0150
G01 X44.3427 Y14.0150
G01 X44.3512 Y14.0143
G01 X44.3584 Y14.0125
G01 X44.3652 Y14.0097
G01 X44.3715 Y14.0059
G01 X44.3772 Y14.0012
G01 X44.8614 Y13.5171
G01 X44.8676 Y13.5095
G01 X44.8722 Y13.5008
G01 X44.8750 Y13.4915
G01 X44.8760 Y13.4817
G01 X44.8760 Y11.1563
G01 X44.8756 Y11.1502
G01 X44.8745 Y11.1442
G01 X44.8726 Y11.1383
G01 X44.8695 Y11.1317
G01 X44.8654 Y11.1255
G01 X44.8614 Y11.1209
G01 X42.8541 Y9.1136
G01 X42.8504 Y9.1103
G01 X42.8454 Y9.1068
G01 X42.8412 Y9.1043
G01 X42.8355 Y9.1019
G01 X42.8272 Y9.0997
G01 X42.8187 Y9.0990
G01 X41.3319 Y9.0990
G01 X41.2474 Y9.0822
G01 X41.2414 Y9.0788
G01 X41.2346 Y9.0762
G01 X41.2274 Y9.0745
G01 X41.2200 Y9.0740
G01 X39.0690 Y9.0740
G01 X39.0689 Y6.5348
G01 X39.0675 Y6.5252
G01 X39.0648 Y6.5171
G01 X39.0600 Y6.5086
G01 X39.0537 Y6.5012
G01 X38.9546 Y6.4143
G01 X38.9496 Y6.4109
G01 X38.9454 Y6.4085
G01 X38.9398 Y6.4062
G01 X38.9339 Y6.4046
G01 X38.9267 Y6.4036
G01 X38.9194 Y6.4037
G01 X38.8744 Y6.4095
G01 X37.6590 Y6.4095
G01 X37.6505 Y6.4102
G01 X37.6422 Y6.4124
G01 X37.6376 Y6.4143
G01 X37.6323 Y6.4173
G01 X37.6273 Y6.4208
G01 X37.6236 Y6.4241
G01 X36.8916 Y7.1561
G01 X36.8876 Y7.1607
G01 X36.8835 Y7.1669
G01 X36.8799 Y7.1747
G01 X36.8777 Y7.1830
G01 X36.8770 Y7.1915
G01 X36.8770 Y9.0740
G01 X34.6690 Y9.0740
G01 X34.6690 Y6.1660
G01 X35.8515 Y6.1660
G01 X35.8588 Y6.1655
G01 X35.8672 Y6.1635
G01 X35.8751 Y6.1601
G01 X35.8823 Y6.1554
G01 X35.8869 Y6.1514
G01 X36.4504 Y5.5878
G01 X36.4544 Y5.5831
G01 X36.4583 Y5.5769
G01 X36.4613 Y5.5702
G01 X36.4630 Y5.5643
G01 X36.4640 Y5.5582
G01 X36.4641 Y5.5509
G01 X36.4635 Y5.5448
G01 X36.4617 Y5.5376
G01 X36.4594 Y5.5319
G01 X36.4558 Y5.5255
G01 X36.3810 Y5.4139
G01 X36.3768 Y5.4094
G01 X36.3731 Y5.4062
G01 X36.3680 Y5.4027
G01 X36.3637 Y5.4004
G01 X36.3545 Y5.3971
G01 X36.3496 Y5.3961
G01 X36.3435 Y5.3956
G01 X36.3338 Y5.3963
G01 X36.3243 Y5.3989
G01 X36.1734 Y5.4614
G01 X35.8297 Y5.5067
G01 X35.6100 Y5.5067
G01 X35.6100 Y5.3410
G01 X35.8342 Y5.3410
G01 X35.9433 Y5.3356
G01 X36.0586 Y5.3186
G01 X36.1668 Y5.2915
G01 X36.2731 Y5.2535
G01 X36.3751 Y5.2052
G01 X36.4729 Y5.1465
G01 X36.5626 Y5.0800
G01 X36.6462 Y5.0042
G01 X36.7220 Y4.9206
G01 X36.7899 Y4.8289
G01 X36.8472 Y4.7331
G01 X36.8959 Y4.6299
G01 X36.9338 Y4.5236
G01 X36.9606 Y4.4166
G01 X36.9680 Y4.3680
G01 X37.1250 Y4.3680
G01 X37.1034 Y4.5314
G01 X36.9720 Y4.8486
G01 X36.9654 Y4.8575
G01 X36.9613 Y4.8651
G01 X36.9589 Y4.8721
G01 X36.9574 Y4.8806
G01 X36.9574 Y4.8892
G01 X36.9592 Y4.8989
G01 X36.9623 Y4.9070
G01 X36.9668 Y4.9144
G01 X37.0492 Y5.0216
G01 X37.0535 Y5.0260
G01 X37.0583 Y5.0299
G01 X37.0646 Y5.0337
G01 X37.0702 Y5.0362
G01 X37.0774 Y5.0382
G01 X37.0847 Y5.0391
G01 X37.0921 Y5.0390
G01 X37.0994 Y5.0377
G01 X37.1064 Y5.0354
G01 X37.1602 Y5.0131
G01 X37.3473 Y4.9885
G01 X38.6260 Y4.9885
G01 X38.6333 Y4.9880
G01 X38.6417 Y4.9860
G01 X38.7477 Y4.9422
G01 X38.7531 Y4.9394
G01 X38.7582 Y4.9359
G01 X38.7628 Y4.9319
G01 X38.9137 Y4.7809
G01 X38.9169 Y4.7772
G01 X38.9204 Y4.7721
G01 X38.9232 Y4.7667
G01 X38.9253 Y4.7609
G01 X38.9270 Y4.7537
G01 X38.9275 Y4.7452
G01 X38.9268 Y4.7378
G01 X38.9246 Y4.7295
G01 X38.8425 Y4.5314
G01 X38.7977 Y4.1910
G01 X38.8425 Y3.8506
G01 X38.9740 Y3.5334
G01 X39.1830 Y3.2610
G01 X39.4554 Y3.0520
G01 X39.7726 Y2.9206
G01 X40.1163 Y2.8753
G01 X40.9097 Y2.8753
G01 X41.2534 Y2.9206
G01 X41.5706 Y3.0520
G01 X41.8430 Y3.2610
G01 X42.0520 Y3.5334
G01 X42.1835 Y3.8506
G01 X42.2283 Y4.1910
G01 X42.1835 Y4.5314
G01 X42.0520 Y4.8486
G01 X41.8430 Y5.1210
G01 X41.5706 Y5.3300
G01 X41.2534 Y5.4614
G01 X40.9097 Y5.5067
G01 X40.2183 Y5.5067
G01 X40.2110 Y5.5072
G01 X40.2050 Y5.5085
G01 X40.1992 Y5.5105
G01 X40.1926 Y5.5138
G01 X40.1875 Y5.5173
G01 X40.1829 Y5.5213
G01 X39.7409 Y5.9633
G01 X39.7369 Y5.9679
G01 X39.7334 Y5.9730
G01 X39.7306 Y5.9784
G01 X39.7288 Y5.9830
G01 X39.7273 Y5.9889
G01 X39.7265 Y5.9938
G01 X39.7263 Y5.9999
G01 X39.7268 Y6.0060
G01 X39.7281 Y6.0120
G01 X39.7297 Y6.0167
G01 X39.7802 Y6.1385
G01 X39.7847 Y6.1458
G01 X39.7904 Y6.1522
G01 X39.7971 Y6.1576
G01 X39.8046 Y6.1617
G01 X39.8139 Y6.1648
G01 X39.8200 Y6.1658
G01 X39.8249 Y6.1660
G01 X41.2212 Y6.1660
G01 X41.2286 Y6.1653
G01 X41.2346 Y6.1638
G01 X41.2414 Y6.1612
G01 X41.2474 Y6.1578
G01 X41.3319 Y6.1410
G01 X41.6511 Y6.1410
G01 X41.7356 Y6.1578
G01 X41.8072 Y6.2057
G01 X42.4972 Y6.8957
G01 X42.5039 Y6.9011
G01 X42.5114 Y6.9052
G01 X42.5207 Y6.9083
G01 X42.5292 Y6.9094
G01 X52.7171 Y6.9095
G01 X52.9041 Y6.9341
G01 X53.0755 Y7.0051
G01 X53.1641 Y7.0730
G01 X53.1693 Y7.0762
G01 X53.1749 Y7.0787
G01 X53.1807 Y7.0805
G01 X53.1867 Y7.0815
G01 X53.1927 Y7.0819
G01 X53.1976 Y7.0816
G01 X53.2036 Y7.0807
G01 X53.2083 Y7.0794
G01 X53.2796 Y7.0500
G01 X53.5940 Y7.0086
G01 X53.9084 Y7.0500
G01 X54.2012 Y7.1713
G01 X54.4527 Y7.3643
G01 X54.6457 Y7.6158
G01 X54.7670 Y7.9086
G01 X54.8088 Y8.2263
G01 X54.8088 Y9.2197
G01 X54.7670 Y9.5374
G01 X54.6457 Y9.8302
G01 X54.4527 Y10.0817
G01 X54.2012 Y10.2747
G01 X53.9084 Y10.3960
G01 X53.5940 Y10.4374
G01 X53.2796 Y10.3960
G01 X52.9868 Y10.2747
G01 X52.7353 Y10.0817
G01 X52.5423 Y9.8302
G01 X52.4210 Y9.5374
G01 X52.3792 Y9.2197
G01 X52.3791 Y8.3768
G01 X52.3780 Y8.3695
G01 X52.3754 Y8.3614
G01 X52.3714 Y8.3538
G01 X52.3671 Y8.3478
G01 X52.3619 Y8.3426
G01 X52.3549 Y8.3376
G01 X52.3472 Y8.3339
G01 X52.3402 Y8.3317
G01 X52.3341 Y8.3307
G01 X52.3292 Y8.3305
G01 X44.2187 Y8.3305
G01 X44.2114 Y8.3310
G01 X44.2054 Y8.3323
G01 X44.1996 Y8.3343
G01 X44.1930 Y8.3376
G01 X44.1870 Y8.3418
G01 X44.1817 Y8.3469
G01 X44.1771 Y8.3527
G01 X44.1735 Y8.3591
G01 X44.1223 Y8.4833
G01 X44.1208 Y8.4892
G01 X44.1202 Y8.4953
G01 X44.1202 Y8.5015
G01 X44.1211 Y8.5076
G01 X44.1226 Y8.5135
G01 X44.1254 Y8.5203
G01 X44.1285 Y8.5256
G01 X44.1322 Y8.5305
G01 X45.9913 Y10.3898
G01 X46.0392 Y10.4614
G01 X46.0560 Y10.5459
G01 X46.0560 Y14.0921
G01 X46.0392 Y14.1766
G01 X45.9913 Y14.2482
G01 X44.9822 Y15.2573
G01 X44.9106 Y15.3052
G01 X44.8261 Y15.3220
G01 X43.7579 Y15.3220
G01 X43.6734 Y15.3052
G01 X43.6549 Y15.2928
G01 X43.6495 Y15.2898
G01 X43.6403 Y15.2865
G01 X43.6318 Y15.2851
G01 X43.2132 Y15.2851
G01 X43.2060 Y15.2859
G01 X43.1990 Y15.2879
G01 X43.1934 Y15.2902
G01 X43.1871 Y15.2939
G01 X43.0541 Y15.3959
G01 X42.8827 Y15.4669
G01 X42.6957 Y15.4915
G01 X41.5410 Y15.4915
G01 X41.5349 Y15.4919
G01 X41.5277 Y15.4933
G01 X41.5196 Y15.4963
G01 X41.5132 Y15.4999
G01 X41.5065 Y15.5053
G01 X41.2398 Y15.7723
G01 X41.2350 Y15.7794
G01 X41.2314 Y15.7872
G01 X41.2292 Y15.7955
G01 X41.2285 Y15.8040
G01 X41.2285 Y18.0677
G01 X41.2198 Y18.1337
G01 X41.2194 Y18.1402
G01 X41.2194 Y19.8423
G01 X41.1930 Y19.9751
G01 X41.1206 Y20.0836
G01 X41.0121 Y20.1560
G01 X40.8794 Y20.1824
G01 X40.1467 Y20.1824
G01 X40.0139 Y20.1560
G01 X39.9054 Y20.0836
G01 X39.8330 Y19.9751
G01 X39.8066 Y19.8423
G01 X39.8066 Y18.1072
G01 X39.8063 Y18.1020
G01 X39.8029 Y18.0760
G01 X39.8063 Y18.0500
G01 X39.8066 Y18.0448
G01 X39.8066 Y16.3096
G00 Z2.0000
G00 X39.9680 Y19.8451
G01 F80.00
G01 Z-0.0350
G01 F80.00
G01 X39.9680 Y18.1479
G01 X39.9653 Y18.1287
G01 X39.9627 Y18.0760
G01 X39.9653 Y18.0233
G01 X39.9677 Y18.0058
G01 X39.9678 Y15.4878
G01 X39.9707 Y15.4326
G01 X39.9783 Y15.3817
G01 X39.9908 Y15.3316
G01 X40.0096 Y15.2784
G01 X40.0333 Y15.2285
G01 X40.0605 Y15.1833
G01 X40.0911 Y15.1419
G01 X40.1281 Y15.1008
G01 X40.8387 Y14.3902
G01 X40.8769 Y14.3557
G01 X40.9183 Y14.3249
G01 X40.9666 Y14.2957
G01 X41.0177 Y14.2718
G01 X41.0663 Y14.2544
G01 X41.1163 Y14.2419
G01 X41.1721 Y14.2334
G01 X41.2260 Y14.2307
G01 X42.4834 Y14.2307
G01 X42.4943 Y14.2228
G01 X42.5418 Y14.1946
G01 X42.5884 Y14.1726
G01 X42.6416 Y14.1538
G01 X42.6917 Y14.1413
G01 X42.7451 Y14.1334
G01 X42.7990 Y14.1307
G01 X42.8529 Y14.1334
G01 X42.9087 Y14.1419
G01 X42.9587 Y14.1544
G01 X43.0084 Y14.1722
G01 X43.0595 Y14.1963
G01 X43.1037 Y14.2228
G01 X43.1149 Y14.2310
G01 X43.4990 Y14.2310
G01 X43.5088 Y14.2320
G01 X43.5147 Y14.2335
G01 X43.5193 Y14.2353
G01 X43.5247 Y14.2381
G01 X43.5298 Y14.2416
G01 X43.5352 Y14.2465
G01 X43.5392 Y14.2512
G01 X43.5425 Y14.2564
G01 X43.5456 Y14.2630
G01 X43.5475 Y14.2689
G01 X43.5488 Y14.2761
G01 X43.5490 Y14.5040
G01 X43.7030 Y14.5040
G01 X43.7032 Y14.2191
G01 X43.7042 Y14.2130
G01 X43.7059 Y14.2072
G01 X43.7083 Y14.2015
G01 X43.7121 Y14.1952
G01 X43.7160 Y14.1904
G01 X43.7213 Y14.1853
G01 X43.7263 Y14.1818
G01 X43.7327 Y14.1783
G01 X43.7420 Y14.1752
G01 X43.7469 Y14.1744
G01 X43.7530 Y14.1740
G01 X44.4293 Y14.1740
G01 X45.0350 Y13.5683
G01 X45.0350 Y11.0697
G01 X42.9053 Y8.9400
G01 X41.3270 Y8.9400
G01 X41.3185 Y8.9393
G01 X41.3113 Y8.9375
G01 X41.3034 Y8.9341
G01 X41.2972 Y8.9302
G01 X41.2925 Y8.9262
G01 X41.2891 Y8.9227
G01 X41.2854 Y8.9178
G01 X41.2823 Y8.9125
G01 X41.2804 Y8.9080
G01 X41.2785 Y8.9021
G01 X41.2774 Y8.8961
G01 X41.2770 Y8.8912
G01 X41.2770 Y8.3283
G01 X41.2577 Y8.3401
G01 X41.1955 Y8.3977
G01 X41.1520 Y8.4626
G01 X41.1260 Y8.5361
G01 X41.1230 Y8.5647
G01 X41.1228 Y8.8749
G01 X41.1212 Y8.8833
G01 X41.1187 Y8.8903
G01 X41.1152 Y8.8967
G01 X41.1109 Y8.9027
G01 X41.1057 Y8.9079
G01 X41.0997 Y8.9122
G01 X41.0933 Y8.9157
G01 X41.0863 Y8.9182
G01 X41.0791 Y8.9196
G01 X41.0730 Y8.9200
G01 X39.2730 Y8.9200
G01 X39.2645 Y8.9193
G01 X39.2562 Y8.9171
G01 X39.2484 Y8.9135
G01 X39.2413 Y8.9087
G01 X39.2376 Y8.9054
G01 X39.2336 Y8.9008
G01 X39.2308 Y8.8967
G01 X39.2278 Y8.8914
G01 X39.2255 Y8.8857
G01 X39.2242 Y8.8810
G01 X39.2234 Y8.8761
G01 X39.2230 Y8.8700
G01 X39.2230 Y6.3700
G01 X39.2240 Y6.3602
G01 X39.2255 Y6.3543
G01 X39.2273 Y6.3497
G01 X39.2301 Y6.3443
G01 X39.2328 Y6.3402
G01 X39.2360 Y6.3364
G01 X39.2403 Y6.3321
G01 X39.2484 Y6.3265
G01 X39.2562 Y6.3229
G01 X39.2645 Y6.3207
G01 X39.2730 Y6.3200
G01 X41.0730 Y6.3200
G01 X41.0803 Y6.3205
G01 X41.0863 Y6.3218
G01 X41.0933 Y6.3243
G01 X41.0997 Y6.3278
G01 X41.1057 Y6.3321
G01 X41.1109 Y6.3373
G01 X41.1152 Y6.3433
G01 X41.1192 Y6.3509
G01 X41.1215 Y6.3579
G01 X41.1228 Y6.3651
G01 X41.1230 Y6.6753
G01 X41.1260 Y6.7039
G01 X41.1520 Y6.7774
G01 X41.1955 Y6.8423
G01 X41.2577 Y6.8999
G01 X41.2770 Y6.9117
G01 X41.2770 Y6.3488
G01 X41.2775 Y6.3427
G01 X41.2792 Y6.3355
G01 X41.2813 Y6.3297
G01 X41.2848 Y6.3233
G01 X41.2883 Y6.3183
G01 X41.2916 Y6.3146
G01 X41.2962 Y6.3106
G01 X41.3013 Y6.3071
G01 X41.3067 Y6.3043
G01 X41.3125 Y6.3022
G01 X41.3185 Y6.3007
G01 X41.3245 Y6.3001
G01 X41.6560 Y6.3000
G01 X41.6621 Y6.3004
G01 X41.6670 Y6.3012
G01 X41.6728 Y6.3029
G01 X41.6796 Y6.3059
G01 X41.6858 Y6.3098
G01 X41.6914 Y6.3146
G01 X42.4465 Y7.0697
G01 X52.7229 Y7.0698
G01 X52.7743 Y7.0724
G01 X52.8301 Y7.0809
G01 X52.8801 Y7.0934
G01 X52.9287 Y7.1108
G01 X52.9776 Y7.1336
G01 X53.0261 Y7.1625
G01 X53.0695 Y7.1947
G01 X53.1086 Y7.2301
G01 X53.1509 Y7.2724
G01 X53.1933 Y7.2525
G01 X53.2904 Y7.2179
G01 X53.3892 Y7.1932
G01 X53.4923 Y7.1780
G01 X53.5940 Y7.1730
G01 X53.6969 Y7.1781
G01 X53.7988 Y7.1932
G01 X53.8976 Y7.2179
G01 X53.9981 Y7.2539
G01 X54.0890 Y7.2970
G01 X54.1773 Y7.3500
G01 X54.2620 Y7.4129
G01 X54.3365 Y7.4805
G01 X54.4049 Y7.5559
G01 X54.4684 Y7.6417
G01 X54.5200 Y7.7280
G01 X54.5641 Y7.8212
G01 X54.5988 Y7.9182
G01 X54.6233 Y8.0158
G01 X54.6389 Y8.1201
G01 X54.6440 Y8.2230
G01 X54.6440 Y9.2242
G01 X54.6386 Y9.3284
G01 X54.6238 Y9.4278
G01 X54.5994 Y9.5254
G01 X54.5631 Y9.6271
G01 X54.5200 Y9.7180
G01 X54.4670 Y9.8063
G01 X54.4041 Y9.8910
G01 X54.3365 Y9.9655
G01 X54.2601 Y10.0347
G01 X54.1753 Y10.0974
G01 X54.0890 Y10.1490
G01 X53.9958 Y10.1931
G01 X53.8988 Y10.2278
G01 X53.8012 Y10.2523
G01 X53.6945 Y10.2681
G01 X53.5940 Y10.2730
G01 X53.4935 Y10.2681
G01 X53.3892 Y10.2528
G01 X53.2892 Y10.2278
G01 X53.1945 Y10.1940
G01 X53.0990 Y10.1490
G01 X53.0107 Y10.0960
G01 X52.9298 Y10.0362
G01 X52.8515 Y9.9655
G01 X52.7808 Y9.8872
G01 X52.7210 Y9.8063
G01 X52.6686 Y9.7190
G01 X52.6239 Y9.6248
G01 X52.5892 Y9.5278
G01 X52.5642 Y9.4278
G01 X52.5492 Y9.3271
G01 X52.5440 Y9.2230
G01 X52.5440 Y8.2218
G01 X52.4925 Y8.1703
G01 X43.5470 Y8.1703
G01 X45.8824 Y10.5056
G01 X45.8886 Y10.5132
G01 X45.8917 Y10.5185
G01 X45.8936 Y10.5230
G01 X45.8963 Y10.5325
G01 X45.8970 Y10.5410
G01 X45.8970 Y14.0970
G01 X45.8965 Y14.1043
G01 X45.8948 Y14.1115
G01 X45.8927 Y14.1173
G01 X45.8899 Y14.1227
G01 X45.8864 Y14.1278
G01 X45.8824 Y14.1324
G01 X44.8664 Y15.1484
G01 X44.8618 Y15.1524
G01 X44.8556 Y15.1565
G01 X44.8501 Y15.1592
G01 X44.8443 Y15.1612
G01 X44.8371 Y15.1626
G01 X44.8310 Y15.1630
G01 X43.7530 Y15.1630
G01 X43.7469 Y15.1626
G01 X43.7420 Y15.1618
G01 X43.7350 Y15.1596
G01 X43.7273 Y15.1559
G01 X43.7213 Y15.1517
G01 X43.7160 Y15.1466
G01 X43.7114 Y15.1408
G01 X43.7078 Y15.1344
G01 X43.7052 Y15.1275
G01 X43.7034 Y15.1191
G01 X43.7030 Y15.1130
G01 X43.7030 Y14.8580
G01 X43.5490 Y14.8580
G01 X43.5488 Y15.0859
G01 X43.5478 Y15.0920
G01 X43.5465 Y15.0967
G01 X43.5442 Y15.1024
G01 X43.5412 Y15.1077
G01 X43.5384 Y15.1118
G01 X43.5344 Y15.1164
G01 X43.5298 Y15.1204
G01 X43.5257 Y15.1232
G01 X43.5204 Y15.1262
G01 X43.5135 Y15.1288
G01 X43.5075 Y15.1303
G01 X43.5002 Y15.1310
G01 X43.1272 Y15.1310
G01 X43.0872 Y15.1709
G01 X43.0481 Y15.2063
G01 X43.0047 Y15.2385
G01 X42.9605 Y15.2651
G01 X42.9073 Y15.2902
G01 X42.8587 Y15.3076
G01 X42.8075 Y15.3204
G01 X42.7529 Y15.3286
G01 X42.6990 Y15.3313
G01 X41.4539 Y15.3313
G01 X41.0683 Y15.7169
G01 X41.0683 Y18.0710
G01 X41.0656 Y18.1249
G01 X41.0580 Y18.1765
G01 X41.0580 Y19.8473
G01 X41.0572 Y19.8643
G01 X41.0551 Y19.8788
G01 X41.0502 Y19.8989
G01 X41.0448 Y19.9138
G01 X41.0386 Y19.9270
G01 X41.0288 Y19.9438
G01 X41.0186 Y19.9575
G01 X41.0089 Y19.9684
G01 X40.9945 Y19.9816
G01 X40.9808 Y19.9918
G01 X40.9683 Y19.9993
G01 X40.9508 Y20.0078
G01 X40.9324 Y20.0142
G01 X40.9182 Y20.0177
G01 X40.9026 Y20.0201
G01 X40.8843 Y20.0210
G01 X40.1417 Y20.0210
G01 X40.1271 Y20.0204
G01 X40.1078 Y20.0177
G01 X40.0924 Y20.0139
G01 X40.0752 Y20.0078
G01 X40.0620 Y20.0016
G01 X40.0462 Y19.9924
G01 X40.0334 Y19.9831
G01 X40.0171 Y19.9684
G01 X40.0074 Y19.9575
G01 X39.9972 Y19.9438
G01 X39.9885 Y19.9292
G01 X39.9807 Y19.9127
G01 X39.9754 Y19.8977
G01 X39.9713 Y19.8812
G01 X39.9688 Y19.8643
G01 X39.9680 Y19.8451
G00 Z2.0000
G00 X38.3393 Y20.1824
G01 F80.00
G01 Z-0.0350
G01 F80.00
G01 X37.6066 Y20.1824
G01 X37.4739 Y20.1560
G01 X37.3654 Y20.0836
G01 X37.2930 Y19.9751
G01 X37.2666 Y19.8423
G01 X37.2666 Y18.1072
G01 X37.2662 Y18.1007
G01 X37.2625 Y18.0727
G01 X37.2625 Y16.6403
G01 X37.2662 Y16.6123
G01 X37.2666 Y16.6058
G01 X37.2666 Y16.3097
G01 X37.2930 Y16.1769
G01 X37.3654 Y16.0684
G01 X37.4739 Y15.9960
G01 X37.6066 Y15.9696
G01 X37.6174 Y15.9695
G01 X37.6247 Y15.9686
G01 X37.6329 Y15.9662
G01 X37.6416 Y15.9618
G01 X37.6457 Y15.9590
G01 X37.6503 Y15.9550
G01 X37.7584 Y15.8467
G01 X37.7634 Y15.8397
G01 X37.7671 Y15.8320
G01 X37.7695 Y15.8238
G01 X37.7705 Y15.8152
G01 X37.7705 Y15.3878
G01 X37.7698 Y15.3805
G01 X37.7676 Y15.3722
G01 X37.7640 Y15.3644
G01 X37.7592 Y15.3573
G01 X37.7522 Y15.3503
G01 X37.7472 Y15.3468
G01 X37.7430 Y15.3443
G01 X37.7373 Y15.3419
G01 X37.7326 Y15.3405
G01 X37.7230 Y15.3391
G01 X37.3770 Y15.3390
G01 X37.3770 Y14.2304
G01 X37.3765 Y14.2231
G01 X37.3745 Y14.2147
G01 X37.3711 Y14.2068
G01 X37.3672 Y14.2006
G01 X37.3632 Y14.1959
G01 X37.3587 Y14.1917
G01 X37.3537 Y14.1881
G01 X37.3484 Y14.1852
G01 X37.2242 Y14.1340
G01 X37.2182 Y14.1326
G01 X37.2121 Y14.1320
G01 X37.2060 Y14.1320
G01 X37.2011 Y14.1326
G01 X37.1952 Y14.1341
G01 X37.1906 Y14.1357
G01 X37.1850 Y14.1384
G01 X37.1799 Y14.1417
G01 X37.1743 Y14.1465
G01 X36.3858 Y14.9351
G01 X36.2360 Y15.0499
G01 X36.1525 Y15.0845
G01 X36.1469 Y15.0872
G01 X36.1428 Y15.0899
G01 X36.1362 Y15.0954
G01 X36.1299 Y15.1031
G01 X36.1253 Y15.1118
G01 X36.1228 Y15.1200
G01 X36.1216 Y15.1286
G01 X36.1219 Y15.1360
G01 X36.1435 Y15.3003
G01 X36.1435 Y18.0727
G01 X36.1398 Y18.1007
G01 X36.1394 Y18.1072
G01 X36.1394 Y19.8423
G01 X36.1130 Y19.9751
G01 X36.0406 Y20.0836
G01 X35.9321 Y20.1560
G01 X35.7993 Y20.1824
G01 X35.0666 Y20.1824
G01 X34.9339 Y20.1560
G01 X34.8254 Y20.0836
G01 X34.7530 Y19.9751
G01 X34.7266 Y19.8423
G01 X34.7266 Y18.1072
G01 X34.7262 Y18.1007
G01 X34.7225 Y18.0727
G01 X34.7225 Y15.6120
G01 X34.7221 Y15.6059
G01 X34.7213 Y15.6010
G01 X34.7196 Y15.5951
G01 X34.7166 Y15.5884
G01 X34.7134 Y15.5832
G01 X34.7087 Y15.5775
G01 X34.5709 Y15.4398
G01 X34.5055 Y15.3548
G01 X34.5000 Y15.3498
G01 X34.4939 Y15.3456
G01 X34.4872 Y15.3424
G01 X34.4801 Y15.3402
G01 X34.4752 Y15.3394
G01 X34.4690 Y15.3390
G01 X33.5670 Y15.3390
G01 X33.5670 Y13.7310
G01 X34.7216 Y13.7310
G01 X34.7281 Y13.7306
G01 X34.7743 Y13.7245
G01 X35.5672 Y13.7245
G01 X35.5745 Y13.7238
G01 X35.5805 Y13.7223
G01 X35.5863 Y13.7202
G01 X35.5927 Y13.7167
G01 X35.5977 Y13.7132
G01 X35.6014 Y13.7099
G01 X37.3624 Y11.9489
G01 X37.3672 Y11.9433
G01 X37.3711 Y11.9371
G01 X37.3741 Y11.9303
G01 X37.3763 Y11.9220
G01 X37.3770 Y11.9147
G01 X37.3770 Y11.3310
G01 X39.5850 Y11.3310
G01 X39.5850 Y12.9390
G01 X38.4025 Y12.9390
G01 X38.3940 Y12.9397
G01 X38.3868 Y12.9415
G01 X38.3811 Y12.9438
G01 X38.3768 Y12.9461
G01 X38.3717 Y12.9496
G01 X38.3671 Y12.9536
G01 X37.7925 Y13.5283
G01 X37.7870 Y13.5349
G01 X37.7832 Y13.5412
G01 X37.7804 Y13.5480
G01 X37.7784 Y13.5563
G01 X37.7779 Y13.5625
G01 X37.7781 Y13.5686
G01 X37.7791 Y13.5746
G01 X37.7808 Y13.5805
G01 X37.8323 Y13.7045
G01 X37.8355 Y13.7098
G01 X37.8393 Y13.7146
G01 X37.8437 Y13.7188
G01 X37.8486 Y13.7226
G01 X37.8539 Y13.7257
G01 X37.8595 Y13.7281
G01 X37.8654 Y13.7298
G01 X37.8715 Y13.7308
G01 X39.5850 Y13.7310
G01 X39.5850 Y15.3390
G01 X39.2378 Y15.3391
G01 X39.2317 Y15.3400
G01 X39.2258 Y15.3415
G01 X39.2201 Y15.3438
G01 X39.2148 Y15.3468
G01 X39.2098 Y15.3503
G01 X39.2053 Y15.3545
G01 X39.2013 Y15.3592
G01 X39.1980 Y15.3644
G01 X39.1953 Y15.3699
G01 X39.1933 Y15.3757
G01 X39.1919 Y15.3829
G01 X39.1915 Y15.3890
G01 X39.1915 Y16.1257
G01 X39.1669 Y16.3127
G01 X39.0959 Y16.4841
G01 X38.9811 Y16.6338
G01 X38.6973 Y16.9175
G01 X38.6933 Y16.9222
G01 X38.6900 Y16.9274
G01 X38.6869 Y16.9340
G01 X38.6850 Y16.9398
G01 X38.6839 Y16.9459
G01 X38.6835 Y16.9520
G01 X38.6835 Y18.0727
G01 X38.6798 Y18.1007
G01 X38.6794 Y18.1072
G01 X38.6794 Y19.8423
G01 X38.6530 Y19.9751
G01 X38.5806 Y20.0836
G01 X38.4721 Y20.1560
G01 X38.3393 Y20.1824
G00 Z2.0000
G00 X32.5530 Y25.0960
G01 F80.00
G01 Z-0.0350
G01 F80.00
G01 X43.3930 Y25.0960
G01 X43.3991 Y25.0964
G01 X43.4063 Y25.0978
G01 X43.4133 Y25.1003
G01 X43.4197 Y25.1038
G01 X43.4247 Y25.1073
G01 X43.4300 Y25.1124
G01 X43.4346 Y25.1182
G01 X43.4382 Y25.1246
G01 X43.4415 Y25.1339
G01 X43.4429 Y25.1423
G01 X43.4430 Y25.2012
G01 X44.3062 Y25.2012
G01 X48.6844 Y20.8230
G01 X48.6845 Y17.2649
G01 X48.6895 Y17.1644
G01 X48.7042 Y17.0649
G01 X48.7296 Y16.9625
G01 X48.7644 Y16.8654
G01 X48.8073 Y16.7744
G01 X48.8621 Y16.6828
G01 X48.9229 Y16.6010
G01 X48.9921 Y16.5246
G01 X53.0523 Y12.4643
G01 X53.1297 Y12.3944
G01 X53.2106 Y12.3345
G01 X53.2969 Y12.2828
G01 X53.3922 Y12.2375
G01 X53.4881 Y12.2031
G01 X53.5917 Y12.1773
G01 X53.6912 Y12.1626
G01 X53.7942 Y12.1575
G01 X62.7380 Y12.1575
G01 X62.8410 Y12.1626
G01 X62.9429 Y12.1777
G01 X63.0453 Y12.2035
G01 X63.1400 Y12.2375
G01 X63.2332 Y12.2815
G01 X63.3236 Y12.3360
G01 X63.4044 Y12.3960
G01 X63.4790 Y12.4635
G01 X65.5128 Y14.4972
G01 X65.5828 Y14.5745
G01 X65.6435 Y14.6564
G01 X65.6965 Y14.7448
G01 X65.7405 Y14.8380
G01 X65.7745 Y14.9327
G01 X65.8007 Y15.0375
G01 X65.8154 Y15.1370
G01 X65.8205 Y15.2388
G01 X65.8205 Y30.2260
G01 X65.8200 Y30.2374
G01 X65.8200 Y30.7260
G01 X65.8149 Y30.8289
G01 X65.7993 Y30.9332
G01 X65.7748 Y31.0308
G01 X65.7410 Y31.1255
G01 X65.6971 Y31.2188
G01 X65.6430 Y31.3093
G01 X65.5817 Y31.3921
G01 X65.5125 Y31.4685
G01 X65.4342 Y31.5392
G01 X65.3533 Y31.5990
G01 X65.2671 Y31.6508
G01 X65.1718 Y31.6961
G01 X65.0724 Y31.7314
G01 X64.9748 Y31.7558
G01 X64.8754 Y31.7706
G01 X64.7700 Y31.7760
G01 X64.6646 Y31.7706
G01 X64.5652 Y31.7558
G01 X64.4676 Y31.7314
G01 X64.3682 Y31.6961
G01 X64.2729 Y31.6508
G01 X64.1867 Y31.5990
G01 X64.1058 Y31.5392
G01 X64.0275 Y31.4685
G01 X63.9568 Y31.3902
G01 X63.8970 Y31.3093
G01 X63.8452 Y31.2231
G01 X63.7999 Y31.1278
G01 X63.7652 Y31.0308
G01 X63.7407 Y30.9332
G01 X63.7251 Y30.8289
G01 X63.7200 Y30.7260
G01 X63.7200 Y30.2374
G01 X63.7195 Y30.2260
G01 X63.7195 Y15.6751
G01 X62.3029 Y14.2585
G01 X54.2293 Y14.2585
G01 X50.7854 Y17.7025
G01 X50.7854 Y21.2581
G01 X50.7805 Y21.3586
G01 X50.7647 Y21.4654
G01 X50.7402 Y21.5630
G01 X50.7054 Y21.6601
G01 X50.6601 Y21.7554
G01 X50.6084 Y21.8417
G01 X50.5469 Y21.9245
G01 X50.4777 Y22.0009
G01 X45.4841 Y26.9945
G01 X45.4058 Y27.0653
G01 X45.3249 Y27.1252
G01 X45.2386 Y27.1769
G01 X45.1433 Y27.2222
G01 X45.0439 Y27.2576
G01 X44.9462 Y27.2820
G01 X44.8455 Y27.2970
G01 X44.7413 Y27.3022
G01 X43.4430 Y27.3022
G01 X43.4430 Y32.7660
G01 X43.4425 Y32.7733
G01 X43.4405 Y32.7817
G01 X43.4371 Y32.7896
G01 X43.4324 Y32.7968
G01 X43.4292 Y32.8005
G01 X43.4247 Y32.8047
G01 X43.4208 Y32.8076
G01 X43.4155 Y32.8107
G01 X43.4110 Y32.8126
G01 X43.4051 Y32.8145
G01 X43.3991 Y32.8156
G01 X43.3930 Y32.8160
G01 X38.0775 Y32.8160
G01 X38.0775 Y34.6722
G01 X38.0724 Y34.7740
G01 X38.0577 Y34.8735
G01 X38.0319 Y34.9771
G01 X37.9975 Y35.0730
G01 X37.9546 Y35.1640
G01 X37.9005 Y35.2546
G01 X37.8374 Y35.3393
G01 X37.7707 Y35.4129
G01 X37.6770 Y35.5066
G01 X37.6770 Y35.5710
G01 X37.6766 Y35.5771
G01 X37.6752 Y35.5843
G01 X37.6727 Y35.5913
G01 X37.6692 Y35.5977
G01 X37.6649 Y35.6037
G01 X37.6587 Y35.6097
G01 X37.6516 Y35.6145
G01 X37.6438 Y35.6181
G01 X37.6355 Y35.6203
G01 X37.6270 Y35.6210
G01 X37.5626 Y35.6210
G01 X36.9915 Y36.1921
G01 X36.9915 Y50.0392
G01 X36.9864 Y50.1410
G01 X36.9713 Y50.2429
G01 X36.9463 Y50.3429
G01 X36.9124 Y50.4377
G01 X36.8675 Y50.5332
G01 X36.8158 Y50.6196
G01 X36.7546 Y50.7025
G01 X36.7450 Y50.7134
G01 X36.7450 Y50.7852
G01 X36.7412 Y50.8616
G01 X36.7298 Y50.9396
G01 X36.7104 Y51.0174
G01 X36.6843 Y51.0905
G01 X36.6501 Y51.1630
G01 X36.6088 Y51.2317
G01 X36.5617 Y51.2950
G01 X36.5104 Y51.3516
G01 X36.4913 Y51.3691
G01 X36.4913 Y51.8421
G01 X37.4389 Y52.7897
G01 X40.4352 Y52.7897
G01 X40.4891 Y52.7924
G01 X40.5437 Y52.8006
G01 X40.5973 Y52.8142
G01 X40.6458 Y52.8316
G01 X40.6924 Y52.8536
G01 X40.7409 Y52.8825
G01 X40.7861 Y52.9163
G01 X40.8243 Y52.9509
G01 X41.4109 Y53.5376
G01 X41.4479 Y53.5787
G01 X41.4785 Y53.6201
G01 X41.5057 Y53.6653
G01 X41.5294 Y53.7152
G01 X41.5482 Y53.7684
G01 X41.5607 Y53.8185
G01 X41.5683 Y53.8694
G01 X41.5713 Y53.9258
G01 X41.5713 Y60.6476
G01 X42.4099 Y59.8089
G01 X42.4490 Y59.7734
G01 X42.4954 Y59.7392
G01 X42.5396 Y59.7127
G01 X42.5884 Y59.6896
G01 X42.6393 Y59.6714
G01 X42.6893 Y59.6589
G01 X42.7463 Y59.6503
G01 X42.7990 Y59.6477
G01 X56.6681 Y59.6477
G01 X57.3430 Y58.9728
G01 X57.3431 Y58.4513
G01 X57.3445 Y58.4429
G01 X57.3473 Y58.4347
G01 X57.3514 Y58.4272
G01 X57.3576 Y58.4196
G01 X57.3652 Y58.4134
G01 X57.3727 Y58.4093
G01 X57.3820 Y58.4062
G01 X57.3905 Y58.4051
G01 X59.1930 Y58.4050
G01 X59.2003 Y58.4055
G01 X59.2075 Y58.4072
G01 X59.2155 Y58.4103
G01 X59.2218 Y58.4141
G01 X59.2266 Y58.4180
G01 X59.2309 Y58.4223
G01 X59.2346 Y58.4272
G01 X59.2377 Y58.4325
G01 X59.2401 Y58.4382
G01 X59.2415 Y58.4429
G01 X59.2426 Y58.4489
G01 X59.2430 Y58.4550
G01 X59.2430 Y59.6562
G01 X59.2426 Y59.6611
G01 X59.2415 Y59.6671
G01 X59.2396 Y59.6730
G01 X59.2377 Y59.6775
G01 X59.2352 Y59.6817
G01 X59.2317 Y59.6867
G01 X59.2284 Y59.6904
G01 X59.2238 Y59.6944
G01 X59.2166 Y59.6991
G01 X59.2087 Y59.7025
G01 X59.2003 Y59.7045
G01 X59.1930 Y59.7050
G01 X58.1672 Y59.7050
G01 X57.2851 Y60.5871
G01 X57.2460 Y60.6226
G01 X57.1996 Y60.6568
G01 X57.1554 Y60.6833
G01 X57.1066 Y60.7064
G01 X57.0557 Y60.7246
G01 X57.0057 Y60.7371
G01 X56.9487 Y60.7457
G01 X56.8960 Y60.7483
G01 X43.0269 Y60.7483
G01 X41.5713 Y62.2039
G01 X41.5713 Y63.9469
G01 X41.5904 Y63.9644
G01 X41.6417 Y64.0210
G01 X41.6888 Y64.0843
G01 X41.7301 Y64.1530
G01 X41.7633 Y64.2232
G01 X41.7904 Y64.2986
G01 X41.8096 Y64.3751
G01 X41.8211 Y64.4532
G01 X41.8249 Y64.5295
G01 X41.8250 Y66.0252
G01 X41.8211 Y66.1028
G01 X41.8096 Y66.1809
G01 X41.7904 Y66.2574
G01 X41.7633 Y66.3328
G01 X41.7289 Y66.4051
G01 X41.6895 Y66.4707
G01 X41.6440 Y66.5321
G01 X41.5895 Y66.5925
G01 X41.5291 Y66.6470
G01 X41.4677 Y66.6925
G01 X41.4021 Y66.7319
G01 X41.3287 Y66.7668
G01 X41.2520 Y66.7940
G01 X41.1779 Y66.8126
G01 X41.1022 Y66.8238
G01 X41.0210 Y66.8280
G01 X40.9398 Y66.8238
G01 X40.8641 Y66.8126
G01 X40.7900 Y66.7940
G01 X40.7133 Y66.7668
G01 X40.6399 Y66.7319
G01 X40.5743 Y66.6925
G01 X40.5129 Y66.6470
G01 X40.4525 Y66.5925
G01 X40.3987 Y66.5331
G01 X40.3525 Y66.4707
G01 X40.3131 Y66.4051
G01 X40.2782 Y66.3317
G01 X40.2516 Y66.2574
G01 X40.2330 Y66.1832
G01 X40.2209 Y66.1028
G01 X40.2170 Y66.0240
G01 X40.2170 Y64.5320
G01 X40.2209 Y64.4532
G01 X40.2324 Y64.3751
G01 X40.2516 Y64.2986
G01 X40.2787 Y64.2232
G01 X40.3119 Y64.1530
G01 X40.3532 Y64.0843
G01 X40.4003 Y64.0210
G01 X40.4516 Y63.9644
G01 X40.4707 Y63.9469
G01 X40.4707 Y54.1537
G01 X40.2073 Y53.8903
G01 X37.2098 Y53.8902
G01 X37.1571 Y53.8876
G01 X37.1037 Y53.8797
G01 X37.0513 Y53.8666
G01 X37.0016 Y53.8488
G01 X36.9516 Y53.8253
G01 X36.9053 Y53.7975
G01 X36.8619 Y53.7653
G01 X36.8228 Y53.7299
G01 X35.5519 Y52.4591
G01 X35.5141 Y52.4171
G01 X35.4835 Y52.3757
G01 X35.4569 Y52.3315
G01 X35.4326 Y52.2806
G01 X35.4141 Y52.2286
G01 X35.4009 Y52.1749
G01 X35.3934 Y52.1239
G01 X35.3908 Y52.0712
G01 X35.3907 Y51.3691
G01 X35.3716 Y51.3516
G01 X35.3203 Y51.2950
G01 X35.2732 Y51.2317
G01 X35.2319 Y51.1630
G01 X35.1977 Y51.0905
G01 X35.1716 Y51.0174
G01 X35.1522 Y50.9396
G01 X35.1408 Y50.8616
G01 X35.1370 Y50.7852
G01 X35.1370 Y50.7134
G01 X35.1274 Y50.7025
G01 X35.0662 Y50.6196
G01 X35.0145 Y50.5332
G01 X34.9696 Y50.4377
G01 X34.9357 Y50.3429
G01 X34.9107 Y50.2429
G01 X34.8956 Y50.1410
G01 X34.8905 Y50.0392
G01 X34.8905 Y35.7558
G01 X34.8956 Y35.6540
G01 X34.9103 Y35.5545
G01 X34.9357 Y35.4521
G01 X34.9705 Y35.3550
G01 X35.0134 Y35.2640
G01 X35.0682 Y35.1724
G01 X35.1290 Y35.0906
G01 X35.1973 Y35.0151
G01 X35.9765 Y34.2359
G01 X35.9765 Y32.8160
G01 X32.5530 Y32.8160
G01 X32.5457 Y32.8155
G01 X32.5385 Y32.8138
G01 X32.5316 Y32.8112
G01 X32.5252 Y32.8076
G01 X32.5194 Y32.8030
G01 X32.5143 Y32.7977
G01 X32.5108 Y32.7927
G01 X32.5073 Y32.7863
G01 X32.5042 Y32.7770
G01 X32.5032 Y32.7709
G01 X32.5030 Y32.7660
G01 X32.5030 Y25.1460
G01 X32.5040 Y25.1362
G01 X32.5068 Y25.1269
G01 X32.5114 Y25.1182
G01 X32.5176 Y25.1106
G01 X32.5252 Y25.1044
G01 X32.5339 Y25.0998
G01 X32.5432 Y25.0970
G01 X32.5530 Y25.0960
G00 Z2.0000
G00 X27.9425 Y28.4221
G01 F80.00
G01 Z-0.0350
G01 F80.00
G01 X28.0429 Y28.4271
G01 X28.1424 Y28.4418
G01 X28.2448 Y28.4672
G01 X28.3441 Y28.5029
G01 X28.4350 Y28.5460
G01 X28.5213 Y28.5976
G01 X28.6061 Y28.6603
G01 X28.6842 Y28.7313
G01 X28.7517 Y28.8059
G01 X28.8116 Y28.8866
G01 X28.8666 Y28.9781
G01 X28.9101 Y29.0702
G01 X28.9448 Y29.1672
G01 X28.9698 Y29.2672
G01 X28.9850 Y29.3703
G01 X28.9900 Y29.4720
G01 X28.9900 Y30.4720
G01 X28.9849 Y30.5749
G01 X28.9698 Y30.6768
G01 X28.9448 Y30.7768
G01 X28.9101 Y30.8738
G01 X28.8660 Y30.9670
G01 X28.8130 Y31.0553
G01 X28.7517 Y31.1381
G01 X28.6825 Y31.2145
G01 X28.6061 Y31.2837
G01 X28.5233 Y31.3450
G01 X28.4350 Y31.3980
G01 X28.3418 Y31.4421
G01 X28.2448 Y31.4768
G01 X28.1448 Y31.5018
G01 X28.0429 Y31.5169
G01 X27.9400 Y31.5220
G01 X27.8346 Y31.5166
G01 X27.7352 Y31.5018
G01 X27.6352 Y31.4768
G01 X27.5359 Y31.4411
G01 X27.4450 Y31.3980
G01 X27.3587 Y31.3464
G01 X27.2739 Y31.2837
G01 X27.1958 Y31.2127
G01 X27.1283 Y31.1381
G01 X27.0684 Y31.0574
G01 X27.0134 Y30.9659
G01 X26.9699 Y30.8738
G01 X26.9352 Y30.7768
G01 X26.9102 Y30.6768
G01 X26.8950 Y30.5737
G01 X26.8900 Y30.4720
G01 X26.8900 Y29.4720
G01 X26.8951 Y29.3691
G01 X26.9102 Y29.2672
G01 X26.9352 Y29.1672
G01 X26.9699 Y29.0702
G01 X27.0140 Y28.9770
G01 X27.0670 Y28.8887
G01 X27.1283 Y28.8059
G01 X27.1975 Y28.7295
G01 X27.2739 Y28.6603
G01 X27.3567 Y28.5990
G01 X27.4450 Y28.5460
G01 X27.5382 Y28.5019
G01 X27.6352 Y28.4672
G01 X27.7352 Y28.4422
G01 X27.8371 Y28.4271
G01 X27.9425 Y28.4221
G00 Z2.0000
G00 X25.4025 Y28.4221
G01 F80.00
G01 Z-0.0350
G01 F80.00
G01 X25.5029 Y28.4271
G01 X25.6024 Y28.4418
G01 X25.7048 Y28.4672
G01 X25.8041 Y28.5029
G01 X25.8950 Y28.5460
G01 X25.9813 Y28.5976
G01 X26.0661 Y28.6603
G01 X26.1442 Y28.7313
G01 X26.2117 Y28.8059
G01 X26.2716 Y28.8866
G01 X26.3266 Y28.9781
G01 X26.3701 Y29.0702
G01 X26.4048 Y29.1672
G01 X26.4298 Y29.2672
G01 X26.4450 Y29.3703
G01 X26.4500 Y29.4720
G01 X26.4500 Y30.4720
G01 X26.4449 Y30.5749
G01 X26.4298 Y30.6768
G01 X26.4048 Y30.7768
G01 X26.3701 Y30.8738
G01 X26.3260 Y30.9670
G01 X26.2730 Y31.0553
G01 X26.2117 Y31.1381
G01 X26.1425 Y31.2145
G01 X26.0661 Y31.2837
G01 X25.9833 Y31.3450
G01 X25.8950 Y31.3980
G01 X25.8018 Y31.4421
G01 X25.7048 Y31.4768
G01 X25.6048 Y31.5018
G01 X25.5029 Y31.5169
G01 X25.4000 Y31.5220
G01 X25.2946 Y31.5166
G01 X25.1952 Y31.5018
G01 X25.0952 Y31.4768
G01 X24.9959 Y31.4411
G01 X24.9050 Y31.3980
G01 X24.8187 Y31.3464
G01 X24.7339 Y31.2837
G01 X24.6558 Y31.2127
G01 X24.5883 Y31.1381
G01 X24.5284 Y31.0574
G01 X24.4734 Y30.9659
G01 X24.4299 Y30.8738
G01 X24.3952 Y30.7768
G01 X24.3702 Y30.6768
G01 X24.3550 Y30.5737
G01 X24.3500 Y30.4720
G01 X24.3500 Y29.4720
G01 X24.3551 Y29.3691
G01 X24.3702 Y29.2672
G01 X24.3952 Y29.1672
G01 X24.4299 Y29.0702
G01 X24.4740 Y28.9770
G01 X24.5270 Y28.8887
G01 X24.5883 Y28.8059
G01 X24.6575 Y28.7295
G01 X24.7339 Y28.6603
G01 X24.8167 Y28.5990
G01 X24.9050 Y28.5460
G01 X24.9982 Y28.5019
G01 X25.0952 Y28.4672
G01 X25.1952 Y28.4422
G01 X25.2971 Y28.4271
G01 X25.4025 Y28.4221
G00 Z2.0000
G00 X22.8625 Y28.4221
G01 F80.00
G01 Z-0.0350
G01 F80.00
G01 X22.9629 Y28.4271
G01 X23.0624 Y28.4418
G01 X23.1648 Y28.4672
G01 X23.2641 Y28.5029
G01 X23.3550 Y28.5460
G01 X23.4413 Y28.5976
G01 X23.5261 Y28.6603
G01 X23.6042 Y28.7313
G01 X23.6717 Y28.8059
G01 X23.7316 Y28.8866
G01 X23.7866 Y28.9781
G01 X23.8301 Y29.0702
G01 X23.8648 Y29.1672
G01 X23.8898 Y29.2672
G01 X23.9050 Y29.3703
G01 X23.9100 Y29.4720
G01 X23.9100 Y30.4720
G01 X23.9049 Y30.5749
G01 X23.8898 Y30.6768
G01 X23.8648 Y30.7768
G01 X23.8301 Y30.8738
G01 X23.7860 Y30.9670
G01 X23.7330 Y31.0553
G01 X23.6717 Y31.1381
G01 X23.6025 Y31.2145
G01 X23.5261 Y31.2837
G01 X23.4433 Y31.3450
G01 X23.3550 Y31.3980
G01 X23.2618 Y31.4421
G01 X23.1648 Y31.4768
G01 X23.0648 Y31.5018
G01 X22.9629 Y31.5169
G01 X22.8600 Y31.5220
G01 X22.7546 Y31.5166
G01 X22.6552 Y31.5018
G01 X22.5552 Y31.4768
G01 X22.4559 Y31.4411
G01 X22.3650 Y31.3980
G01 X22.2787 Y31.3464
G01 X22.1939 Y31.2837
G01 X22.1158 Y31.2127
G01 X22.0483 Y31.1381
G01 X21.9884 Y31.0574
G01 X21.9334 Y30.9659
G01 X21.8899 Y30.8738
G01 X21.8552 Y30.7768
G01 X21.8302 Y30.6768
G01 X21.8150 Y30.5737
G01 X21.8100 Y30.4720
G01 X21.8100 Y29.4720
G01 X21.8151 Y29.3691
G01 X21.8302 Y29.2672
G01 X21.8552 Y29.1672
G01 X21.8899 Y29.0702
G01 X21.9340 Y28.9770
G01 X21.9870 Y28.8887
G01 X22.0483 Y28.8059
G01 X22.1175 Y28.7295
G01 X22.1939 Y28.6603
G01 X22.2767 Y28.5990
G01 X22.3650 Y28.5460
G01 X22.4582 Y28.5019
G01 X22.5552 Y28.4672
G01 X22.6552 Y28.4422
G01 X22.7571 Y28.4271
G01 X22.8625 Y28.4221
G00 Z2.0000
G00 X20.3225 Y28.4221
G01 F80.00
G01 Z-0.0350
G01 F80.00
G01 X20.4229 Y28.4271
G01 X20.5224 Y28.4418
G01 X20.6248 Y28.4672
G01 X20.7241 Y28.5029
G01 X20.8150 Y28.5460
G01 X20.9013 Y28.5976
G01 X20.9861 Y28.6603
G01 X21.0642 Y28.7313
G01 X21.1317 Y28.8059
G01 X21.1916 Y28.8866
G01 X21.2466 Y28.9781
G01 X21.2901 Y29.0702
G01 X21.3248 Y29.1672
G01 X21.3498 Y29.2672
G01 X21.3650 Y29.3703
G01 X21.3700 Y29.4720
G01 X21.3700 Y30.4720
G01 X21.3649 Y30.5749
G01 X21.3498 Y30.6768
G01 X21.3248 Y30.7768
G01 X21.2901 Y30.8738
G01 X21.2460 Y30.9670
G01 X21.1930 Y31.0553
G01 X21.1317 Y31.1381
G01 X21.0625 Y31.2145
G01 X20.9861 Y31.2837
G01 X20.9033 Y31.3450
G01 X20.8150 Y31.3980
G01 X20.7218 Y31.4421
G01 X20.6248 Y31.4768
G01 X20.5248 Y31.5018
G01 X20.4229 Y31.5169
G01 X20.3200 Y31.5220
G01 X20.2146 Y31.5166
G01 X20.1152 Y31.5018
G01 X20.0152 Y31.4768
G01 X19.9159 Y31.4411
G01 X19.8250 Y31.3980
G01 X19.7387 Y31.3464
G01 X19.6539 Y31.2837
G01 X19.5758 Y31.2127
G01 X19.5083 Y31.1381
G01 X19.4484 Y31.0574
G01 X19.3934 Y30.9659
G01 X19.3499 Y30.8738
G01 X19.3152 Y30.7768
G01 X19.2902 Y30.6768
G01 X19.2750 Y30.5737
G01 X19.2700 Y30.4720
G01 X19.2700 Y29.4720
G01 X19.2751 Y29.3691
G01 X19.2902 Y29.2672
G01 X19.3152 Y29.1672
G01 X19.3499 Y29.0702
G01 X19.3940 Y28.9770
G01 X19.4470 Y28.8887
G01 X19.5083 Y28.8059
G01 X19.5775 Y28.7295
G01 X19.6539 Y28.6603
G01 X19.7367 Y28.5990
G01 X19.8250 Y28.5460
G01 X19.9182 Y28.5019
G01 X20.0152 Y28.4672
G01 X20.1152 Y28.4422
G01 X20.2171 Y28.4271
G01 X20.3225 Y28.4221
G00 Z2.0000
G00 X18.0254 Y26.2167
G01 F80.00
G01 Z-0.0350
G01 F80.00
G01 X17.9081 Y26.2653
G01 X17.9000 Y26.2679
G01 X17.8939 Y26.2689
G01 X17.8878 Y26.2691
G01 X17.8817 Y26.2686
G01 X17.8757 Y26.2673
G01 X17.8699 Y26.2653
G01 X17.8644 Y26.2626
G01 X17.8592 Y26.2593
G01 X17.8545 Y26.2553
G01 X11.4019 Y19.8028
G01 X11.3972 Y19.7972
G01 X11.3932 Y19.7911
G01 X11.3903 Y19.7844
G01 X11.3886 Y19.7785
G01 X11.3875 Y19.7713
G01 X11.3873 Y19.7652
G01 X11.3880 Y19.7592
G01 X11.3897 Y19.7521
G01 X11.3925 Y19.7453
G01 X11.4523 Y19.6240
G01 X11.4562 Y19.6178
G01 X11.4617 Y19.6113
G01 X11.4664 Y19.6074
G01 X11.4704 Y19.6046
G01 X11.4791 Y19.6004
G01 X11.4885 Y19.5979
G01 X11.4983 Y19.5972
G01 X11.6840 Y19.6214
G01 X11.9984 Y19.5800
G01 X12.2911 Y19.4587
G01 X12.3059 Y19.4476
G01 X12.3112 Y19.4445
G01 X12.3168 Y19.4421
G01 X12.3227 Y19.4405
G01 X12.3287 Y19.4395
G01 X12.3360 Y19.4394
G01 X12.3421 Y19.4401
G01 X12.3480 Y19.4415
G01 X12.3537 Y19.4436
G01 X12.3602 Y19.4471
G01 X12.3651 Y19.4507
G01 X18.0417 Y25.1268
G01 X18.0479 Y25.1344
G01 X18.0525 Y25.1431
G01 X18.0551 Y25.1512
G01 X18.0563 Y25.1610
G01 X18.0563 Y26.1717
G01 X18.0556 Y26.1790
G01 X18.0538 Y26.1862
G01 X18.0510 Y26.1930
G01 X18.0472 Y26.1993
G01 X18.0433 Y26.2041
G01 X18.0380 Y26.2091
G01 X18.0320 Y26.2134
G01 X18.0254 Y26.2167
G00 Z2.0000
G00 X16.9715 Y27.7027
G01 F80.00
G01 Z-0.0350
G01 F80.00
G01 X16.8541 Y27.7513
G01 X16.8459 Y27.7539
G01 X16.8399 Y27.7549
G01 X16.8338 Y27.7551
G01 X16.8277 Y27.7546
G01 X16.8217 Y27.7533
G01 X16.8159 Y27.7513
G01 X16.8104 Y27.7486
G01 X16.8052 Y27.7453
G01 X16.8005 Y27.7413
G01 X8.8619 Y19.8028
G01 X8.8572 Y19.7972
G01 X8.8532 Y19.7911
G01 X8.8503 Y19.7844
G01 X8.8486 Y19.7785
G01 X8.8475 Y19.7713
G01 X8.8473 Y19.7652
G01 X8.8480 Y19.7592
G01 X8.8497 Y19.7521
G01 X8.8525 Y19.7453
G01 X8.9123 Y19.6240
G01 X8.9169 Y19.6168
G01 X8.9217 Y19.6113
G01 X8.9294 Y19.6053
G01 X8.9380 Y19.6008
G01 X8.9426 Y19.5992
G01 X8.9485 Y19.5979
G01 X8.9583 Y19.5972
G01 X9.1440 Y19.6214
G01 X9.4332 Y19.5834
G01 X9.4431 Y19.5835
G01 X9.4492 Y19.5846
G01 X9.4540 Y19.5861
G01 X9.4597 Y19.5885
G01 X9.4640 Y19.5909
G01 X9.4718 Y19.5970
G01 X16.9878 Y27.1128
G01 X16.9940 Y27.1204
G01 X16.9986 Y27.1291
G01 X17.0012 Y27.1372
G01 X17.0024 Y27.1470
G01 X17.0024 Y27.6577
G01 X17.0017 Y27.6650
G01 X16.9999 Y27.6722
G01 X16.9971 Y27.6790
G01 X16.9933 Y27.6853
G01 X16.9894 Y27.6901
G01 X16.9841 Y27.6952
G01 X16.9781 Y27.6994
G01 X16.9715 Y27.7027
G00 Z2.0000
G00 X15.9174 Y29.1887
G01 F80.00
G01 Z-0.0350
G01 F80.00
G01 X15.8001 Y29.2373
G01 X15.7920 Y29.2399
G01 X15.7859 Y29.2409
G01 X15.7798 Y29.2411
G01 X15.7725 Y29.2404
G01 X15.7665 Y29.2389
G01 X15.7607 Y29.2368
G01 X15.7553 Y29.2340
G01 X15.7502 Y29.2305
G01 X15.7456 Y29.2265
G01 X6.3219 Y19.8028
G01 X6.3179 Y19.7982
G01 X6.3138 Y19.7921
G01 X6.3112 Y19.7867
G01 X6.3088 Y19.7797
G01 X6.3077 Y19.7737
G01 X6.3073 Y19.7664
G01 X6.3080 Y19.7592
G01 X6.3097 Y19.7521
G01 X6.3125 Y19.7453
G01 X6.3723 Y19.6240
G01 X6.3762 Y19.6178
G01 X6.3817 Y19.6113
G01 X6.3894 Y19.6053
G01 X6.3980 Y19.6008
G01 X6.4026 Y19.5992
G01 X6.4085 Y19.5979
G01 X6.4183 Y19.5972
G01 X6.6040 Y19.6214
G01 X6.8932 Y19.5834
G01 X6.9031 Y19.5835
G01 X6.9092 Y19.5846
G01 X6.9140 Y19.5861
G01 X6.9197 Y19.5885
G01 X6.9240 Y19.5909
G01 X6.9318 Y19.5970
G01 X15.9337 Y28.5988
G01 X15.9392 Y28.6054
G01 X15.9440 Y28.6139
G01 X15.9471 Y28.6232
G01 X15.9483 Y28.6330
G01 X15.9483 Y29.1437
G01 X15.9476 Y29.1510
G01 X15.9458 Y29.1582
G01 X15.9435 Y29.1639
G01 X15.9399 Y29.1703
G01 X15.9353 Y29.1761
G01 X15.9300 Y29.1811
G01 X15.9240 Y29.1854
G01 X15.9174 Y29.1887
G00 Z2.0000
G00 X11.2817 Y31.4595
G01 F80.00
G01 Z-0.0350
G01 F80.00
G01 X11.2320 Y31.4416
G01 X11.1410 Y31.3986
G01 X11.0526 Y31.3457
G01 X10.9688 Y31.2837
G01 X10.8916 Y31.2136
G01 X10.8217 Y31.1362
G01 X10.7619 Y31.0553
G01 X10.7101 Y30.9691
G01 X10.6648 Y30.8738
G01 X10.6301 Y30.7768
G01 X10.6047 Y30.6744
G01 X10.5900 Y30.5749
G01 X10.5849 Y30.4732
G01 X10.5849 Y29.4708
G01 X10.5900 Y29.3691
G01 X10.6049 Y29.2684
G01 X10.6301 Y29.1672
G01 X10.6648 Y29.0702
G01 X10.7089 Y28.9770
G01 X10.7619 Y28.8887
G01 X10.8232 Y28.8059
G01 X10.8924 Y28.7295
G01 X10.9688 Y28.6603
G01 X11.0516 Y28.5990
G01 X11.1399 Y28.5460
G01 X11.2331 Y28.5019
G01 X11.3301 Y28.4672
G01 X11.4301 Y28.4422
G01 X11.5320 Y28.4271
G01 X11.6349 Y28.4220
G01 X11.7378 Y28.4271
G01 X11.8385 Y28.4420
G01 X11.9420 Y28.4680
G01 X12.0367 Y28.5019
G01 X12.1299 Y28.5460
G01 X12.2182 Y28.5990
G01 X12.2991 Y28.6588
G01 X12.3774 Y28.7295
G01 X12.4481 Y28.8078
G01 X12.5079 Y28.8887
G01 X12.5609 Y28.9770
G01 X12.6059 Y29.0725
G01 X12.6397 Y29.1672
G01 X12.6647 Y29.2672
G01 X12.6798 Y29.3691
G01 X12.6849 Y29.4720
G01 X12.6849 Y30.4720
G01 X12.6797 Y30.5761
G01 X12.6647 Y30.6768
G01 X12.6403 Y30.7744
G01 X12.6045 Y30.8749
G01 X12.5609 Y30.9670
G01 X12.5086 Y31.0543
G01 X12.4473 Y31.1372
G01 X12.4046 Y31.1845
G01 X14.7409 Y33.5208
G01 X14.7763 Y33.5599
G01 X14.8071 Y33.6013
G01 X14.8363 Y33.6496
G01 X14.8594 Y33.6984
G01 X14.8768 Y33.7469
G01 X14.8909 Y33.8029
G01 X14.8986 Y33.8551
G01 X14.9013 Y33.9090
G01 X14.9013 Y48.2015
G01 X15.2696 Y48.5698
G01 X15.3133 Y48.5492
G01 X15.3864 Y48.5230
G01 X15.4654 Y48.5032
G01 X15.5422 Y48.4919
G01 X15.6185 Y48.4881
G01 X15.6986 Y48.4918
G01 X15.7779 Y48.5034
G01 X15.8567 Y48.5234
G01 X15.9287 Y48.5492
G01 X15.9978 Y48.5818
G01 X16.0677 Y48.6235
G01 X16.1311 Y48.6705
G01 X16.1912 Y48.7253
G01 X16.2425 Y48.7819
G01 X16.2881 Y48.8433
G01 X16.3289 Y48.9109
G01 X16.3638 Y48.9843
G01 X16.3904 Y49.0586
G01 X16.4096 Y49.1351
G01 X16.4213 Y49.2156
G01 X16.4250 Y49.2920
G01 X16.4250 Y50.7852
G01 X16.4208 Y50.8652
G01 X16.4096 Y50.9409
G01 X16.3907 Y51.0162
G01 X16.3628 Y51.0939
G01 X16.3301 Y51.1630
G01 X16.2908 Y51.2286
G01 X16.2425 Y51.2941
G01 X16.1877 Y51.3542
G01 X16.1311 Y51.4055
G01 X16.0697 Y51.4511
G01 X16.0000 Y51.4931
G01 X15.9264 Y51.5277
G01 X15.8544 Y51.5534
G01 X15.7791 Y51.5723
G01 X15.6974 Y51.5843
G01 X15.6210 Y51.5880
G01 X15.5422 Y51.5841
G01 X15.4618 Y51.5720
G01 X15.3876 Y51.5534
G01 X15.3133 Y51.5268
G01 X15.2420 Y51.4931
G01 X15.1764 Y51.4538
G01 X15.1109 Y51.4055
G01 X15.0525 Y51.3525
G01 X15.0011 Y51.2959
G01 X14.9518 Y51.2296
G01 X14.9108 Y51.1608
G01 X14.8782 Y51.0917
G01 X14.8524 Y51.0197
G01 X14.8324 Y50.9409
G01 X14.8208 Y50.8616
G01 X14.8170 Y50.7840
G01 X14.8170 Y49.6562
G01 X14.8087 Y49.6509
G01 X14.7673 Y49.6201
G01 X14.7273 Y49.5839
G01 X13.9619 Y48.8185
G01 X13.9264 Y48.7794
G01 X13.8922 Y48.7330
G01 X13.8657 Y48.6888
G01 X13.8426 Y48.6400
G01 X13.8238 Y48.5868
G01 X13.8113 Y48.5367
G01 X13.8035 Y48.4846
G01 X13.8007 Y48.4294
G01 X13.8007 Y34.1369
G01 X11.4363 Y31.7724
G01 X11.4009 Y31.7333
G01 X11.3701 Y31.6919
G01 X11.3404 Y31.6425
G01 X11.3178 Y31.5948
G01 X11.3000 Y31.5451
G01 X11.2868 Y31.4927
G01 X11.2817 Y31.4595
G00 Z2.0000
G00 X9.3372 Y31.4925
G01 F80.00
G01 Z-0.0350
G01 F80.00
G01 X9.2985 Y31.5020
G01 X9.1990 Y31.5168
G01 X9.0961 Y31.5220
G01 X8.9920 Y31.5169
G01 X8.8913 Y31.5020
G01 X8.7901 Y31.4768
G01 X8.6931 Y31.4421
G01 X8.5999 Y31.3980
G01 X8.5105 Y31.3443
G01 X8.4288 Y31.2837
G01 X8.3524 Y31.2145
G01 X8.2832 Y31.1381
G01 X8.2205 Y31.0533
G01 X8.1689 Y30.9670
G01 X8.1258 Y30.8761
G01 X8.0909 Y30.7791
G01 X8.0651 Y30.6768
G01 X8.0501 Y30.5761
G01 X8.0449 Y30.4720
G01 X8.0449 Y29.4720
G01 X8.0498 Y29.3715
G01 X8.0656 Y29.2648
G01 X8.0901 Y29.1672
G01 X8.1253 Y29.0691
G01 X8.1701 Y28.9749
G01 X8.2219 Y28.8887
G01 X8.2817 Y28.8078
G01 X8.3524 Y28.7295
G01 X8.4307 Y28.6588
G01 X8.5116 Y28.5990
G01 X8.5978 Y28.5472
G01 X8.6931 Y28.5019
G01 X8.7925 Y28.4666
G01 X8.8901 Y28.4422
G01 X8.9908 Y28.4272
G01 X9.0974 Y28.4221
G01 X9.1978 Y28.4271
G01 X9.2997 Y28.4422
G01 X9.3997 Y28.4672
G01 X9.4944 Y28.5010
G01 X9.5899 Y28.5460
G01 X9.6782 Y28.5990
G01 X9.7591 Y28.6588
G01 X9.8374 Y28.7295
G01 X9.9066 Y28.8059
G01 X9.9665 Y28.8866
G01 X10.0215 Y28.9781
G01 X10.0650 Y29.0702
G01 X10.0997 Y29.1672
G01 X10.1247 Y29.2672
G01 X10.1400 Y29.3715
G01 X10.1449 Y29.4720
G01 X10.1449 Y30.4732
G01 X10.1397 Y30.5761
G01 X10.1249 Y30.6756
G01 X10.1154 Y30.7143
G01 X13.4709 Y34.0699
G01 X13.5063 Y34.1090
G01 X13.5371 Y34.1504
G01 X13.5663 Y34.1987
G01 X13.5902 Y34.2498
G01 X13.6076 Y34.2984
G01 X13.6207 Y34.3508
G01 X13.6286 Y34.4042
G01 X13.6313 Y34.4581
G01 X13.6313 Y48.7069
G01 X13.6504 Y48.7244
G01 X13.7033 Y48.7829
G01 X13.7495 Y48.8453
G01 X13.7906 Y48.9141
G01 X13.8238 Y48.9843
G01 X13.8504 Y49.0586
G01 X13.8696 Y49.1351
G01 X13.8810 Y49.2120
G01 X13.8850 Y49.2920
G01 X13.8850 Y50.7852
G01 X13.8811 Y50.8628
G01 X13.8696 Y50.9409
G01 X13.8504 Y51.0174
G01 X13.8247 Y51.0894
G01 X13.7889 Y51.1651
G01 X13.7495 Y51.2307
G01 X13.7025 Y51.2941
G01 X13.6495 Y51.3525
G01 X13.5929 Y51.4039
G01 X13.5256 Y51.4538
G01 X13.4600 Y51.4931
G01 X13.3887 Y51.5268
G01 X13.3144 Y51.5534
G01 X13.2379 Y51.5726
G01 X13.1598 Y51.5841
G01 X13.0810 Y51.5880
G01 X13.0022 Y51.5841
G01 X12.9218 Y51.5720
G01 X12.8476 Y51.5534
G01 X12.7756 Y51.5277
G01 X12.7042 Y51.4942
G01 X12.6343 Y51.4525
G01 X12.5709 Y51.4055
G01 X12.5125 Y51.3525
G01 X12.4595 Y51.2941
G01 X12.4125 Y51.2307
G01 X12.3708 Y51.1608
G01 X12.3373 Y51.0894
G01 X12.3116 Y51.0174
G01 X12.2930 Y50.9432
G01 X12.2809 Y50.8628
G01 X12.2771 Y50.7865
G01 X12.2770 Y49.2920
G01 X12.2810 Y49.2120
G01 X12.2924 Y49.1351
G01 X12.3116 Y49.0586
G01 X12.3382 Y48.9843
G01 X12.3714 Y48.9141
G01 X12.4125 Y48.8453
G01 X12.4587 Y48.7829
G01 X12.5116 Y48.7244
G01 X12.5307 Y48.7069
G01 X12.5307 Y34.6860
G01 X9.3372 Y31.4925
G00 Z2.0000
G00 X3.7438 Y32.6709
G01 F80.00
G01 Z-0.0350
G01 F80.00
G01 X3.7464 Y32.6195
G01 X3.7543 Y32.5661
G01 X3.7674 Y32.5137
G01 X3.7848 Y32.4651
G01 X3.8099 Y32.4119
G01 X3.8365 Y32.3677
G01 X3.8703 Y32.3225
G01 X3.9049 Y32.2843
G01 X5.5234 Y30.6658
G01 X5.5100 Y30.5749
G01 X5.5049 Y30.4720
G01 X5.5049 Y29.4720
G01 X5.5101 Y29.3679
G01 X5.5251 Y29.2672
G01 X5.5495 Y29.1696
G01 X5.5848 Y29.0702
G01 X5.6289 Y28.9770
G01 X5.6805 Y28.8907
G01 X5.7440 Y28.8049
G01 X5.8124 Y28.7295
G01 X5.8888 Y28.6603
G01 X5.9716 Y28.5990
G01 X6.0599 Y28.5460
G01 X6.1531 Y28.5019
G01 X6.2501 Y28.4672
G01 X6.3501 Y28.4422
G01 X6.4520 Y28.4271
G01 X6.5549 Y28.4220
G01 X6.6578 Y28.4271
G01 X6.7597 Y28.4422
G01 X6.8597 Y28.4672
G01 X6.9567 Y28.5019
G01 X7.0499 Y28.5460
G01 X7.1382 Y28.5990
G01 X7.2220 Y28.6611
G01 X7.2974 Y28.7295
G01 X7.3666 Y28.8059
G01 X7.4279 Y28.8887
G01 X7.4809 Y28.9770
G01 X7.5250 Y29.0702
G01 X7.5597 Y29.1672
G01 X7.5847 Y29.2672
G01 X7.5997 Y29.3679
G01 X7.6049 Y29.4720
G01 X7.6049 Y30.4720
G01 X7.5999 Y30.5737
G01 X7.5847 Y30.6768
G01 X7.5597 Y30.7768
G01 X7.5250 Y30.8738
G01 X7.4803 Y30.9680
G01 X7.4279 Y31.0553
G01 X7.3666 Y31.1381
G01 X7.2974 Y31.2145
G01 X7.2229 Y31.2821
G01 X7.1362 Y31.3464
G01 X7.0499 Y31.3980
G01 X6.9567 Y31.4421
G01 X6.8597 Y31.4768
G01 X6.7621 Y31.5013
G01 X6.6554 Y31.5171
G01 X6.5549 Y31.5220
G01 X6.4520 Y31.5169
G01 X6.3501 Y31.5018
G01 X6.2650 Y31.4806
G01 X4.8443 Y32.9013
G01 X4.8443 Y53.3284
G01 X15.1803 Y63.6644
G01 X15.2194 Y63.6664
G01 X15.2704 Y63.6739
G01 X15.3252 Y63.6874
G01 X15.3772 Y63.7061
G01 X15.4249 Y63.7287
G01 X15.4538 Y63.7460
G01 X15.4666 Y63.7430
G01 X15.5422 Y63.7319
G01 X15.6235 Y63.7281
G01 X15.6998 Y63.7319
G01 X15.7754 Y63.7430
G01 X15.8556 Y63.7630
G01 X15.9287 Y63.7892
G01 X15.9978 Y63.8218
G01 X16.0677 Y63.8635
G01 X16.1329 Y63.9121
G01 X16.1895 Y63.9635
G01 X16.2425 Y64.0219
G01 X16.2908 Y64.0874
G01 X16.3301 Y64.1530
G01 X16.3638 Y64.2243
G01 X16.3904 Y64.2986
G01 X16.4090 Y64.3728
G01 X16.4212 Y64.4544
G01 X16.4250 Y64.5320
G01 X16.4250 Y66.0240
G01 X16.4208 Y66.1052
G01 X16.4096 Y66.1809
G01 X16.3910 Y66.2550
G01 X16.3638 Y66.3317
G01 X16.3301 Y66.4030
G01 X16.2908 Y66.4686
G01 X16.2425 Y66.5341
G01 X16.1895 Y66.5925
G01 X16.1329 Y66.6439
G01 X16.0677 Y66.6925
G01 X15.9978 Y66.7342
G01 X15.9287 Y66.7668
G01 X15.8567 Y66.7926
G01 X15.7754 Y66.8130
G01 X15.6998 Y66.8241
G01 X15.6185 Y66.8279
G01 X15.5422 Y66.8241
G01 X15.4641 Y66.8126
G01 X15.3876 Y66.7934
G01 X15.3133 Y66.7668
G01 X15.2420 Y66.7331
G01 X15.1743 Y66.6925
G01 X15.1109 Y66.6455
G01 X15.0543 Y66.5942
G01 X14.9980 Y66.5321
G01 X14.9525 Y66.4707
G01 X14.9114 Y66.4019
G01 X14.8782 Y66.3317
G01 X14.8516 Y66.2574
G01 X14.8324 Y66.1809
G01 X14.8207 Y66.1004
G01 X14.8170 Y66.0240
G01 X14.8170 Y64.7469
G01 X14.7908 Y64.7402
G01 X14.7423 Y64.7228
G01 X14.6912 Y64.6987
G01 X14.6460 Y64.6715
G01 X14.6046 Y64.6409
G01 X14.5626 Y64.6031
G01 X3.9049 Y53.9454
G01 X3.8687 Y53.9054
G01 X3.8352 Y53.8599
G01 X3.8076 Y53.8135
G01 X3.7856 Y53.7669
G01 X3.7682 Y53.7184
G01 X3.7539 Y53.6612
G01 X3.7464 Y53.6102
G01 X3.7437 Y53.5563
G01 X3.7438 Y32.6709
G00 Z2.0000
G00 X2.4898 Y31.7150
G01 F80.00
G01 Z-0.0350
G01 F80.00
G01 X2.4924 Y31.6636
G01 X2.4999 Y31.6126
G01 X2.5134 Y31.5578
G01 X2.5316 Y31.5069
G01 X2.5536 Y31.4603
G01 X2.5832 Y31.4108
G01 X2.6147 Y31.3684
G01 X2.6501 Y31.3293
G01 X3.0643 Y30.9151
G01 X3.0444 Y30.8727
G01 X3.0098 Y30.7756
G01 X2.9851 Y30.6768
G01 X2.9699 Y30.5737
G01 X2.9649 Y30.4720
G01 X2.9650 Y29.4695
G01 X2.9700 Y29.3691
G01 X2.9847 Y29.2696
G01 X3.0101 Y29.1672
G01 X3.0458 Y29.0679
G01 X3.0889 Y28.9770
G01 X3.1419 Y28.8887
G01 X3.2032 Y28.8059
G01 X3.2724 Y28.7295
G01 X3.3488 Y28.6603
G01 X3.4316 Y28.5990
G01 X3.5199 Y28.5460
G01 X3.6131 Y28.5019
G01 X3.7101 Y28.4672
G01 X3.8101 Y28.4422
G01 X3.9120 Y28.4271
G01 X4.0149 Y28.4220
G01 X4.1178 Y28.4271
G01 X4.2197 Y28.4422
G01 X4.3197 Y28.4672
G01 X4.4167 Y28.5019
G01 X4.5099 Y28.5460
G01 X4.5982 Y28.5990
G01 X4.6810 Y28.6603
G01 X4.7574 Y28.7295
G01 X4.8266 Y28.8059
G01 X4.8879 Y28.8887
G01 X4.9409 Y28.9770
G01 X4.9850 Y29.0702
G01 X5.0197 Y29.1672
G01 X5.0447 Y29.2672
G01 X5.0598 Y29.3691
G01 X5.0649 Y29.4708
G01 X5.0649 Y30.4732
G01 X5.0598 Y30.5749
G01 X5.0451 Y30.6744
G01 X5.0197 Y30.7768
G01 X4.9840 Y30.8761
G01 X4.9409 Y30.9670
G01 X4.8879 Y31.0553
G01 X4.8250 Y31.1400
G01 X4.7574 Y31.2145
G01 X4.6810 Y31.2837
G01 X4.5982 Y31.3450
G01 X4.5099 Y31.3980
G01 X4.4167 Y31.4421
G01 X4.3220 Y31.4760
G01 X4.2173 Y31.5022
G01 X4.1178 Y31.5169
G01 X4.0137 Y31.5220
G01 X3.5903 Y31.9454
G01 X3.5903 Y54.2631
G01 X13.0563 Y63.7292
G01 X13.0822 Y63.7280
G01 X13.1586 Y63.7318
G01 X13.2366 Y63.7432
G01 X13.3144 Y63.7626
G01 X13.3898 Y63.7897
G01 X13.4621 Y63.8241
G01 X13.5277 Y63.8635
G01 X13.5891 Y63.9090
G01 X13.6495 Y63.9635
G01 X13.7033 Y64.0229
G01 X13.7495 Y64.0853
G01 X13.7889 Y64.1509
G01 X13.8238 Y64.2243
G01 X13.8504 Y64.2986
G01 X13.8690 Y64.3728
G01 X13.8812 Y64.4544
G01 X13.8850 Y64.5320
G01 X13.8850 Y66.0240
G01 X13.8808 Y66.1052
G01 X13.8696 Y66.1809
G01 X13.8510 Y66.2550
G01 X13.8238 Y66.3317
G01 X13.7901 Y66.4030
G01 X13.7508 Y66.4686
G01 X13.7025 Y66.5341
G01 X13.6495 Y66.5925
G01 X13.5929 Y66.6439
G01 X13.5277 Y66.6925
G01 X13.4600 Y66.7331
G01 X13.3909 Y66.7658
G01 X13.3144 Y66.7934
G01 X13.2379 Y66.8126
G01 X13.1598 Y66.8241
G01 X13.0810 Y66.8280
G01 X13.0046 Y66.8243
G01 X12.9218 Y66.8120
G01 X12.8476 Y66.7934
G01 X12.7711 Y66.7658
G01 X12.7020 Y66.7331
G01 X12.6343 Y66.6925
G01 X12.5709 Y66.6455
G01 X12.5125 Y66.5925
G01 X12.4595 Y66.5341
G01 X12.4125 Y66.4707
G01 X12.3719 Y66.4030
G01 X12.3387 Y66.3328
G01 X12.3116 Y66.2574
G01 X12.2924 Y66.1809
G01 X12.2809 Y66.1028
G01 X12.2770 Y66.0252
G01 X12.2770 Y64.5320
G01 X12.2782 Y64.5073
G01 X2.6509 Y54.8801
G01 X2.6147 Y54.8401
G01 X2.5812 Y54.7946
G01 X2.5547 Y54.7504
G01 X2.5326 Y54.7038
G01 X2.5134 Y54.6507
G01 X2.5003 Y54.5983
G01 X2.4927 Y54.5474
G01 X2.4897 Y54.4910
G01 X2.4898 Y31.7150
G00 Z2.0000
G00 X5.0378 Y36.4465
G01 F80.00
G01 Z-0.0350
G01 F80.00
G01 X5.0404 Y36.3951
G01 X5.0483 Y36.3417
G01 X5.0614 Y36.2893
G01 X5.0788 Y36.2407
G01 X5.1039 Y36.1875
G01 X5.1305 Y36.1433
G01 X5.1634 Y36.0990
G01 X5.1989 Y36.0599
G01 X6.5995 Y34.6593
G01 X6.5900 Y34.6206
G01 X6.5752 Y34.5211
G01 X6.5700 Y34.4158
G01 X6.5751 Y34.3141
G01 X6.5898 Y34.2146
G01 X6.6156 Y34.1110
G01 X6.6499 Y34.0152
G01 X6.6929 Y33.9242
G01 X6.7470 Y33.8337
G01 X6.8083 Y33.7509
G01 X6.8758 Y33.6763
G01 X6.9548 Y33.6046
G01 X7.0367 Y33.5440
G01 X7.1250 Y33.4910
G01 X7.2182 Y33.4469
G01 X7.3152 Y33.4122
G01 X7.4152 Y33.3872
G01 X7.5171 Y33.3721
G01 X7.6200 Y33.3670
G01 X7.7229 Y33.3721
G01 X7.8248 Y33.3872
G01 X7.9248 Y33.4122
G01 X8.0218 Y33.4469
G01 X8.1150 Y33.4910
G01 X8.2033 Y33.5440
G01 X8.2861 Y33.6053
G01 X8.3625 Y33.6745
G01 X8.4324 Y33.7518
G01 X8.4930 Y33.8337
G01 X8.5460 Y33.9220
G01 X8.5901 Y34.0152
G01 X8.6240 Y34.1099
G01 X8.6502 Y34.2146
G01 X8.6649 Y34.3141
G01 X8.6700 Y34.4170
G01 X8.6649 Y34.5199
G01 X8.6502 Y34.6194
G01 X8.6240 Y34.7241
G01 X8.5901 Y34.8188
G01 X8.5460 Y34.9120
G01 X8.4930 Y35.0003
G01 X8.4324 Y35.0822
G01 X8.3607 Y35.1612
G01 X8.2861 Y35.2287
G01 X8.2033 Y35.2900
G01 X8.1128 Y35.3441
G01 X8.0218 Y35.3871
G01 X7.9260 Y35.4214
G01 X7.8224 Y35.4472
G01 X7.7229 Y35.4619
G01 X7.6212 Y35.4670
G01 X7.5159 Y35.4618
G01 X7.4164 Y35.4470
G01 X7.3777 Y35.4375
G01 X6.1383 Y36.6769
G01 X6.1383 Y52.8490
G01 X15.6991 Y62.4097
G01 X26.3416 Y62.4097
G01 X26.3955 Y62.4124
G01 X26.4465 Y62.4199
G01 X26.5025 Y62.4338
G01 X26.5522 Y62.4516
G01 X26.6031 Y62.4759
G01 X26.6473 Y62.5025
G01 X26.6887 Y62.5331
G01 X26.7298 Y62.5701
G01 X27.9696 Y63.8098
G01 X28.0145 Y63.7887
G01 X28.0888 Y63.7623
G01 X28.1641 Y63.7434
G01 X28.2434 Y63.7318
G01 X28.3210 Y63.7280
G01 X28.3998 Y63.7319
G01 X28.4779 Y63.7434
G01 X28.5556 Y63.7630
G01 X28.6287 Y63.7892
G01 X28.7000 Y63.8229
G01 X28.7677 Y63.8635
G01 X28.8311 Y63.9105
G01 X28.8895 Y63.9635
G01 X28.9425 Y64.0219
G01 X28.9895 Y64.0853
G01 X29.0295 Y64.1519
G01 X29.0638 Y64.2243
G01 X29.0910 Y64.3010
G01 X29.1096 Y64.3751
G01 X29.1208 Y64.4508
G01 X29.1249 Y64.5295
G01 X29.1250 Y66.0240
G01 X29.1212 Y66.1016
G01 X29.1096 Y66.1809
G01 X29.0904 Y66.2574
G01 X29.0638 Y66.3317
G01 X29.0301 Y66.4030
G01 X28.9895 Y66.4707
G01 X28.9425 Y66.5341
G01 X28.8895 Y66.5925
G01 X28.8301 Y66.6463
G01 X28.7677 Y66.6925
G01 X28.7000 Y66.7331
G01 X28.6287 Y66.7668
G01 X28.5544 Y66.7934
G01 X28.4779 Y66.8126
G01 X28.3998 Y66.8241
G01 X28.3210 Y66.8280
G01 X28.2422 Y66.8241
G01 X28.1641 Y66.8126
G01 X28.0876 Y66.7934
G01 X28.0133 Y66.7668
G01 X27.9420 Y66.7331
G01 X27.8743 Y66.6925
G01 X27.8109 Y66.6455
G01 X27.7525 Y66.5925
G01 X27.7003 Y66.5350
G01 X27.6512 Y66.4686
G01 X27.6119 Y66.4030
G01 X27.5782 Y66.3317
G01 X27.5510 Y66.2550
G01 X27.5324 Y66.1809
G01 X27.5210 Y66.1040
G01 X27.5170 Y66.0240
G01 X27.5170 Y64.8962
G01 X27.5087 Y64.8909
G01 X27.4673 Y64.8601
G01 X27.4273 Y64.8239
G01 X26.1137 Y63.5103
G01 X15.4712 Y63.5103
G01 X15.4148 Y63.5073
G01 X15.3639 Y63.4997
G01 X15.3138 Y63.4872
G01 X15.2606 Y63.4684
G01 X15.2107 Y63.4447
G01 X15.1655 Y63.4175
G01 X15.1241 Y63.3869
G01 X15.0821 Y63.3491
G01 X5.1989 Y53.4660
G01 X5.1619 Y53.4250
G01 X5.1305 Y53.3826
G01 X5.1027 Y53.3363
G01 X5.0796 Y53.2875
G01 X5.0622 Y53.2390
G01 X5.0479 Y53.1818
G01 X5.0404 Y53.1308
G01 X5.0377 Y53.0769
G01 X5.0378 Y36.4465
G00 Z2.0000
G00 X6.4529 Y37.9809
G01 F80.00
G01 Z-0.0350
G01 F80.00
G01 X7.5945 Y36.8394
G01 X7.7303 Y36.6927
G01 X7.7872 Y36.6221
G01 X7.8364 Y36.5538
G01 X7.8776 Y36.4882
G01 X7.9108 Y36.4256
G01 X7.9361 Y36.3660
G01 X7.9537 Y36.3094
G01 X7.9639 Y36.2559
G01 X7.9672 Y36.2005
G01 X7.9671 Y36.1925
G01 X7.9721 Y36.0921
G01 X7.9874 Y35.9890
G01 X8.0122 Y35.8902
G01 X8.0460 Y35.7955
G01 X8.0904 Y35.7011
G01 X8.1440 Y35.6117
G01 X8.2069 Y35.5270
G01 X8.2745 Y35.4525
G01 X8.3490 Y35.3849
G01 X8.4326 Y35.3227
G01 X8.5220 Y35.2690
G01 X8.6152 Y35.2249
G01 X8.7122 Y35.1902
G01 X8.8122 Y35.1652
G01 X8.9141 Y35.1501
G01 X9.0170 Y35.1450
G01 X9.1199 Y35.1501
G01 X9.2218 Y35.1652
G01 X9.3218 Y35.1902
G01 X9.4188 Y35.2249
G01 X9.5120 Y35.2690
G01 X9.6003 Y35.3220
G01 X9.6831 Y35.3833
G01 X9.7595 Y35.4525
G01 X9.8287 Y35.5289
G01 X9.8893 Y35.6106
G01 X9.9441 Y35.7022
G01 X9.9871 Y35.7932
G01 X10.0218 Y35.8902
G01 X10.0468 Y35.9902
G01 X10.0616 Y36.0896
G01 X10.0669 Y36.1975
G01 X10.0619 Y36.2979
G01 X10.0468 Y36.3998
G01 X10.0218 Y36.4998
G01 X9.9880 Y36.5945
G01 X9.9418 Y36.6921
G01 X9.8900 Y36.7783
G01 X9.8287 Y36.8611
G01 X9.7595 Y36.9375
G01 X9.6812 Y37.0082
G01 X9.6003 Y37.0680
G01 X9.5141 Y37.1198
G01 X9.4199 Y37.1646
G01 X9.3218 Y37.1998
G01 X9.2206 Y37.2250
G01 X9.1199 Y37.2399
G01 X9.0195 Y37.2449
G01 X9.0115 Y37.2448
G01 X8.9561 Y37.2480
G01 X8.9027 Y37.2583
G01 X8.8460 Y37.2759
G01 X8.7864 Y37.3012
G01 X8.7238 Y37.3344
G01 X8.6582 Y37.3756
G01 X8.5904 Y37.4244
G01 X8.4449 Y37.5476
G01 X8.3806 Y37.6096
G01 X7.3923 Y38.5979
G01 X7.3923 Y52.3295
G01 X16.2185 Y61.1557
G01 X28.4320 Y61.1557
G01 X28.4884 Y61.1587
G01 X28.5393 Y61.1663
G01 X28.5894 Y61.1788
G01 X28.6426 Y61.1976
G01 X28.6935 Y61.2219
G01 X28.7377 Y61.2485
G01 X28.7791 Y61.2791
G01 X28.8211 Y61.3169
G01 X30.9961 Y63.4919
G01 X31.0339 Y63.5339
G01 X31.0645 Y63.5753
G01 X31.0923 Y63.6216
G01 X31.1154 Y63.6704
G01 X31.1328 Y63.7189
G01 X31.1461 Y63.7713
G01 X31.1479 Y63.7817
G01 X31.1698 Y63.7897
G01 X31.2411 Y63.8235
G01 X31.3077 Y63.8635
G01 X31.3720 Y63.9113
G01 X31.4295 Y63.9635
G01 X31.4825 Y64.0219
G01 X31.5295 Y64.0853
G01 X31.5706 Y64.1541
G01 X31.6038 Y64.2243
G01 X31.6310 Y64.3010
G01 X31.6496 Y64.3751
G01 X31.6608 Y64.4508
G01 X31.6649 Y64.5295
G01 X31.6650 Y66.0240
G01 X31.6612 Y66.1016
G01 X31.6496 Y66.1809
G01 X31.6304 Y66.2574
G01 X31.6038 Y66.3317
G01 X31.5701 Y66.4030
G01 X31.5295 Y66.4707
G01 X31.4825 Y66.5341
G01 X31.4295 Y66.5925
G01 X31.3720 Y66.6447
G01 X31.3077 Y66.6925
G01 X31.2400 Y66.7331
G01 X31.1687 Y66.7668
G01 X31.0944 Y66.7934
G01 X31.0179 Y66.8126
G01 X30.9398 Y66.8241
G01 X30.8610 Y66.8280
G01 X30.7798 Y66.8238
G01 X30.7018 Y66.8120
G01 X30.6276 Y66.7934
G01 X30.5556 Y66.7677
G01 X30.4820 Y66.7331
G01 X30.4164 Y66.6938
G01 X30.3509 Y66.6455
G01 X30.2925 Y66.5925
G01 X30.2395 Y66.5341
G01 X30.1932 Y66.4717
G01 X30.1508 Y66.4008
G01 X30.1182 Y66.3317
G01 X30.0924 Y66.2597
G01 X30.0724 Y66.1809
G01 X30.0607 Y66.1004
G01 X30.0570 Y66.0240
G01 X30.0570 Y64.5308
G01 X30.0612 Y64.4508
G01 X30.0724 Y64.3751
G01 X30.0867 Y64.3179
G01 X30.0801 Y64.2991
G01 X30.0676 Y64.2490
G01 X30.0597 Y64.1969
G01 X30.0568 Y64.1417
G01 X30.0567 Y64.1089
G01 X28.2041 Y62.2563
G01 X15.9906 Y62.2563
G01 X15.9342 Y62.2533
G01 X15.8833 Y62.2457
G01 X15.8332 Y62.2332
G01 X15.7800 Y62.2144
G01 X15.7301 Y62.1907
G01 X15.6849 Y62.1635
G01 X15.6435 Y62.1329
G01 X15.6015 Y62.0951
G01 X6.4529 Y52.9465
G01 X6.4174 Y52.9074
G01 X6.3845 Y52.8631
G01 X6.3579 Y52.8189
G01 X6.3328 Y52.7657
G01 X6.3154 Y52.7171
G01 X6.3023 Y52.6647
G01 X6.2944 Y52.6113
G01 X6.2917 Y52.5574
G01 X6.2917 Y38.3700
G01 X6.2944 Y38.3161
G01 X6.3023 Y38.2626
G01 X6.3154 Y38.2103
G01 X6.3336 Y38.1594
G01 X6.3567 Y38.1106
G01 X6.3845 Y38.0643
G01 X6.4167 Y38.0209
G01 X6.4529 Y37.9809
G00 Z2.0000
G00 X7.5458 Y39.6535
G01 F80.00
G01 Z-0.0350
G01 F80.00
G01 X7.5484 Y39.6021
G01 X7.5563 Y39.5487
G01 X7.5694 Y39.4963
G01 X7.5876 Y39.4454
G01 X7.6107 Y39.3966
G01 X7.6385 Y39.3503
G01 X7.6707 Y39.3069
G01 X7.7061 Y39.2678
G01 X9.6481 Y37.3258
G01 X9.6872 Y37.2904
G01 X9.7316 Y37.2575
G01 X9.7780 Y37.2299
G01 X9.8246 Y37.2078
G01 X9.8396 Y37.2023
G01 X9.8571 Y37.1789
G01 X9.9247 Y37.1044
G01 X10.0009 Y37.0351
G01 X10.0847 Y36.9730
G01 X10.1720 Y36.9206
G01 X10.2662 Y36.8759
G01 X10.3632 Y36.8412
G01 X10.4632 Y36.8162
G01 X10.5651 Y36.8011
G01 X10.6680 Y36.7960
G01 X10.7709 Y36.8011
G01 X10.8728 Y36.8162
G01 X10.9728 Y36.8412
G01 X11.0698 Y36.8759
G01 X11.1630 Y36.9200
G01 X11.2513 Y36.9730
G01 X11.3341 Y37.0343
G01 X11.4105 Y37.1035
G01 X11.4797 Y37.1799
G01 X11.5410 Y37.2627
G01 X11.5934 Y37.3500
G01 X11.6381 Y37.4442
G01 X11.6720 Y37.5389
G01 X11.6982 Y37.6436
G01 X11.7129 Y37.7431
G01 X11.7180 Y37.8460
G01 X11.7129 Y37.9489
G01 X11.6978 Y38.0508
G01 X11.6728 Y38.1508
G01 X11.6390 Y38.2455
G01 X11.5928 Y38.3431
G01 X11.5410 Y38.4293
G01 X11.4797 Y38.5121
G01 X11.4105 Y38.5885
G01 X11.3351 Y38.6569
G01 X11.2513 Y38.7190
G01 X11.1630 Y38.7720
G01 X11.0698 Y38.8161
G01 X10.9751 Y38.8500
G01 X10.8728 Y38.8758
G01 X10.7734 Y38.8906
G01 X10.6655 Y38.8959
G01 X10.5651 Y38.8909
G01 X10.4632 Y38.8758
G01 X10.3632 Y38.8508
G01 X10.2662 Y38.8161
G01 X10.1730 Y38.7720
G01 X10.0847 Y38.7190
G01 X10.0019 Y38.6577
G01 X9.9340 Y38.5962
G01 X8.6463 Y39.8839
G01 X8.6463 Y51.8101
G01 X16.7379 Y59.9017
G01 X29.5910 Y59.9017
G01 X29.6474 Y59.9047
G01 X29.6983 Y59.9123
G01 X29.7484 Y59.9248
G01 X29.8016 Y59.9436
G01 X29.8525 Y59.9679
G01 X29.8967 Y59.9945
G01 X29.9381 Y60.0251
G01 X29.9801 Y60.0629
G01 X33.5361 Y63.6189
G01 X33.5723 Y63.6589
G01 X33.6038 Y63.7013
G01 X33.6317 Y63.7475
G01 X33.6399 Y63.7645
G01 X33.7087 Y63.7892
G01 X33.7800 Y63.8229
G01 X33.8477 Y63.8635
G01 X33.9091 Y63.9090
G01 X33.9712 Y63.9653
G01 X34.0225 Y64.0219
G01 X34.0702 Y64.0864
G01 X34.1112 Y64.1552
G01 X34.1438 Y64.2243
G01 X34.1696 Y64.2963
G01 X34.1896 Y64.3751
G01 X34.2012 Y64.4544
G01 X34.2050 Y64.5320
G01 X34.2049 Y66.0265
G01 X34.2011 Y66.1028
G01 X34.1896 Y66.1809
G01 X34.1704 Y66.2574
G01 X34.1438 Y66.3317
G01 X34.1101 Y66.4030
G01 X34.0695 Y66.4707
G01 X34.0225 Y66.5341
G01 X33.9695 Y66.5925
G01 X33.9111 Y66.6455
G01 X33.8477 Y66.6925
G01 X33.7800 Y66.7331
G01 X33.7087 Y66.7668
G01 X33.6344 Y66.7934
G01 X33.5579 Y66.8126
G01 X33.4798 Y66.8241
G01 X33.3985 Y66.8279
G01 X33.3222 Y66.8241
G01 X33.2418 Y66.8120
G01 X33.1676 Y66.7934
G01 X33.0956 Y66.7677
G01 X33.0242 Y66.7342
G01 X32.9543 Y66.6925
G01 X32.8909 Y66.6455
G01 X32.8325 Y66.5925
G01 X32.7795 Y66.5341
G01 X32.7312 Y66.4686
G01 X32.6919 Y66.4030
G01 X32.6582 Y66.3317
G01 X32.6316 Y66.2574
G01 X32.6130 Y66.1832
G01 X32.6008 Y66.1016
G01 X32.5970 Y66.0240
G01 X32.5970 Y64.5308
G01 X32.6012 Y64.4508
G01 X32.6124 Y64.3751
G01 X32.6267 Y64.3179
G01 X32.6201 Y64.2991
G01 X32.6070 Y64.2462
G01 X29.3631 Y61.0023
G01 X16.5100 Y61.0023
G01 X16.4561 Y60.9996
G01 X16.4003 Y60.9911
G01 X16.3503 Y60.9786
G01 X16.3017 Y60.9612
G01 X16.2506 Y60.9373
G01 X16.2043 Y60.9095
G01 X16.1629 Y60.8789
G01 X16.1209 Y60.8411
G01 X7.7069 Y52.4271
G01 X7.6707 Y52.3871
G01 X7.6385 Y52.3437
G01 X7.6107 Y52.2974
G01 X7.5876 Y52.2486
G01 X7.5694 Y52.1977
G01 X7.5563 Y52.1453
G01 X7.5484 Y52.0919
G01 X7.5458 Y52.0392
G01 X7.5458 Y39.6535
G00 Z2.0000
G00 X9.8826 Y40.7812
G01 F80.00
G01 Z-0.0350
G01 F80.00
G01 X9.0189 Y41.6449
G01 X9.0133 Y41.6497
G01 X9.0092 Y41.6524
G01 X9.0038 Y41.6552
G01 X8.9980 Y41.6573
G01 X8.9920 Y41.6588
G01 X8.9860 Y41.6594
G01 X8.9798 Y41.6594
G01 X8.9737 Y41.6585
G01 X8.9678 Y41.6570
G01 X8.8351 Y41.6021
G01 X8.8298 Y41.5991
G01 X8.8248 Y41.5956
G01 X8.8203 Y41.5914
G01 X8.8163 Y41.5867
G01 X8.8118 Y41.5794
G01 X8.8090 Y41.5726
G01 X8.8070 Y41.5642
G01 X8.8065 Y41.5569
G01 X8.8065 Y39.9710
G01 X8.8075 Y39.9612
G01 X8.8103 Y39.9519
G01 X8.8149 Y39.9432
G01 X8.8211 Y39.9356
G01 X9.9134 Y38.8433
G01 X9.9211 Y38.8371
G01 X9.9298 Y38.8325
G01 X9.9344 Y38.8308
G01 X9.9404 Y38.8294
G01 X9.9503 Y38.8287
G01 X9.9564 Y38.8293
G01 X9.9613 Y38.8303
G01 X9.9671 Y38.8322
G01 X9.9727 Y38.8348
G01 X10.2033 Y38.9679
G01 X10.5158 Y39.0517
G01 X10.5228 Y39.0541
G01 X10.5283 Y39.0569
G01 X10.5343 Y39.0611
G01 X10.5405 Y39.0670
G01 X10.5456 Y39.0739
G01 X10.5489 Y39.0805
G01 X10.5961 Y39.1998
G01 X10.5986 Y39.2091
G01 X10.5992 Y39.2187
G01 X10.5976 Y39.2359
G01 X10.5961 Y39.2420
G01 X10.5939 Y39.2477
G01 X10.5910 Y39.2532
G01 X10.5866 Y39.2592
G01 X10.5824 Y39.2637
G01 X10.5776 Y39.2676
G01 X10.3097 Y39.4225
G01 X10.0856 Y39.6467
G01 X9.9271 Y39.9213
G01 X9.8450 Y40.2275
G01 X9.8450 Y40.5445
G01 X9.8965 Y40.7376
G01 X9.8972 Y40.7437
G01 X9.8970 Y40.7497
G01 X9.8962 Y40.7558
G01 X9.8946 Y40.7617
G01 X9.8929 Y40.7662
G01 X9.8900 Y40.7716
G01 X9.8866 Y40.7766
G01 X9.8826 Y40.7812
G00 Z2.0000
G00 X8.8478 Y42.2680
G01 F80.00
G01 Z-0.0350
G01 F80.00
G01 X8.8504 Y42.2166
G01 X8.8583 Y42.1632
G01 X8.8714 Y42.1108
G01 X8.8888 Y42.0622
G01 X8.9139 Y42.0090
G01 X8.9405 Y41.9648
G01 X8.9734 Y41.9205
G01 X9.0089 Y41.8814
G01 X10.0865 Y40.8039
G01 X10.0780 Y40.7855
G01 X10.0436 Y40.6884
G01 X10.0192 Y40.5908
G01 X10.0041 Y40.4889
G01 X9.9990 Y40.3860
G01 X10.0039 Y40.2855
G01 X10.0197 Y40.1788
G01 X10.0442 Y40.0812
G01 X10.0789 Y39.9842
G01 X10.1230 Y39.8910
G01 X10.1746 Y39.8047
G01 X10.2389 Y39.7180
G01 X10.3065 Y39.6435
G01 X10.3819 Y39.5751
G01 X10.4657 Y39.5130
G01 X10.5540 Y39.4600
G01 X10.6472 Y39.4159
G01 X10.7442 Y39.3812
G01 X10.8442 Y39.3562
G01 X10.9461 Y39.3411
G01 X11.0490 Y39.3360
G01 X11.1519 Y39.3411
G01 X11.2538 Y39.3562
G01 X11.3538 Y39.3812
G01 X11.4508 Y39.4159
G01 X11.5440 Y39.4600
G01 X11.6323 Y39.5130
G01 X11.7151 Y39.5743
G01 X11.7915 Y39.6435
G01 X11.8599 Y39.7189
G01 X11.9234 Y39.8047
G01 X11.9750 Y39.8910
G01 X12.0191 Y39.9842
G01 X12.0538 Y40.0812
G01 X12.0783 Y40.1788
G01 X12.0941 Y40.2855
G01 X12.0990 Y40.3860
G01 X12.0939 Y40.4889
G01 X12.0788 Y40.5908
G01 X12.0544 Y40.6884
G01 X12.0181 Y40.7901
G01 X11.9750 Y40.8810
G01 X11.9213 Y40.9704
G01 X11.8591 Y41.0540
G01 X11.7915 Y41.1285
G01 X11.7170 Y41.1961
G01 X11.6323 Y41.2590
G01 X11.5429 Y41.3126
G01 X11.4485 Y41.3570
G01 X11.3538 Y41.3908
G01 X11.2550 Y41.4156
G01 X11.1507 Y41.4310
G01 X11.0502 Y41.4360
G01 X11.0124 Y41.4343
G01 X9.9483 Y42.4984
G01 X9.9483 Y51.2071
G01 X17.2459 Y58.5047
G01 X30.2257 Y58.5047
G01 X30.2796 Y58.5074
G01 X30.3330 Y58.5153
G01 X30.3854 Y58.5284
G01 X30.4363 Y58.5466
G01 X30.4851 Y58.5697
G01 X30.5314 Y58.5975
G01 X30.5748 Y58.6297
G01 X30.6148 Y58.6659
G01 X35.6973 Y63.7484
G01 X35.7092 Y63.7514
G01 X35.7269 Y63.7577
G01 X35.7841 Y63.7434
G01 X35.8598 Y63.7322
G01 X35.9422 Y63.7280
G01 X36.0198 Y63.7319
G01 X36.0954 Y63.7430
G01 X36.1756 Y63.7630
G01 X36.2487 Y63.7892
G01 X36.3178 Y63.8218
G01 X36.3877 Y63.8635
G01 X36.4511 Y63.9105
G01 X36.5077 Y63.9618
G01 X36.5633 Y64.0229
G01 X36.6095 Y64.0853
G01 X36.6489 Y64.1509
G01 X36.6838 Y64.2243
G01 X36.7104 Y64.2986
G01 X36.7290 Y64.3728
G01 X36.7411 Y64.4532
G01 X36.7450 Y64.5320
G01 X36.7450 Y66.0240
G01 X36.7411 Y66.1028
G01 X36.7296 Y66.1809
G01 X36.7104 Y66.2574
G01 X36.6847 Y66.3294
G01 X36.6489 Y66.4051
G01 X36.6095 Y66.4707
G01 X36.5617 Y66.5350
G01 X36.5095 Y66.5925
G01 X36.4511 Y66.6455
G01 X36.3877 Y66.6925
G01 X36.3178 Y66.7342
G01 X36.2464 Y66.7677
G01 X36.1744 Y66.7934
G01 X36.1002 Y66.8120
G01 X36.0198 Y66.8241
G01 X35.9435 Y66.8279
G01 X35.8622 Y66.8241
G01 X35.7841 Y66.8126
G01 X35.7076 Y66.7934
G01 X35.6333 Y66.7668
G01 X35.5620 Y66.7331
G01 X35.4943 Y66.6925
G01 X35.4309 Y66.6455
G01 X35.3716 Y66.5916
G01 X35.3195 Y66.5341
G01 X35.2739 Y66.4727
G01 X35.2308 Y66.4008
G01 X35.1982 Y66.3317
G01 X35.1716 Y66.2574
G01 X35.1524 Y66.1809
G01 X35.1410 Y66.1040
G01 X35.1370 Y66.0240
G01 X35.1370 Y64.7311
G01 X35.0996 Y64.7033
G01 X35.0596 Y64.6671
G01 X29.9978 Y59.6053
G01 X17.0180 Y59.6053
G01 X16.9641 Y59.6026
G01 X16.9107 Y59.5947
G01 X16.8583 Y59.5816
G01 X16.8097 Y59.5642
G01 X16.7565 Y59.5391
G01 X16.7123 Y59.5125
G01 X16.6680 Y59.4796
G01 X16.6289 Y59.4441
G01 X9.0089 Y51.8241
G01 X8.9727 Y51.7841
G01 X8.9405 Y51.7407
G01 X8.9127 Y51.6944
G01 X8.8901 Y51.6467
G01 X8.8714 Y51.5947
G01 X8.8583 Y51.5423
G01 X8.8504 Y51.4889
G01 X8.8477 Y51.4350
G01 X8.8478 Y42.2680
G00 Z2.0000
G00 X12.3334 Y39.8746
G01 F80.00
G01 Z-0.0350
G01 F80.00
G01 X12.2016 Y39.9096
G01 X12.1930 Y39.9103
G01 X12.1832 Y39.9092
G01 X12.1738 Y39.9063
G01 X12.1652 Y39.9015
G01 X12.1576 Y39.8951
G01 X12.1544 Y39.8914
G01 X12.1508 Y39.8864
G01 X12.0125 Y39.6467
G01 X11.7883 Y39.4225
G01 X11.5137 Y39.2641
G01 X11.2012 Y39.1803
G01 X11.1942 Y39.1779
G01 X11.1887 Y39.1751
G01 X11.1827 Y39.1709
G01 X11.1773 Y39.1659
G01 X11.1728 Y39.1601
G01 X11.1691 Y39.1538
G01 X11.1213 Y39.0333
G01 X11.1194 Y39.0276
G01 X11.1181 Y39.0205
G01 X11.1178 Y39.0133
G01 X11.1189 Y38.9997
G01 X11.1202 Y38.9924
G01 X11.1226 Y38.9854
G01 X11.1260 Y38.9788
G01 X11.1304 Y38.9728
G01 X11.1356 Y38.9675
G01 X11.1436 Y38.9617
G01 X11.4073 Y38.8094
G01 X11.6314 Y38.5853
G01 X11.7899 Y38.3107
G01 X11.8720 Y38.0045
G01 X11.8720 Y37.6875
G01 X11.7899 Y37.3813
G01 X11.6314 Y37.1067
G01 X11.4073 Y36.8825
G01 X11.1327 Y36.7241
G01 X10.8265 Y36.6420
G01 X10.5095 Y36.6420
G01 X10.3206 Y36.6926
G01 X10.3109 Y36.6940
G01 X10.3012 Y36.6934
G01 X10.2941 Y36.6918
G01 X10.2873 Y36.6891
G01 X10.2820 Y36.6862
G01 X10.2761 Y36.6818
G01 X10.1828 Y36.5887
G01 X10.1789 Y36.5840
G01 X10.1762 Y36.5800
G01 X10.1733 Y36.5746
G01 X10.1712 Y36.5689
G01 X10.1698 Y36.5630
G01 X10.1691 Y36.5569
G01 X10.1691 Y36.5509
G01 X10.1697 Y36.5460
G01 X10.2210 Y36.3535
G01 X10.2210 Y36.0365
G01 X10.1389 Y35.7303
G01 X9.9804 Y35.4557
G01 X9.7563 Y35.2316
G01 X9.4817 Y35.0731
G01 X9.1755 Y34.9910
G01 X8.9058 Y34.9910
G01 X8.8997 Y34.9906
G01 X8.8925 Y34.9892
G01 X8.8868 Y34.9872
G01 X8.8813 Y34.9846
G01 X8.8752 Y34.9805
G01 X8.8706 Y34.9765
G01 X8.7810 Y34.8785
G01 X8.7760 Y34.8717
G01 X8.7727 Y34.8653
G01 X8.7628 Y34.8370
G01 X8.7605 Y34.8274
G01 X8.7602 Y34.8175
G01 X8.7618 Y34.8078
G01 X8.8240 Y34.5755
G01 X8.8240 Y34.2585
G01 X8.7419 Y33.9523
G01 X8.5835 Y33.6777
G01 X8.3593 Y33.4536
G01 X8.0847 Y33.2951
G01 X7.7785 Y33.2130
G01 X7.4615 Y33.2130
G01 X7.1553 Y33.2951
G01 X6.8807 Y33.4536
G01 X6.6565 Y33.6777
G01 X6.4981 Y33.9523
G01 X6.4160 Y34.2585
G01 X6.4160 Y34.5756
G01 X6.4183 Y34.5859
G01 X6.4188 Y34.5944
G01 X6.4178 Y34.6028
G01 X6.4158 Y34.6098
G01 X6.4122 Y34.6175
G01 X6.4074 Y34.6245
G01 X5.2035 Y35.8283
G01 X5.1985 Y35.8318
G01 X5.1932 Y35.8348
G01 X5.1875 Y35.8371
G01 X5.1816 Y35.8386
G01 X5.1755 Y35.8395
G01 X5.1693 Y35.8395
G01 X5.1632 Y35.8389
G01 X5.1573 Y35.8374
G01 X5.0331 Y35.7862
G01 X5.0277 Y35.7832
G01 X5.0228 Y35.7796
G01 X5.0183 Y35.7755
G01 X5.0143 Y35.7708
G01 X5.0104 Y35.7646
G01 X5.0070 Y35.7567
G01 X5.0052 Y35.7495
G01 X5.0045 Y35.7410
G01 X5.0045 Y32.9884
G01 X5.0050 Y32.9811
G01 X5.0067 Y32.9739
G01 X5.0088 Y32.9681
G01 X5.0116 Y32.9627
G01 X5.0151 Y32.9576
G01 X5.0191 Y32.9530
G01 X6.2996 Y31.6725
G01 X6.3053 Y31.6677
G01 X6.3126 Y31.6632
G01 X6.3207 Y31.6600
G01 X6.3304 Y31.6581
G01 X6.3391 Y31.6581
G01 X6.5549 Y31.6864
G01 X6.8692 Y31.6450
G01 X7.1621 Y31.5237
G01 X7.4135 Y31.3307
G01 X7.6065 Y31.0792
G01 X7.7104 Y30.8284
G01 X7.7152 Y30.8199
G01 X7.7216 Y30.8125
G01 X7.7293 Y30.8065
G01 X7.7370 Y30.8025
G01 X7.7451 Y30.7999
G01 X7.7536 Y30.7988
G01 X7.8948 Y30.7987
G01 X7.9009 Y30.7992
G01 X7.9057 Y30.8002
G01 X7.9104 Y30.8016
G01 X7.9161 Y30.8040
G01 X7.9234 Y30.8085
G01 X7.9290 Y30.8133
G01 X7.9345 Y30.8199
G01 X7.9388 Y30.8273
G01 X8.0432 Y31.0792
G01 X8.2362 Y31.3307
G01 X8.4877 Y31.5237
G01 X8.7805 Y31.6450
G01 X9.0949 Y31.6864
G01 X9.2605 Y31.6648
G01 X9.2704 Y31.6655
G01 X9.2799 Y31.6681
G01 X9.2888 Y31.6725
G01 X9.2957 Y31.6777
G01 X12.3559 Y34.7378
G01 X12.3607 Y34.7434
G01 X12.3646 Y34.7496
G01 X12.3680 Y34.7575
G01 X12.3698 Y34.7647
G01 X12.3705 Y34.7732
